P2
100 100
255
100 84 163 84 137 63 106 111 222 110 158 114 130 194 143 138 170 117 135 139 85 178 51 90 114 67 103 125 192 169 151 220 113 105 139 91 136 141 177 145 162 78 105 96 144 61 154 125 209 203 129 94 107 142 190 201 151 89 87 53 107 129 132 124 18 216 79 118 125 28 142 173 178 20 171 108 168 126 104 86 212 31 143 165 8 95 103 108 152 94 141 140 161 121 92 154 179 144 103 194 
145 121 67 84 204 105 186 201 120 136 114 98 230 166 168 122 105 87 214 148 157 115 53 86 117 100 110 64 78 193 146 189 79 162 156 73 116 26 59 112 102 95 164 132 173 163 136 86 217 173 131 130 116 143 102 159 125 112 141 150 155 149 139 110 62 188 105 140 125 215 129 145 125 182 117 87 216 107 182 167 59 69 97 217 169 68 123 153 42 88 96 112 78 70 78 95 133 140 117 54 
118 175 38 97 110 157 125 170 112 78 80 143 130 128 95 80 83 87 174 106 127 225 134 166 226 135 144 172 139 200 52 129 29 134 51 110 159 158 55 49 141 112 92 49 150 178 125 137 62 145 129 150 67 159 149 173 62 120 151 169 158 182 170 175 75 103 197 108 82 134 228 142 187 61 197 151 91 134 62 153 73 92 161 103 201 104 125 115 85 114 152 112 176 121 177 69 139 141 96 122 
114 148 174 96 71 183 135 144 31 105 165 162 82 95 159 143 183 166 173 93 149 214 201 118 146 116 107 135 111 114 54 122 194 129 123 105 83 124 113 128 95 151 213 135 175 140 102 189 91 53 42 122 187 155 127 120 100 91 109 134 28 125 86 48 143 159 178 146 57 141 71 138 121 163 124 102 100 84 164 141 95 93 99 172 103 115 78 113 202 114 147 124 79 144 115 83 129 136 153 150 
162 173 113 141 103 177 196 215 153 117 110 132 103 208 127 165 135 152 130 154 112 158 187 122 193 90 160 177 230 88 91 96 151 41 115 138 124 145 161 203 77 142 165 89 105 81 106 212 130 161 152 156 179 175 15 146 119 86 106 180 42 60 110 57 91 45 128 173 129 75 101 125 84 118 78 142 182 167 91 131 203 159 99 150 81 152 98 135 66 32 114 162 114 175 115 92 134 83 93 145 
140 211 205 178 158 135 108 133 201 90 184 107 105 42 148 106 181 114 210 103 108 98 163 129 154 108 149 156 170 158 95 38 184 156 91 120 171 117 165 157 142 217 99 88 146 137 49 117 155 151 123 180 32 166 92 130 46 102 113 176 152 97 44 139 198 133 82 183 175 115 52 124 104 157 110 114 101 117 199 148 100 116 138 144 187 22 127 84 130 81 123 88 117 110 117 48 110 89 188 134 
120 80 168 41 158 162 46 213 184 190 138 146 170 152 148 49 110 89 88 105 183 141 45 138 46 109 173 124 153 179 108 140 125 194 74 87 184 146 169 132 165 139 87 183 181 168 98 139 120 162 137 149 110 52 108 68 79 176 81 129 111 156 105 171 167 165 80 174 151 83 155 53 168 193 132 139 118 137 130 123 201 111 100 140 152 150 112 184 50 87 126 130 112 120 145 74 111 194 220 75 
212 163 158 224 119 132 119 131 138 174 99 151 142 104 219 136 146 136 77 82 163 105 220 115 142 210 90 82 174 234 150 58 82 79 149 129 163 72 199 176 41 172 124 135 141 135 69 115 95 93 116 108 182 98 131 114 139 129 180 109 87 126 107 174 132 155 169 94 178 116 80 91 108 89 119 112 158 140 76 152 191 123 60 203 187 159 88 125 140 146 92 187 116 94 123 183 73 106 107 167 
171 54 152 177 109 195 149 174 147 178 98 89 114 92 136 160 159 157 164 95 192 99 184 148 148 92 178 101 169 93 112 35 120 152 198 120 101 163 115 68 112 138 127 187 122 142 56 67 106 132 153 130 86 164 100 48 92 69 72 125 89 121 210 142 94 158 103 170 208 54 160 147 32 113 124 131 21 156 142 52 157 105 134 128 131 92 187 123 137 113 61 143 189 147 142 165 82 137 158 158 
120 113 99 145 59 152 103 75 107 168 133 191 12 117 172 165 160 84 146 131 100 136 233 69 138 88 106 157 175 57 46 190 215 84 160 149 74 148 92 150 47 106 18 97 132 130 83 56 139 127 211 150 148 143 142 113 186 40 80 64 135 110 147 124 114 46 196 106 79 115 92 84 151 135 126 154 153 110 110 97 111 134 154 121 133 65 80 174 153 65 232 159 78 102 55 90 106 171 142 162 
85 209 91 84 106 91 95 45 101 69 104 38 91 111 202 142 86 75 67 114 117 134 158 79 204 140 105 118 20 113 111 93 56 92 144 159 86 106 135 65 93 142 31 165 30 157 88 82 147 163 169 193 112 166 97 142 111 184 77 55 116 94 118 197 112 113 199 63 137 165 56 94 120 172 86 135 90 83 172 95 72 117 60 73 78 91 184 140 154 119 142 147 73 23 131 137 158 71 136 159 
137 140 145 96 105 139 179 130 133 177 88 51 55 94 119 85 119 170 118 160 139 111 228 143 160 67 132 134 224 140 36 82 157 179 109 147 103 72 102 100 158 157 167 106 160 80 63 165 103 88 149 150 128 88 150 122 113 85 123 32 141 134 63 140 103 25 104 135 130 60 97 138 152 57 196 57 59 101 64 110 137 119 141 104 237 217 22 83 217 122 118 92 148 85 90 82 79 128 131 113 
197 160 95 97 181 96 103 186 229 236 92 139 112 147 133 228 169 78 97 150 102 154 87 137 113 124 99 75 69 106 147 38 46 153 191 100 136 86 183 43 160 149 228 88 115 197 134 143 91 106 170 109 235 113 52 178 85 174 184 131 107 71 93 68 90 70 144 166 121 160 124 164 194 130 154 139 79 142 166 61 111 146 73 133 161 173 172 79 119 174 145 176 130 111 157 141 170 104 162 99 
154 163 114 100 144 150 146 121 63 116 92 190 126 125 141 223 109 169 141 157 201 143 26 201 135 103 182 115 71 162 122 59 64 149 145 195 159 141 125 117 106 166 112 97 119 70 132 109 214 148 74 87 172 167 96 72 118 104 84 89 119 118 138 85 67 119 156 104 133 23 156 96 140 94 157 172 219 102 159 104 35 144 71 149 57 96 153 186 133 153 120 90 171 87 114 196 125 152 131 204 
186 138 164 147 133 122 130 199 119 93 77 118 220 145 106 111 182 74 37 143 107 96 87 92 123 188 165 146 91 130 100 97 146 149 205 160 106 125 105 154 133 42 207 91 115 139 188 167 111 79 34 95 145 98 144 95 118 156 122 138 52 169 106 96 93 51 124 81 114 107 92 153 143 150 60 70 214 88 145 143 89 117 217 112 73 141 168 95 151 88 167 130 87 87 76 57 109 72 189 192 
173 100 120 100 162 137 164 171 144 139 149 86 139 85 81 106 117 53 66 153 49 44 119 187 181 165 159 83 169 120 157 118 175 166 146 90 147 162 197 159 178 201 183 154 127 175 86 103 141 114 138 128 96 171 57 173 65 142 143 231 139 86 182 181 66 113 115 79 136 149 167 179 133 175 136 123 73 84 88 142 122 122 61 142 82 142 169 180 175 96 197 126 195 149 127 69 113 17 186 153 
153 47 166 40 119 122 87 85 181 114 131 155 100 96 161 209 107 52 94 88 133 162 102 178 77 150 178 119 132 138 127 160 67 127 86 114 98 80 174 187 133 124 123 37 156 102 118 37 159 130 159 82 125 173 149 139 62 163 61 91 149 72 82 121 117 28 137 160 149 140 66 122 186 52 62 224 62 180 124 75 236 122 127 154 161 135 59 176 88 193 77 172 163 121 60 108 80 142 184 106 
97 234 111 128 64 129 114 176 157 168 108 101 91 98 74 105 162 126 79 142 194 106 93 156 143 81 199 157 126 75 127 114 135 84 105 74 135 112 189 86 123 153 98 72 126 149 140 196 121 86 141 173 64 180 216 84 145 111 97 102 28 97 188 61 220 155 110 74 83 153 181 135 120 27 91 135 106 69 105 55 47 169 106 158 120 189 137 182 141 136 176 88 193 126 102 110 163 101 116 151 
92 157 164 167 101 118 176 45 127 102 90 170 175 199 106 135 210 121 61 164 149 122 202 61 86 148 50 96 178 95 171 152 147 91 120 44 132 178 170 131 117 112 69 176 99 108 145 170 122 139 133 207 105 45 110 198 155 161 115 43 129 146 133 250 75 125 110 105 115 87 180 61 88 173 211 43 123 196 83 62 179 220 102 55 127 53 121 110 46 201 16 140 147 207 200 109 123 88 82 137 
167 94 97 124 119 140 119 130 175 184 52 95 131 130 193 93 111 112 124 105 45 131 192 61 61 139 95 90 115 136 135 107 136 217 172 94 68 135 122 56 178 148 114 151 135 105 104 100 175 127 144 122 137 149 160 166 89 198 200 138 128 171 127 106 141 147 74 212 101 149 247 114 63 92 135 110 120 145 102 119 185 129 123 154 189 179 100 155 113 227 89 123 160 174 91 129 149 123 112 135 
113 70 107 77 6 196 122 8 139 49 204 64 76 55 112 143 81 192 183 48 161 126 97 44 25 142 149 157 176 148 44 101 68 146 146 140 28 134 118 100 164 180 218 177 110 179 164 91 175 164 105 89 145 130 83 184 198 161 122 119 136 127 113 122 169 61 153 163 192 160 74 144 64 107 96 233 231 179 20 138 133 127 96 154 152 144 97 128 158 133 155 139 160 108 110 163 152 140 212 89 
132 163 108 50 158 135 136 144 138 142 132 97 208 130 216 121 129 95 176 201 130 165 140 153 117 119 199 173 149 106 127 141 176 117 139 93 174 213 215 92 227 124 189 156 107 101 112 114 168 164 172 158 127 86 175 128 119 203 132 192 153 201 107 114 96 82 95 98 76 141 187 200 154 64 142 128 155 122 107 158 57 83 154 124 206 159 115 55 15 165 145 133 138 201 183 146 225 39 80 139 
84 164 191 141 115 78 186 89 64 147 141 148 167 172 92 119 169 97 117 141 158 178 112 144 124 182 154 103 177 213 106 83 135 66 123 153 192 135 164 131 162 188 153 101 120 110 141 172 153 172 120 205 186 79 110 146 128 153 159 134 82 85 177 213 98 112 173 165 124 105 217 88 53 160 129 75 132 88 119 46 70 127 184 176 89 89 81 78 173 117 91 71 89 127 135 190 132 121 158 159 
129 146 174 135 197 82 115 104 88 185 147 91 83 183 162 163 143 149 134 107 132 123 114 94 141 146 100 94 46 142 60 195 120 140 194 113 120 98 122 137 129 186 71 122 145 166 144 156 66 103 145 149 139 97 134 186 109 110 187 143 90 45 133 129 77 52 151 156 166 65 182 151 189 60 170 127 135 143 73 146 198 126 112 164 112 167 166 176 118 86 97 127 127 142 112 103 165 133 134 122 
60 76 70 70 40 50 167 192 157 146 160 86 146 147 66 189 66 140 73 132 52 155 170 113 82 86 63 91 105 123 113 94 144 161 127 135 94 107 77 124 93 136 136 160 152 99 110 108 70 94 102 194 141 66 116 59 144 83 105 120 142 144 92 148 112 134 113 182 62 117 150 62 115 185 205 72 111 179 126 106 92 155 175 84 38 92 78 171 138 153 127 99 156 136 128 79 160 151 134 71 
102 188 61 184 157 159 127 160 156 170 99 187 225 189 138 149 59 83 74 219 177 142 194 182 165 143 190 133 193 119 118 80 165 109 211 195 194 77 94 112 144 133 55 106 100 209 116 147 153 179 81 105 175 174 120 204 90 135 101 158 108 37 98 111 130 35 118 142 216 147 125 153 148 160 136 73 107 115 218 116 97 123 104 122 74 155 200 183 100 126 78 179 141 110 99 162 142 120 174 129 
70 62 166 64 109 66 101 143 111 155 116 65 118 124 180 148 100 131 126 162 167 88 48 85 155 73 68 169 54 108 135 137 172 129 77 121 182 115 100 111 147 157 148 83 175 213 74 64 112 86 106 177 207 59 79 113 67 116 74 138 97 192 88 170 145 111 154 204 124 109 142 159 68 136 73 147 131 46 140 148 202 183 99 148 127 169 136 118 101 118 73 99 198 38 133 79 175 181 137 166 
192 141 163 165 118 175 57 101 34 131 81 42 79 141 155 68 137 58 104 90 109 152 152 172 121 114 69 192 65 123 120 129 105 69 239 171 82 109 132 177 76 97 121 159 176 160 149 75 124 203 140 136 80 117 70 138 88 104 131 126 104 145 73 105 158 144 129 122 132 160 184 71 87 199 158 136 138 138 64 142 158 75 177 134 108 170 131 100 139 144 116 150 100 105 116 78 66 134 148 215 
167 75 169 136 62 109 185 120 143 141 102 171 113 64 122 33 177 154 85 139 41 118 182 16 117 111 200 99 133 87 129 130 120 73 117 59 55 174 83 54 133 120 142 173 102 82 225 212 114 128 140 113 139 92 119 137 147 109 161 102 217 86 152 124 110 81 146 35 73 166 194 132 77 138 150 130 113 94 108 159 127 100 134 128 128 100 188 132 150 134 167 144 145 158 81 204 104 137 227 144 
132 97 183 68 100 101 148 43 96 157 137 129 144 144 93 187 145 139 147 157 134 191 71 77 146 213 164 86 174 148 179 146 150 157 218 131 158 85 115 122 172 125 197 95 124 98 199 74 128 143 128 184 161 157 115 176 107 129 202 121 84 120 104 182 54 104 40 169 82 113 114 70 141 230 137 91 98 131 124 123 86 198 25 133 59 137 115 61 70 50 206 125 86 112 143 179 139 59 124 149 
127 172 95 126 174 137 135 169 95 151 187 141 113 71 146 113 130 150 131 68 12 95 191 93 207 220 97 125 135 119 117 129 78 85 138 112 147 107 175 121 180 151 143 140 165 115 149 143 144 116 43 87 143 75 124 136 91 39 121 70 190 166 128 61 50 82 164 64 106 116 139 54 162 91 199 135 116 169 136 166 150 131 183 131 109 153 107 120 80 156 175 31 66 157 85 184 136 168 138 151 
152 114 212 89 128 200 151 132 88 128 143 118 134 79 150 140 116 132 134 97 81 139 179 114 193 181 104 66 59 239 131 81 160 146 149 130 87 92 83 67 136 136 70 125 153 176 99 19 169 155 152 101 55 166 141 154 64 102 45 85 154 28 72 173 95 97 135 186 155 146 119 88 119 103 146 59 131 98 105 164 179 148 104 170 197 125 137 225 156 159 179 120 151 105 185 113 131 115 82 68 
180 111 152 93 114 163 154 119 115 120 69 84 119 119 110 157 129 72 84 125 166 104 155 81 124 127 102 127 78 138 134 164 109 187 122 87 193 141 63 75 157 146 176 173 179 116 96 146 32 78 200 157 90 103 135 229 132 73 90 116 107 178 151 124 72 147 88 190 111 125 169 143 133 184 193 174 131 136 203 133 69 176 146 177 67 95 106 203 198 73 143 189 165 119 82 156 72 172 83 89 
99 138 106 59 137 156 71 141 155 102 51 116 86 21 147 99 139 150 153 181 105 132 193 177 75 183 107 185 76 142 160 130 182 71 76 122 76 140 164 131 113 208 119 188 138 162 200 95 101 129 135 163 155 167 144 147 167 87 120 133 54 184 137 161 131 204 107 148 141 46 116 81 159 131 186 78 79 153 194 107 102 105 107 62 56 200 180 165 97 130 132 154 129 154 140 115 132 170 189 90 
86 165 39 104 114 115 162 122 116 86 74 175 114 81 187 160 219 118 84 95 172 154 150 185 212 90 149 192 44 76 124 86 156 75 46 109 118 205 80 95 65 113 122 112 45 129 157 156 115 102 212 129 170 138 182 130 200 103 134 101 96 172 140 129 108 131 208 78 112 159 165 42 182 104 101 164 133 126 118 114 83 98 150 188 128 106 79 170 180 148 48 81 115 142 131 196 160 91 213 97 
155 178 126 136 106 146 147 106 181 125 153 109 49 151 88 135 58 62 116 89 129 29 173 100 71 95 140 130 64 163 78 151 110 50 149 200 192 178 143 160 88 160 213 178 164 131 153 117 112 197 151 49 107 127 97 124 127 124 124 164 181 151 159 113 22 141 130 128 115 112 145 211 192 210 131 176 115 83 127 123 94 124 73 169 118 140 121 124 139 98 179 146 114 140 70 68 204 84 64 111 
161 91 105 141 88 104 154 140 117 97 85 84 201 99 69 125 236 149 75 132 188 136 196 37 101 62 159 99 151 105 105 100 163 92 71 133 109 55 103 63 179 120 128 136 145 45 159 169 158 144 118 204 158 148 150 107 145 193 163 224 115 125 186 162 173 54 100 156 196 22 151 192 85 137 107 147 157 55 106 74 68 78 132 126 158 141 74 121 122 81 112 69 125 176 28 142 159 75 120 187 
125 156 97 170 86 160 125 164 146 150 129 99 126 140 177 138 135 128 145 83 118 173 179 114 190 78 47 74 155 165 62 151 182 202 109 131 74 169 86 87 130 137 123 82 108 130 102 117 124 109 173 140 113 113 113 135 92 58 114 88 173 119 160 126 105 139 97 90 152 135 68 49 163 83 144 101 117 228 199 146 181 112 128 136 98 180 93 118 186 124 130 96 164 31 122 188 138 184 109 141 
162 123 149 110 183 172 213 154 78 204 196 74 164 141 146 102 109 132 139 121 135 101 128 166 146 201 139 74 101 70 87 158 85 96 134 128 109 110 130 134 145 129 114 144 96 38 124 122 176 175 124 116 165 74 106 37 177 68 125 159 130 133 132 95 151 72 105 148 134 121 193 134 142 121 145 194 121 99 129 206 133 119 114 65 159 78 114 144 128 86 125 136 60 83 106 109 83 142 174 142 
131 147 106 149 101 128 66 163 73 211 57 102 164 123 127 122 113 129 171 152 134 183 135 108 79 119 89 142 150 113 91 161 134 200 115 123 172 99 135 134 159 123 73 33 128 141 200 110 69 113 195 88 170 145 124 170 186 66 53 158 173 143 67 124 141 124 96 72 108 102 121 128 108 105 53 119 110 176 170 161 151 143 174 217 85 123 181 119 126 170 133 130 112 42 147 70 133 163 178 106 
172 140 68 163 198 103 145 138 137 69 150 164 156 77 147 168 104 40 152 96 152 186 101 97 100 151 183 52 147 167 173 117 139 126 88 147 167 118 71 92 181 153 192 102 113 98 181 193 107 186 182 89 174 165 118 38 128 155 46 125 162 136 168 141 128 207 102 109 154 157 130 159 102 92 191 177 129 123 53 104 168 144 166 154 80 103 125 74 126 155 94 133 157 102 163 104 151 150 130 107 
44 130 122 95 128 135 156 97 82 121 96 86 192 39 108 106 200 227 26 42 192 137 95 184 149 159 124 129 173 129 82 108 178 173 184 169 157 147 126 155 97 90 115 119 161 36 158 121 198 131 124 122 75 133 70 31 218 151 129 131 130 138 93 110 86 115 94 110 123 237 169 113 103 90 102 126 114 197 97 177 164 194 114 174 29 207 122 153 147 80 47 165 118 16 172 134 94 73 94 108 
107 106 91 96 114 167 216 124 94 133 158 197 170 105 66 88 84 86 123 157 127 191 166 98 53 98 83 101 126 62 103 138 103 33 151 88 118 116 120 212 103 128 129 123 160 130 179 131 157 147 156 61 143 196 149 211 109 166 77 79 174 23 157 199 100 68 140 115 116 132 107 79 177 113 144 220 90 71 189 211 208 96 154 92 130 143 207 172 114 100 135 126 84 114 105 127 123 156 167 75 
103 199 136 174 175 100 138 130 78 191 76 121 167 126 66 101 174 101 116 173 150 137 95 91 41 48 141 125 152 190 151 93 104 165 32 155 63 177 149 110 147 144 143 188 124 94 66 173 49 120 68 117 138 142 198 182 82 91 102 155 163 174 126 159 102 173 29 116 116 97 54 125 71 168 183 121 94 176 159 90 163 184 183 87 112 78 20 140 63 107 118 121 112 97 164 159 188 146 198 30 
127 41 187 74 116 54 144 73 131 208 96 97 119 140 156 102 100 108 156 113 128 71 168 149 79 111 206 47 67 148 119 182 149 107 102 94 144 159 159 107 91 141 96 124 230 140 89 60 110 179 182 109 57 123 87 94 151 104 171 158 89 56 92 152 139 219 223 202 112 170 120 143 147 117 104 133 62 71 126 63 173 95 84 149 115 154 147 151 166 126 114 134 174 98 47 77 16 49 106 216 
110 60 167 149 88 104 91 72 136 186 120 106 136 69 119 74 161 82 118 121 106 74 142 186 166 127 145 86 37 100 103 176 108 141 104 67 200 204 161 197 135 118 182 75 139 113 167 115 99 181 146 69 133 109 70 96 90 86 125 132 98 90 83 59 131 115 145 104 170 135 178 163 196 152 179 123 166 149 117 184 122 92 125 147 102 135 69 101 140 178 183 103 105 137 68 185 130 136 131 123 
202 87 106 163 63 179 90 77 94 161 175 208 100 149 202 148 144 130 77 138 110 158 106 90 113 100 141 127 105 118 76 109 164 205 136 117 176 36 122 105 154 81 133 172 192 89 181 96 133 112 215 123 158 119 108 81 129 117 121 120 172 82 155 88 116 141 219 103 123 156 77 117 128 211 65 97 147 142 211 85 128 112 211 139 125 66 35 49 136 113 152 45 74 97 80 115 170 59 102 181 
156 112 157 76 193 122 130 76 96 85 76 110 54 148 96 76 127 107 113 96 116 50 67 154 52 166 208 112 156 60 172 207 203 126 119 160 85 171 51 106 151 99 170 203 191 149 146 94 130 76 129 121 133 161 71 54 44 167 125 168 140 184 87 79 131 187 147 87 167 166 166 86 101 150 172 142 175 148 188 90 131 76 152 158 53 170 168 82 157 111 91 169 110 69 135 182 112 125 80 65 
138 175 168 131 60 78 169 168 80 163 133 137 125 200 86 177 149 141 224 144 164 159 94 151 159 142 133 86 156 109 207 89 202 182 140 183 113 107 129 119 66 110 170 99 174 101 89 143 174 218 100 100 159 190 159 131 158 83 96 110 182 122 113 145 145 133 117 132 190 169 115 145 119 153 134 119 114 166 151 92 130 110 114 96 140 125 209 129 86 106 115 74 147 134 113 159 138 185 143 169 
69 142 131 147 162 101 30 77 184 96 41 21 98 118 144 129 153 165 43 121 183 100 118 122 113 85 97 120 145 185 97 149 161 197 111 131 92 184 108 80 85 128 126 116 198 34 85 124 79 217 115 77 153 73 91 132 154 56 166 86 215 162 65 67 131 164 66 59 167 180 172 73 189 158 83 130 118 143 107 59 202 94 98 109 132 142 160 113 148 92 79 79 134 170 147 85 61 141 139 187 
106 108 184 41 147 53 224 151 145 81 167 173 125 77 181 184 112 99 171 145 154 94 92 216 131 140 163 91 84 66 137 124 128 84 202 160 167 72 134 134 98 113 100 72 148 170 85 152 129 110 199 154 73 168 121 147 184 91 175 80 112 196 151 58 183 107 98 185 72 133 145 142 96 142 120 164 126 137 42 122 110 164 167 51 172 152 107 124 133 122 155 70 204 87 68 161 123 160 96 164 
75 160 163 106 101 168 93 110 165 114 109 175 131 138 113 102 81 152 107 190 70 124 243 147 114 148 58 75 128 167 162 233 110 177 217 139 190 157 133 205 176 98 170 135 153 187 137 159 159 167 72 113 137 143 124 221 26 116 81 68 65 172 93 93 146 171 169 213 188 182 142 171 45 89 107 189 126 148 120 155 109 76 76 170 170 195 190 147 55 70 43 93 126 109 116 154 184 116 97 156 
178 165 49 144 172 88 176 165 144 127 86 162 147 148 118 88 127 148 127 99 199 222 153 85 87 142 93 108 121 147 53 91 62 127 88 70 177 163 62 65 130 166 153 177 86 126 99 75 137 24 88 181 120 227 40 81 151 186 197 117 105 87 84 206 135 73 215 73 152 171 117 96 37 144 121 100 134 129 97 221 126 58 154 165 152 169 134 135 130 98 99 176 104 161 40 86 174 219 144 144 
126 122 103 148 107 82 88 106 100 145 113 68 192 130 185 151 175 80 81 86 94 103 132 143 74 77 145 66 151 45 75 169 104 81 180 199 109 102 196 100 131 121 182 133 65 183 68 179 89 147 122 16 189 168 189 64 78 176 82 192 66 127 146 166 83 200 187 110 115 80 106 77 173 92 70 129 129 94 134 146 109 87 112 95 96 153 180 229 110 44 95 124 182 98 117 110 106 147 40 133 
107 66 70 40 117 144 100 191 48 85 101 65 187 113 99 115 159 91 67 192 200 133 132 115 92 225 196 162 78 239 123 170 97 111 103 156 130 109 91 120 127 129 116 146 152 142 161 76 152 101 144 101 86 131 86 138 69 115 109 159 194 123 163 174 65 176 110 71 39 175 170 166 119 151 138 208 162 124 84 114 46 157 174 143 113 164 94 99 87 119 190 92 137 73 125 156 69 108 147 86 
149 137 123 139 161 27 163 179 142 121 78 163 118 125 64 87 179 96 152 119 125 138 165 89 180 64 51 65 127 169 88 71 169 115 216 122 99 85 107 153 149 133 25 155 152 80 156 132 73 144 125 211 220 201 148 48 73 146 178 135 112 88 98 191 186 119 122 105 111 104 118 145 106 141 158 180 114 229 53 104 67 100 111 87 99 44 194 148 122 79 216 63 202 201 119 181 183 37 100 91 
111 93 100 185 122 222 130 65 165 134 56 42 21 113 145 165 69 121 165 108 160 114 66 90 96 147 148 97 137 96 121 144 117 176 123 138 51 135 151 88 48 55 50 178 84 120 137 205 129 131 121 123 56 50 35 201 99 148 125 92 77 134 156 123 92 29 153 39 120 166 204 71 121 206 126 119 108 180 134 159 82 147 155 203 76 209 119 177 117 103 181 176 114 174 167 135 150 61 152 32 
64 46 162 181 78 21 119 165 65 54 125 111 137 133 201 106 106 41 146 87 76 135 116 110 117 75 163 202 104 144 56 221 151 111 98 71 100 98 99 146 135 209 113 174 129 94 56 86 76 62 158 93 129 160 191 207 80 203 102 133 118 151 124 118 122 198 166 64 156 129 182 17 57 78 72 93 72 165 109 29 64 188 150 138 153 148 154 154 137 166 122 65 60 200 111 128 204 197 65 118 
147 57 121 100 211 114 152 148 134 66 138 159 124 105 144 73 177 142 96 79 132 109 93 156 72 160 167 185 145 194 105 148 170 161 100 130 156 180 113 68 175 152 146 196 133 114 109 60 67 145 227 122 143 107 136 112 101 102 83 55 98 110 208 172 149 82 164 158 95 149 160 193 143 83 96 60 207 181 71 66 129 172 135 165 96 157 10 176 119 153 146 128 171 127 147 209 121 65 85 142 
214 168 79 63 152 119 148 96 137 188 135 143 54 170 74 127 101 86 99 130 121 134 183 65 74 83 125 96 135 85 115 133 58 196 84 189 166 23 170 63 79 67 97 226 137 122 126 121 153 156 167 159 45 119 108 193 226 81 171 79 107 76 138 142 143 106 173 151 198 98 140 185 114 136 121 103 81 144 157 128 89 99 140 139 133 99 216 81 138 87 96 25 126 218 60 68 110 155 155 145 
225 244 217 34 72 139 126 168 136 191 134 99 104 153 112 175 142 154 123 114 116 141 115 156 155 138 152 194 178 147 125 166 214 149 144 126 134 148 162 147 144 40 71 114 168 129 117 124 123 101 69 46 172 192 160 140 228 71 137 105 168 172 38 88 83 126 165 144 176 49 101 118 158 114 115 180 88 125 145 142 196 120 156 167 203 105 110 92 82 102 189 134 179 100 137 52 137 140 172 121 
141 140 115 143 153 161 105 208 159 78 93 175 109 125 101 133 116 132 209 134 95 151 100 67 180 126 118 132 149 89 67 87 72 108 154 135 149 143 142 119 72 146 174 55 125 147 119 110 145 92 80 198 127 152 68 158 190 94 135 45 125 126 167 163 80 75 181 139 59 167 149 144 108 90 192 164 131 191 163 48 114 114 119 50 110 165 192 75 120 191 65 76 108 100 155 87 67 132 187 78 
120 102 69 182 146 36 160 102 176 144 82 84 44 118 53 69 75 90 95 91 69 108 118 178 128 176 126 98 139 152 136 111 133 172 139 159 154 126 123 167 106 141 193 169 97 150 27 60 130 132 145 156 76 125 167 83 162 141 142 154 85 155 141 119 150 166 127 200 99 129 154 149 166 113 160 147 96 131 88 157 188 118 133 106 95 184 160 89 222 201 122 109 154 179 152 42 167 89 86 171 
96 20 100 134 160 121 118 172 165 178 108 109 90 123 71 189 201 159 22 135 177 196 44 200 191 156 89 198 128 91 185 163 67 132 163 109 137 86 152 85 125 158 86 153 153 141 81 108 89 168 88 173 150 109 209 132 223 120 127 139 130 162 124 99 173 157 123 181 47 202 101 136 119 109 101 118 110 143 157 106 132 126 59 69 86 33 96 98 113 112 148 111 154 103 107 167 111 132 79 205 
94 133 113 83 205 180 105 143 115 78 181 68 138 62 141 84 130 80 66 128 95 154 213 132 110 88 198 74 196 128 134 103 160 159 141 146 136 146 110 88 46 74 122 62 141 168 156 125 77 156 38 97 111 138 98 114 105 92 94 173 140 180 55 166 125 141 134 70 119 120 87 149 38 149 135 189 186 148 133 139 115 140 157 176 100 148 194 87 75 240 126 66 168 78 173 65 212 39 121 170 
200 205 127 122 73 126 181 143 88 75 184 120 107 156 112 53 204 122 70 108 62 41 120 131 186 76 150 113 134 181 73 110 111 68 157 121 178 195 77 177 196 119 91 147 112 154 121 166 195 115 147 80 71 210 94 144 88 68 104 63 110 206 129 83 177 101 78 160 164 107 158 136 95 213 132 155 169 91 87 208 132 104 160 190 159 182 145 191 127 173 163 156 121 145 127 175 158 133 110 141 
105 106 146 164 127 185 162 95 157 133 196 103 100 135 149 148 118 219 121 125 104 135 100 77 125 211 169 145 119 136 102 44 123 183 182 105 174 116 151 154 161 99 138 154 137 219 186 91 174 50 183 69 154 151 146 125 142 76 118 118 171 118 124 104 112 17 113 117 148 141 98 146 119 173 100 198 133 100 187 128 148 194 137 82 93 112 130 151 171 71 114 88 108 211 90 134 112 130 112 112 
101 92 179 62 82 103 136 162 81 178 179 137 194 100 126 200 164 159 176 108 140 138 135 31 197 146 167 215 59 83 142 125 90 125 128 155 124 149 165 142 109 129 104 77 87 109 95 91 200 82 199 187 139 140 98 111 174 105 129 63 112 168 84 166 157 113 108 98 113 63 143 111 79 110 119 170 62 180 104 84 121 137 98 159 156 126 237 117 108 147 81 61 93 145 138 53 33 83 97 153 
163 211 84 106 102 128 25 110 117 98 115 145 168 108 169 74 154 95 101 109 152 162 172 217 140 114 158 122 192 112 95 82 80 80 151 140 151 167 143 101 164 91 165 130 90 168 143 146 103 102 165 117 178 105 162 89 79 120 125 163 195 137 105 113 70 173 147 141 161 151 196 89 115 156 114 201 169 24 68 131 127 113 87 99 111 71 134 65 99 131 119 87 81 138 45 155 113 69 109 113 
89 217 83 60 72 90 49 157 168 192 166 130 147 148 107 94 91 146 127 117 120 82 141 67 106 133 172 99 140 166 76 139 85 84 122 123 179 130 134 82 54 44 76 183 164 149 125 62 63 162 43 173 53 111 124 139 229 136 157 137 138 154 82 147 128 196 160 153 115 148 83 119 117 158 78 129 102 195 162 142 108 185 127 120 193 109 103 130 106 152 143 127 166 59 151 172 78 140 111 147 
96 174 151 152 88 104 108 189 129 129 133 160 51 109 204 169 111 69 45 125 146 121 67 195 106 145 110 151 136 114 106 67 123 148 146 132 78 226 100 163 172 28 131 155 198 126 185 56 192 179 107 141 224 157 192 170 71 209 153 156 83 132 110 116 108 84 88 134 56 114 68 134 92 143 117 141 62 99 158 91 81 120 64 91 143 78 71 150 149 168 62 109 62 175 125 167 98 108 115 158 
185 106 161 149 110 96 163 185 97 158 138 98 117 101 63 100 158 156 142 84 101 112 194 139 124 103 115 125 98 187 97 159 40 113 124 85 132 166 92 176 40 88 108 30 127 46 197 187 223 68 167 116 96 183 152 180 112 159 127 203 138 145 89 188 90 166 55 184 192 157 127 160 66 93 133 149 151 51 78 195 102 146 218 216 110 170 167 111 181 159 193 156 146 110 168 152 112 37 62 193 
147 117 56 194 147 37 181 95 181 141 172 126 159 88 40 129 132 103 178 180 129 191 113 55 157 107 130 84 84 70 149 188 229 116 92 163 195 164 98 67 172 105 133 65 148 102 143 127 31 93 83 149 165 134 146 94 190 23 79 142 93 82 166 124 112 196 159 101 144 99 167 173 97 145 94 113 164 196 107 144 110 124 100 114 65 164 169 162 96 217 83 107 130 128 139 41 192 203 32 183 
119 113 118 163 65 138 138 76 149 122 54 98 85 90 122 119 83 113 130 133 185 86 164 135 179 76 92 109 172 213 85 120 78 203 83 160 124 117 187 142 155 85 113 178 48 81 130 159 131 106 126 73 185 176 108 128 113 212 76 128 124 124 171 197 89 64 109 157 124 120 69 136 129 104 145 102 234 129 127 89 147 109 71 102 88 160 108 88 191 128 99 163 169 123 127 111 127 112 155 162 
48 73 161 183 152 159 206 91 140 160 118 126 137 145 155 96 145 61 148 75 196 94 103 179 105 164 88 156 155 88 106 176 7 132 144 84 190 125 155 173 115 136 127 149 91 144 86 88 161 186 113 113 48 162 120 137 90 67 94 69 145 104 45 120 197 168 138 189 181 116 131 159 102 130 141 190 136 86 101 54 101 120 106 100 169 70 97 104 56 211 137 201 155 119 87 184 67 77 127 120 
49 89 124 99 246 120 139 111 82 101 113 110 107 90 95 49 184 178 141 130 141 72 142 130 137 127 164 100 111 106 89 102 119 88 68 165 124 86 60 96 87 99 98 185 105 183 95 114 119 98 109 91 145 184 63 153 152 116 155 135 106 151 161 120 38 167 184 121 122 127 67 103 85 115 208 197 104 125 107 184 162 152 116 156 95 103 46 95 141 167 135 140 129 189 98 134 98 142 137 90 
86 134 126 123 121 180 129 133 172 172 139 163 178 166 168 77 141 166 135 161 146 81 185 92 122 116 238 149 227 107 127 25 133 60 119 128 135 97 157 239 97 201 165 166 83 105 143 95 123 132 181 74 100 87 74 132 105 61 82 197 166 99 192 106 154 109 168 35 150 135 191 67 92 139 99 141 60 123 218 173 152 43 103 179 174 116 144 119 54 223 110 82 159 145 115 171 112 167 99 183 
138 54 135 143 226 95 213 110 123 202 173 91 186 36 83 140 171 60 130 122 92 153 124 114 176 82 180 138 81 42 122 72 72 143 99 175 74 133 99 34 113 182 194 170 147 123 145 88 143 134 186 132 120 163 153 194 82 115 130 171 135 87 44 82 172 83 92 113 157 96 105 127 203 169 84 65 88 79 102 51 137 88 43 160 52 99 73 103 221 217 103 173 80 64 61 59 143 159 140 125 
119 124 109 129 169 103 178 175 113 124 142 85 158 118 84 163 120 59 129 109 166 159 185 119 206 123 156 100 111 100 237 135 135 141 156 45 99 133 179 129 136 136 111 187 192 78 78 124 49 99 196 218 41 138 100 117 73 83 81 180 74 67 126 195 96 191 166 111 88 142 91 90 91 76 160 30 52 164 151 147 85 147 166 89 140 164 134 66 167 140 95 106 133 193 29 177 145 91 102 90 
147 67 155 105 118 58 62 225 169 153 141 156 207 59 101 94 77 99 118 74 121 84 108 97 189 42 150 121 106 185 67 135 173 188 169 73 175 174 128 157 127 75 132 72 161 182 190 177 145 143 122 122 193 198 76 150 131 148 105 184 112 123 159 183 68 70 134 156 76 121 78 220 90 188 91 80 129 134 128 124 164 182 62 148 145 92 89 121 119 77 102 196 55 142 131 139 65 71 181 148 
148 179 68 174 151 195 102 136 145 118 109 93 59 52 138 87 76 139 129 95 80 113 85 163 83 107 151 203 165 98 182 96 89 74 175 168 44 172 172 102 139 92 109 118 205 132 87 68 187 159 150 169 97 88 95 85 149 103 151 67 71 179 199 164 108 112 79 161 146 129 111 184 170 142 132 194 55 135 60 185 107 76 168 198 53 199 160 101 141 184 165 90 123 76 141 86 171 168 162 214 
215 213 112 189 117 137 157 150 100 85 70 129 70 34 131 51 137 160 107 82 103 70 194 177 204 124 102 103 175 129 124 151 157 134 152 86 121 134 163 154 55 155 184 53 142 123 162 100 206 187 140 111 102 66 42 134 170 25 155 113 166 103 170 139 90 162 161 99 141 75 110 76 85 139 103 145 164 142 131 206 107 98 170 171 163 220 111 123 143 124 128 122 138 121 107 100 106 121 86 115 
141 84 102 66 90 203 130 172 57 70 51 203 170 164 61 219 173 142 147 76 184 97 97 138 179 106 142 183 146 130 139 88 213 37 70 135 208 115 163 78 71 72 161 79 123 135 126 143 189 152 197 146 129 18 118 37 134 116 158 77 180 166 104 115 138 196 175 147 63 173 102 113 116 82 35 130 94 169 142 194 165 59 140 172 17 231 131 96 123 160 111 128 129 109 127 173 93 109 114 77 
129 111 35 143 81 87 203 198 89 134 167 98 137 221 110 168 113 173 42 82 102 184 171 142 80 189 157 129 74 58 160 156 148 140 214 139 157 108 123 142 136 203 123 82 161 102 144 125 118 92 117 99 170 128 108 112 82 76 181 148 133 47 108 66 143 155 171 180 200 155 150 139 98 113 85 137 138 72 138 47 159 177 108 76 130 177 193 174 147 149 130 153 157 175 117 193 105 99 125 167 
164 98 192 162 67 81 127 75 78 94 48 118 176 140 101 59 40 193 161 94 181 194 244 181 138 164 154 141 92 132 102 115 130 113 156 106 125 139 166 159 107 130 145 195 138 157 87 88 135 133 87 118 84 179 175 140 91 67 117 189 98 152 139 158 124 25 78 98 75 166 152 128 185 48 162 165 205 166 65 143 169 174 75 91 101 198 87 119 145 109 158 123 114 195 118 161 123 152 127 203 
183 50 176 132 123 66 101 66 100 148 83 134 110 96 207 100 127 52 168 161 142 131 191 87 109 92 106 157 182 56 121 160 92 129 157 124 124 77 79 191 211 182 167 125 167 27 68 132 170 125 126 99 161 83 165 211 124 203 144 96 82 147 188 141 125 151 183 114 187 123 116 134 133 154 92 116 98 100 106 120 161 105 103 65 145 145 130 158 151 152 200 87 94 44 143 98 105 106 170 167 
72 104 134 107 119 143 105 65 200 157 55 160 119 161 85 111 78 148 75 174 147 113 71 43 91 105 138 113 133 104 89 91 187 123 83 138 189 75 146 119 177 167 169 101 56 114 58 80 154 192 103 120 167 149 105 89 107 217 128 178 142 103 87 132 143 139 81 164 49 191 125 170 64 105 142 121 46 91 160 53 92 106 162 162 116 179 43 222 159 101 105 195 151 139 78 144 73 115 122 188 
222 73 89 92 130 165 114 124 71 174 80 161 184 192 126 152 122 92 223 129 157 98 136 83 109 152 71 153 218 131 166 145 180 172 122 92 177 133 113 219 159 143 116 220 89 107 143 155 97 59 149 211 120 125 126 110 38 167 74 130 161 97 229 128 152 184 132 160 101 70 97 171 160 134 132 159 70 143 147 62 113 88 154 120 111 116 123 120 52 121 93 148 90 52 95 173 122 31 222 156 
85 84 86 63 203 78 156 129 191 108 70 175 91 101 61 184 79 109 108 202 134 149 98 46 115 190 107 109 121 95 126 104 131 88 171 212 116 76 141 150 165 91 191 164 115 70 226 155 125 55 123 157 163 157 50 137 42 102 114 154 153 113 158 87 223 134 141 204 118 114 103 141 125 104 76 111 128 62 51 129 138 168 136 120 155 149 177 114 148 92 139 113 129 49 105 53 78 200 176 144 
90 104 123 67 117 126 160 120 148 71 114 112 166 128 76 85 125 179 100 94 114 143 117 177 136 101 74 178 73 124 97 92 117 176 133 127 95 88 93 185 134 157 105 128 159 113 140 195 64 171 109 88 141 162 148 148 163 100 169 142 194 61 118 54 154 93 100 102 131 125 157 134 168 140 61 179 139 122 139 105 160 141 126 152 93 111 124 149 65 86 126 63 118 100 146 127 163 125 52 106 
141 117 183 136 195 120 135 165 87 135 129 186 113 144 172 76 67 217 192 214 127 141 123 137 167 161 123 140 104 122 89 72 114 169 82 76 185 140 130 126 146 208 101 74 108 69 77 76 109 105 165 119 145 128 95 142 15 101 159 186 111 146 198 139 99 121 100 119 178 122 157 109 81 122 53 159 215 97 92 141 149 82 123 169 87 126 112 217 101 171 113 53 141 159 130 159 88 71 196 153 
85 148 150 231 157 159 120 153 139 128 172 154 115 150 145 110 98 131 44 75 62 214 130 199 105 103 155 176 148 163 117 78 185 175 15 38 193 161 115 196 71 195 117 37 164 146 131 129 121 114 116 145 88 204 223 146 90 201 188 104 139 130 86 25 86 131 222 150 179 65 202 130 143 133 56 94 106 178 183 180 132 83 143 164 76 74 137 107 61 149 102 102 83 137 124 120 151 126 157 138 
179 153 167 117 196 54 99 78 75 85 30 56 100 128 143 150 193 167 80 188 65 98 146 141 125 99 111 140 92 179 160 77 108 103 182 43 135 88 164 188 121 171 56 195 134 72 108 133 217 93 131 66 155 118 202 152 20 91 236 126 119 126 51 28 171 142 72 117 153 104 11 197 112 187 146 147 138 106 113 143 171 129 75 94 121 93 112 184 143 150 77 206 87 130 204 126 176 74 150 83 
95 189 76 74 54 115 121 134 189 134 128 76 137 203 126 104 106 85 172 134 153 67 158 115 124 130 121 61 104 117 199 118 112 143 146 186 110 76 107 187 210 100 123 114 135 80 66 42 138 137 116 97 58 96 167 68 134 109 132 166 125 70 122 116 149 152 124 151 166 199 72 131 199 84 132 112 150 140 228 94 148 160 107 155 115 148 115 175 163 147 142 156 136 130 102 145 37 71 105 124 
82 155 108 124 96 152 159 67 154 108 50 132 161 157 106 224 141 132 115 153 82 96 134 141 212 63 75 57 171 118 109 195 100 167 112 174 78 82 189 150 78 164 114 57 147 102 217 129 125 226 180 163 105 67 122 113 181 94 78 128 96 83 121 176 116 104 125 106 178 116 134 104 178 85 165 30 104 154 81 105 117 80 101 79 175 130 64 116 149 196 40 74 223 177 103 106 46 122 134 155 
179 153 136 121 169 167 152 84 133 132 157 101 74 71 138 86 88 157 39 109 186 88 115 135 15 140 146 142 29 149 181 143 70 121 66 154 55 184 88 80 205 134 131 76 183 189 153 97 170 92 111 132 148 187 118 125 69 162 82 106 71 148 83 172 68 170 131 160 56 8 129 87 129 166 183 57 206 137 134 98 46 105 93 129 232 100 57 93 124 58 63 196 110 132 138 223 119 72 156 174 
171 122 112 135 155 183 127 174 31 170 39 187 143 97 109 86 157 124 87 189 161 184 93 154 154 136 106 141 73 140 152 206 153 143 122 85 45 122 26 127 117 129 112 167 129 147 154 89 145 123 97 197 130 132 143 14 116 92 172 87 93 22 144 105 100 150 203 66 184 126 188 153 92 169 129 148 91 161 57 156 117 108 104 136 113 121 160 164 140 140 112 73 106 124 164 114 168 212 105 148 
58 100 179 124 93 66 146 47 142 129 195 130 75 161 82 186 58 228 108 71 172 97 168 119 72 205 99 115 88 108 100 164 137 107 126 136 121 146 151 149 130 137 145 53 138 159 140 119 177 163 120 125 125 155 77 179 92 126 166 121 155 114 138 90 71 43 108 147 119 32 153 186 149 145 100 117 97 132 78 211 134 158 161 109 166 123 86 101 89 126 90 177 50 136 156 54 37 93 110 146 
142 185 73 64 33 99 112 163 98 102 145 141 87 115 168 127 128 131 149 116 171 98 162 101 175 183 124 215 86 117 127 124 81 119 100 66 56 120 88 149 157 106 113 103 144 131 74 126 160 151 113 89 164 155 116 120 94 172 215 114 163 127 174 139 166 151 118 13 110 107 171 75 146 87 151 154 134 82 86 81 54 111 109 88 95 119 129 167 217 35 139 163 82 72 163 169 70 123 134 149 
133 103 39 68 80 149 149 82 182 84 57 105 114 123 130 126 84 134 99 106 105 133 129 86 150 148 86 63 176 93 138 165 90 53 123 170 148 168 44 77 77 152 45 73 68 214 118 148 184 154 104 165 194 201 98 136 162 102 144 147 96 131 130 115 156 86 93 112 150 119 103 132 77 96 205 120 110 144 144 95 146 132 204 150 103 90 180 76 154 169 190 90 54 122 94 99 136 205 133 180 
