P2
100 100
255
102 90 105 55 48 62 148 112 129 116 151 244 122 176 78 54 96 73 77 81 38 58 131 107 78 150 92 128 143 140 232 135 88 115 163 215 75 127 103 101 112 99 149 212 179 220 172 56 129 129 31 134 119 136 168 174 83 202 132 98 159 166 123 132 82 130 178 135 149 150 189 97 143 106 141 179 126 144 97 133 190 68 186 110 125 135 138 116 123 110 129 104 85 68 139 108 159 91 105 44 
168 161 83 191 106 141 115 165 53 50 21 152 79 174 134 114 190 133 101 157 188 136 122 208 170 110 102 135 146 81 161 88 173 100 158 164 147 75 125 145 146 101 153 127 205 98 92 108 113 120 143 53 106 120 204 93 106 212 120 157 133 199 31 114 119 148 55 111 170 41 177 140 177 136 89 196 169 194 161 64 170 78 116 162 106 175 155 130 155 172 85 90 181 124 127 146 194 134 101 36 
113 70 104 153 93 114 81 119 79 200 115 144 185 99 101 207 107 106 217 62 135 108 124 150 155 107 209 145 126 135 128 151 116 42 169 88 132 147 131 80 81 150 128 150 140 76 150 57 164 187 211 64 68 117 132 150 102 120 193 158 67 122 195 145 133 127 133 163 193 123 101 46 149 111 178 104 124 175 53 134 192 82 150 108 68 159 108 101 92 113 91 167 132 159 224 171 120 166 201 153 
109 90 69 96 194 174 116 88 63 97 190 160 180 158 150 133 97 153 129 130 145 110 237 104 110 150 105 87 83 124 152 121 93 151 136 91 164 73 164 188 55 116 93 85 59 157 123 159 132 144 139 138 74 120 181 124 133 91 108 72 102 192 138 125 144 151 145 24 109 217 145 154 98 97 105 102 42 73 111 33 165 209 141 139 94 151 119 100 72 90 179 162 105 181 83 101 123 154 105 152 
98 185 134 169 123 144 49 152 91 116 122 151 171 177 130 167 116 40 121 130 183 111 192 198 86 61 104 137 123 109 193 188 111 43 133 153 86 136 59 130 193 133 178 204 78 123 69 139 127 121 99 118 102 28 124 137 62 133 99 109 213 121 148 123 166 158 35 119 52 154 119 81 112 40 131 50 144 23 154 105 101 93 153 206 197 151 67 128 65 155 165 160 120 119 131 171 221 140 91 131 
66 142 86 118 165 157 116 71 167 157 155 145 113 160 137 184 152 156 129 92 54 184 131 157 201 157 109 92 124 120 124 188 98 184 136 110 172 109 18 113 141 138 32 81 104 136 122 122 120 79 155 74 118 162 164 218 176 77 122 151 76 42 141 157 112 117 89 133 58 139 83 80 130 71 121 62 112 182 75 133 116 158 81 41 123 142 178 95 126 22 106 129 105 217 181 104 79 173 136 95 
108 160 129 225 115 202 76 88 136 129 76 202 95 146 120 101 152 154 106 74 141 224 161 88 192 174 153 217 156 116 112 121 117 212 153 139 123 140 165 141 101 120 121 145 133 98 147 150 217 156 55 159 161 57 90 83 125 102 140 41 111 100 132 89 106 117 167 171 160 83 178 152 63 134 177 147 111 121 167 219 138 157 44 119 118 132 190 101 104 100 112 181 162 155 167 99 115 79 108 179 
161 78 126 177 177 169 154 222 119 45 147 141 67 125 109 57 113 175 159 166 171 112 108 88 60 164 123 126 129 151 174 70 149 103 123 107 42 94 111 36 105 90 158 144 99 145 205 157 52 63 73 128 211 101 90 106 190 222 119 116 110 116 185 61 147 245 133 152 61 88 39 190 80 153 145 114 177 166 159 117 95 135 136 69 189 91 193 71 175 125 175 162 174 145 158 134 62 92 90 90 
145 142 153 95 137 151 51 76 135 193 100 91 117 153 85 114 79 64 204 93 125 126 141 196 201 83 115 83 144 133 162 86 103 23 117 121 110 142 141 181 111 193 125 120 145 115 95 163 147 88 146 31 185 175 66 172 26 116 155 89 84 168 242 149 148 142 146 109 127 131 157 176 123 115 121 176 91 102 163 94 103 80 28 158 146 109 90 192 121 108 80 141 90 69 149 162 183 152 198 156 
152 78 143 146 189 148 66 167 152 128 142 127 112 165 127 76 126 155 115 188 162 104 108 115 181 158 105 166 90 93 166 180 168 179 106 51 68 102 168 90 99 194 103 159 98 149 121 110 126 84 186 107 139 113 68 149 102 122 118 92 127 15 108 171 116 114 85 194 184 65 173 137 88 143 184 122 124 104 209 52 131 82 224 185 186 123 56 122 121 89 139 78 62 54 99 178 109 220 192 150 
152 108 109 60 71 125 95 99 213 93 127 162 94 139 213 63 111 109 101 144 126 190 106 199 79 64 107 167 147 148 139 144 222 136 161 128 147 87 119 188 155 121 120 173 97 152 179 204 75 121 121 74 171 97 130 129 139 175 123 221 144 129 106 159 79 98 22 55 67 201 106 149 148 218 203 88 170 128 198 189 143 154 179 123 57 93 115 144 179 88 147 89 111 194 135 183 146 184 98 85 
92 93 158 83 111 116 190 141 145 43 93 106 162 77 129 134 115 185 107 157 127 158 211 107 121 128 66 117 116 157 125 87 171 46 148 94 115 143 108 138 90 146 144 148 127 109 53 85 92 200 140 95 101 144 157 89 123 171 148 208 222 146 101 129 153 111 168 166 133 155 172 154 87 218 147 186 152 93 167 161 117 46 129 162 57 120 196 203 91 98 129 148 149 106 34 157 120 106 207 160 
120 91 128 156 167 79 169 135 146 114 177 156 43 140 173 142 115 200 97 212 153 106 102 95 148 142 78 107 156 73 116 142 90 58 95 113 49 150 197 135 123 95 177 143 70 111 153 123 84 189 146 153 128 110 88 121 109 104 158 148 139 95 83 131 83 126 219 117 157 154 60 83 129 101 184 99 128 43 90 75 101 150 36 157 116 129 155 122 88 111 121 132 158 92 182 90 160 144 127 92 
91 162 103 112 152 142 100 88 128 194 141 192 136 110 73 133 33 180 165 98 105 141 182 74 218 122 150 139 71 104 56 172 173 72 36 29 154 194 192 95 121 124 147 195 102 125 194 108 98 165 118 138 120 190 153 157 215 99 100 113 210 164 109 149 134 47 135 134 95 119 115 162 146 112 142 123 69 105 149 129 125 147 142 173 147 164 113 62 86 185 176 101 77 194 111 163 133 130 153 122 
105 145 133 99 202 149 143 178 152 51 155 117 138 103 97 95 149 70 172 133 81 62 20 58 101 230 125 48 108 90 135 87 154 177 83 149 100 182 161 132 168 122 60 68 133 148 205 34 57 105 204 64 165 162 135 157 179 126 103 140 43 108 80 137 83 97 80 94 134 93 107 137 140 99 144 68 163 131 87 98 101 101 101 148 140 147 75 72 67 165 80 150 163 156 180 91 116 128 133 167 
143 55 133 162 150 65 78 129 155 155 136 164 136 81 132 122 59 141 184 173 130 115 145 64 103 174 153 139 138 221 104 105 74 60 147 148 110 128 128 118 177 138 177 151 79 174 147 175 169 102 178 209 121 104 114 59 100 156 126 121 121 162 119 63 57 58 172 112 85 75 127 141 100 134 127 67 139 96 62 99 110 89 143 117 190 134 98 143 43 90 132 100 98 110 119 163 150 148 76 130 
151 149 168 197 175 178 58 159 85 175 121 91 205 76 64 74 116 52 75 104 112 117 119 96 109 176 89 118 115 125 94 134 143 188 131 40 215 117 152 132 133 131 195 114 122 201 45 109 96 192 145 172 149 162 91 125 53 174 154 149 138 166 120 91 149 137 159 189 113 131 164 173 184 116 167 91 89 80 121 139 108 167 126 124 121 177 77 69 27 157 156 102 146 219 175 165 129 108 150 144 
103 187 87 86 117 99 147 89 71 103 112 111 103 218 100 121 114 184 73 74 96 188 152 117 166 177 161 23 223 156 125 186 77 61 109 114 60 109 140 97 92 119 122 43 132 128 188 185 103 150 152 150 141 215 164 135 163 162 161 151 96 139 81 148 144 129 154 118 117 44 41 147 114 76 207 61 59 105 151 16 120 109 63 166 140 97 203 116 51 177 70 107 104 73 63 108 232 125 143 86 
52 76 118 151 120 113 147 113 96 81 135 132 138 141 115 144 97 142 172 70 120 169 161 108 131 119 79 147 174 111 144 56 133 165 142 122 108 102 142 71 105 73 152 134 97 123 192 95 77 74 70 110 133 167 133 145 188 140 173 93 97 84 85 108 90 69 209 100 96 167 24 187 81 170 136 68 82 124 153 79 151 73 88 109 150 93 70 191 187 154 86 191 109 212 183 94 134 155 155 168 
163 179 196 88 63 93 93 203 88 163 178 153 123 181 102 121 72 144 112 57 89 145 144 161 71 73 122 124 144 58 105 96 76 133 150 79 143 123 183 158 145 185 216 98 154 162 154 93 156 61 120 138 157 80 167 136 92 145 70 104 88 178 89 123 153 204 131 100 149 129 186 104 118 174 118 93 162 219 73 11 78 175 76 203 225 196 177 145 117 97 145 154 160 77 106 118 187 114 98 151 
166 139 91 83 211 230 186 193 204 113 200 140 40 120 181 116 102 112 86 214 164 147 68 162 171 167 148 129 50 98 128 102 95 143 182 152 123 131 177 136 118 75 151 105 53 125 166 61 91 72 130 122 149 138 141 161 76 133 159 186 108 168 204 108 121 93 111 92 216 146 85 208 187 136 82 148 155 159 86 136 40 194 116 166 184 30 104 97 131 68 76 155 53 197 176 244 124 126 94 131 
129 186 143 177 138 89 94 184 67 154 80 140 121 171 123 148 136 74 142 102 92 136 109 132 208 82 142 122 118 121 62 133 134 95 166 63 173 147 144 99 78 147 86 131 118 75 70 166 157 41 170 106 96 148 156 144 103 13 188 129 106 113 145 158 77 189 157 176 187 121 124 65 83 174 197 90 141 165 105 151 84 105 194 46 158 182 76 132 105 111 67 111 119 124 159 218 177 113 151 66 
105 177 50 191 142 98 78 108 188 96 122 146 193 95 132 147 81 126 109 96 143 83 143 37 126 145 188 95 78 107 78 133 200 143 128 185 121 117 158 69 147 76 150 109 87 93 133 171 141 52 109 167 122 42 190 78 151 108 175 91 110 150 174 120 112 190 165 124 109 105 146 169 77 92 152 137 155 211 153 73 181 166 179 120 32 132 124 32 113 203 59 78 146 50 142 86 80 74 180 130 
200 119 95 45 109 84 178 148 115 144 94 91 101 141 149 138 171 197 160 151 78 128 159 197 121 181 157 84 182 44 61 110 122 157 123 121 171 142 73 110 75 147 92 135 126 113 83 87 105 150 228 102 68 145 121 86 111 107 200 134 108 134 85 104 122 198 144 48 113 39 85 214 193 141 117 124 102 80 124 102 203 115 124 176 89 103 90 109 150 92 155 116 154 142 124 183 116 89 78 170 
128 217 37 69 110 176 146 69 121 77 74 106 132 104 102 113 113 188 90 125 204 91 87 175 113 168 169 74 52 112 124 94 123 107 168 71 138 157 169 25 65 112 141 132 168 204 109 108 132 70 231 72 161 117 141 94 142 99 218 113 96 104 116 141 180 99 147 132 115 24 40 146 141 115 73 91 132 105 91 128 157 46 139 67 164 166 133 86 127 157 160 160 186 141 193 175 150 80 134 98 
74 121 197 90 141 177 114 211 139 153 178 105 124 130 133 110 210 121 150 166 154 86 69 192 130 136 107 200 103 76 145 67 110 101 78 86 131 158 150 60 116 174 60 105 86 161 175 112 71 158 228 129 121 177 85 128 144 169 113 78 161 135 137 91 72 129 224 192 172 148 152 126 78 163 124 90 143 207 65 104 101 122 107 125 124 136 141 126 196 96 77 144 184 66 152 70 89 185 105 63 
106 109 102 132 108 146 213 105 218 124 102 142 145 156 168 101 84 184 95 151 61 152 155 100 198 57 121 99 112 72 149 137 113 165 205 102 43 82 178 200 217 152 73 76 149 178 156 185 96 88 171 120 118 129 106 94 106 165 133 144 136 141 70 140 82 133 104 32 91 229 95 55 165 122 37 160 111 141 79 128 170 84 97 136 153 132 31 174 176 179 127 114 153 111 120 65 222 195 93 108 
195 164 139 116 153 103 105 100 172 76 127 142 137 118 104 162 109 119 121 64 215 234 105 126 156 237 200 124 116 100 173 147 90 151 121 63 171 204 84 171 117 161 162 137 194 135 136 111 73 121 110 105 33 164 178 91 178 96 108 88 150 130 112 38 123 116 105 205 52 111 173 68 77 213 174 153 220 131 81 41 96 119 130 96 123 191 184 98 135 116 65 118 22 134 149 163 82 88 108 122 
185 130 128 141 71 111 72 116 137 107 173 136 100 181 118 92 197 100 166 60 85 111 182 153 183 68 169 147 111 107 52 93 105 145 92 67 152 173 143 206 180 135 60 201 134 134 176 96 130 77 186 155 125 160 106 169 213 120 118 126 99 108 56 103 227 95 125 136 161 113 137 129 199 48 215 116 93 139 108 178 78 99 103 129 209 212 86 95 149 187 97 130 110 160 108 75 144 110 149 112 
23 153 80 188 101 121 149 121 143 76 163 93 140 137 149 119 93 182 133 92 165 153 138 22 109 147 127 194 184 199 94 112 131 82 96 137 210 163 127 189 139 95 139 134 113 182 187 194 98 66 37 152 115 98 135 136 212 63 207 102 116 69 111 73 118 151 72 127 121 58 83 138 117 110 75 163 73 140 52 104 155 128 69 82 161 105 140 95 104 150 121 32 226 91 102 112 143 155 109 161 
155 121 101 98 91 144 98 117 78 73 91 94 143 145 132 32 146 66 127 86 149 85 142 159 108 120 85 120 112 213 77 161 102 90 200 143 182 72 177 63 93 124 166 167 147 107 181 144 162 158 123 219 86 153 179 183 192 24 138 113 149 157 75 103 135 176 159 135 97 116 148 63 81 121 208 138 62 100 110 101 115 104 148 147 189 49 101 186 158 111 204 104 85 46 171 219 155 143 71 132 
66 82 146 142 137 195 125 193 118 107 32 176 109 145 129 114 121 164 152 108 122 127 88 140 207 151 142 143 127 55 160 127 139 156 152 145 108 104 144 153 200 95 129 150 130 96 125 147 145 39 147 98 88 102 95 47 200 150 158 144 160 76 108 149 63 103 109 165 108 118 42 143 175 193 115 167 64 71 119 86 147 101 90 114 147 131 57 82 169 196 161 145 84 159 207 166 91 129 155 128 
150 159 156 122 215 160 148 133 99 219 110 68 60 72 166 61 89 39 158 93 145 111 164 208 90 96 46 126 161 92 151 158 80 178 125 160 169 114 170 108 169 135 153 99 139 124 159 89 185 177 80 43 143 165 79 146 173 68 149 103 144 149 150 167 131 92 65 153 113 148 85 115 226 47 143 158 146 79 175 142 153 61 90 42 83 118 205 76 198 136 88 64 132 96 98 164 185 157 144 143 
150 39 208 86 99 101 192 130 177 126 124 179 136 170 108 80 88 123 161 144 113 105 124 58 150 163 103 105 94 217 183 103 152 93 168 37 134 140 141 164 136 98 131 104 105 135 167 109 149 85 166 119 90 159 91 194 129 178 134 94 131 138 79 103 168 85 120 120 142 91 127 152 115 210 149 99 54 113 144 79 174 96 124 83 178 137 192 74 154 108 175 122 180 152 151 178 188 190 87 130 
144 179 181 105 124 159 223 180 85 70 193 114 162 98 60 139 83 95 105 82 168 98 133 95 139 87 75 132 103 183 133 88 195 166 156 201 154 140 97 85 72 173 48 133 65 152 112 173 52 165 59 130 176 64 76 129 95 207 119 178 76 134 129 133 144 66 141 89 94 102 130 166 131 135 59 128 127 163 148 137 90 160 91 108 97 131 120 115 145 122 173 93 53 147 96 174 205 143 110 119 
146 46 94 200 196 167 185 91 81 108 77 76 134 86 70 151 74 203 186 171 135 147 163 134 85 95 171 175 131 153 102 133 115 56 126 157 102 42 80 115 144 140 152 154 212 229 167 32 78 94 82 141 56 129 121 139 189 125 147 156 84 127 59 124 77 188 89 68 186 118 74 128 79 46 120 108 159 157 150 43 189 168 182 116 72 175 178 84 70 97 126 128 184 138 78 194 111 154 125 61 
77 141 146 140 83 87 99 156 233 140 133 147 151 130 109 164 143 140 128 153 123 179 104 150 185 178 185 109 159 158 158 97 149 134 129 110 170 70 90 62 95 125 225 154 173 82 136 114 107 69 68 219 114 99 125 161 211 116 151 22 143 55 110 177 138 100 112 133 68 110 155 110 136 143 84 166 83 148 168 169 92 93 122 67 84 52 161 150 98 161 131 184 88 191 130 87 118 138 198 116 
173 151 148 119 86 134 175 116 115 91 98 178 148 148 183 42 71 80 158 160 67 141 120 181 122 26 132 124 79 71 108 187 117 130 69 97 109 101 168 58 122 71 137 142 138 124 154 129 159 111 182 107 69 176 117 177 142 86 89 115 97 103 117 208 84 98 156 192 103 133 166 179 82 212 134 97 56 147 172 143 130 74 105 173 139 162 108 170 208 167 143 126 125 146 120 102 117 79 119 254 
183 92 85 184 107 148 131 173 189 199 120 142 108 103 88 155 157 209 91 99 156 123 89 105 166 122 57 132 157 109 89 197 49 126 153 106 154 183 155 126 130 178 147 182 188 181 147 93 221 130 191 56 186 108 129 96 65 186 74 87 57 133 127 113 84 48 202 130 199 198 112 131 94 64 111 109 98 108 101 76 102 136 231 59 111 161 106 102 81 95 71 131 112 217 147 82 106 58 70 138 
144 101 75 78 48 73 208 76 191 124 64 101 166 135 125 193 139 140 125 85 101 47 110 170 144 90 197 150 138 166 52 209 138 146 145 138 129 201 97 181 39 101 129 115 81 182 129 125 177 126 67 144 126 111 149 176 102 134 119 176 101 203 83 101 112 76 172 45 142 89 101 98 96 115 147 113 63 50 172 147 180 76 114 171 185 141 82 153 153 150 171 21 77 116 217 119 146 66 163 153 
180 165 145 189 124 121 200 117 137 110 80 103 135 108 153 181 113 112 213 68 150 133 129 94 93 128 142 174 161 140 62 162 202 103 13 91 88 93 137 96 129 153 76 123 127 196 130 108 208 73 126 153 113 127 132 110 130 49 147 95 80 120 134 57 96 165 92 169 81 180 122 175 94 98 175 87 45 37 131 161 111 143 122 102 160 98 223 131 201 119 122 95 211 125 132 160 79 64 85 152 
101 97 125 111 82 111 193 76 134 109 89 94 109 139 84 92 107 92 84 152 106 90 171 25 182 58 187 134 152 131 208 100 104 167 129 89 113 95 138 173 118 108 103 140 166 52 179 92 119 29 162 209 129 94 81 147 164 178 104 158 132 97 146 113 128 152 97 168 191 122 70 90 92 135 232 139 109 130 119 153 130 129 132 102 160 72 178 169 173 130 159 119 158 147 190 122 133 178 222 152 
120 180 137 187 143 130 160 150 160 104 181 106 75 80 133 169 138 70 88 62 114 78 168 85 75 122 134 135 129 185 116 98 118 57 148 139 154 142 58 161 123 140 43 147 110 110 78 109 121 213 174 132 131 105 131 114 183 94 161 194 79 161 156 151 137 160 131 107 97 75 86 133 168 196 125 63 126 41 163 61 102 135 237 110 183 145 121 131 86 152 75 150 148 193 84 212 104 105 62 51 
167 131 108 153 187 138 78 101 115 89 107 117 108 130 110 74 107 124 126 145 108 94 88 177 185 76 96 62 86 123 151 167 176 100 109 86 115 87 151 114 175 124 123 197 142 113 119 124 207 223 77 182 118 100 187 80 158 119 159 133 176 124 162 44 111 176 188 169 83 83 123 167 110 97 72 145 64 112 85 167 31 146 107 28 54 65 190 106 194 168 165 184 69 137 118 121 181 171 111 77 
135 105 151 134 94 66 136 111 76 151 155 49 153 216 110 122 136 170 229 170 112 80 101 120 210 107 196 153 185 109 220 116 65 142 68 159 117 159 180 136 27 240 40 127 213 108 118 142 134 127 139 127 86 132 166 161 120 80 115 142 68 101 122 111 130 68 155 126 191 158 74 96 184 205 178 72 134 108 70 155 199 130 61 157 178 92 98 160 140 135 112 81 170 105 91 94 171 54 70 167 
99 163 128 145 145 101 83 67 190 137 140 168 156 30 104 83 100 72 49 154 140 134 166 137 172 109 198 144 134 101 104 134 176 152 124 102 188 87 179 122 98 136 164 129 180 126 105 177 182 155 82 81 160 78 141 65 140 195 119 143 119 123 68 136 86 148 133 99 85 127 116 90 132 140 200 100 124 78 192 59 46 165 81 88 169 89 162 117 115 170 199 106 178 160 82 79 113 117 149 155 
151 175 132 166 134 182 119 150 17 178 121 117 112 96 102 97 128 197 44 141 101 74 43 77 149 52 27 138 143 161 98 97 164 106 172 116 140 104 111 130 98 170 112 126 176 183 69 99 186 69 92 193 109 166 208 164 116 116 178 131 147 89 155 127 91 136 111 84 180 85 83 173 82 187 166 228 161 117 170 115 155 150 190 209 68 94 82 97 168 133 161 94 156 83 160 203 55 226 124 51 
159 91 83 123 122 97 123 165 107 105 153 209 123 107 91 147 86 104 64 58 167 157 100 167 178 128 70 28 87 94 125 113 32 190 57 130 83 79 151 98 38 94 66 199 118 215 71 99 146 98 144 91 185 123 122 80 166 119 113 96 89 186 146 134 84 163 151 122 140 162 113 166 98 184 177 142 54 136 211 151 194 101 128 172 144 124 50 100 133 209 150 155 168 97 66 49 204 77 156 183 
38 85 103 150 146 60 112 112 82 104 111 32 140 111 80 111 112 159 117 121 99 99 174 152 77 121 159 89 213 114 122 188 93 70 184 135 131 145 113 128 46 148 160 78 46 149 77 145 131 135 93 116 149 118 106 66 178 99 43 167 132 147 47 149 53 72 212 105 97 95 113 130 75 203 120 111 66 120 87 168 133 202 104 170 63 127 193 225 93 149 105 187 83 174 138 134 130 124 102 103 
201 101 153 122 156 182 92 128 79 215 99 156 193 139 103 159 54 124 110 81 129 104 130 108 155 102 77 136 163 112 87 194 125 147 63 206 93 180 105 94 134 198 70 147 113 110 124 125 78 202 208 126 127 121 130 132 159 127 140 165 125 154 177 201 162 95 176 62 118 118 83 94 143 166 112 135 186 114 119 113 120 117 123 90 161 116 156 117 132 96 109 132 119 146 93 111 153 141 165 26 
131 183 120 149 53 56 94 147 77 169 80 150 60 112 160 98 128 107 77 81 83 80 159 134 189 98 114 116 106 99 198 154 106 121 87 45 83 93 41 172 129 142 153 150 97 83 143 177 146 133 136 104 154 117 115 122 88 150 166 154 91 181 125 131 103 71 154 86 166 168 102 232 171 149 58 89 90 33 176 168 160 187 108 208 98 61 93 154 89 106 177 91 157 75 129 173 162 160 76 185 
149 169 170 113 166 120 23 131 109 102 187 108 102 67 158 114 93 159 105 95 98 100 158 169 123 84 116 107 157 164 176 114 125 58 126 153 166 179 204 106 141 116 93 152 145 102 104 200 117 200 54 187 117 102 168 139 91 78 126 144 161 171 189 154 106 157 102 92 119 43 173 166 52 86 160 112 130 127 148 74 59 36 110 100 120 54 188 97 168 80 181 79 170 130 68 168 117 241 127 171 
106 82 120 51 169 194 136 104 88 123 153 167 156 130 85 151 147 141 31 169 93 171 111 115 76 97 114 11 101 124 140 188 115 198 124 172 191 135 100 210 126 156 110 210 92 99 226 115 134 137 81 97 173 164 163 159 50 134 103 207 145 176 93 144 114 144 142 102 109 163 112 55 184 167 141 95 11 155 168 32 43 71 123 101 167 93 182 27 73 186 110 155 87 219 153 70 102 147 65 95 
159 176 59 113 104 219 133 139 186 145 110 125 107 119 150 157 131 106 107 186 102 83 157 120 45 158 108 171 97 98 105 188 113 33 190 95 140 162 60 60 188 38 140 75 136 89 154 119 101 143 122 130 88 131 131 92 158 102 166 167 172 217 107 220 124 155 153 147 29 105 128 135 170 103 80 156 93 128 93 94 169 151 164 122 163 176 182 151 213 227 115 199 62 160 117 112 61 146 157 160 
134 167 98 76 149 61 39 106 133 104 146 150 154 152 198 110 180 123 168 208 109 109 6 115 176 145 147 67 100 180 151 134 63 109 122 117 134 55 116 154 125 150 151 115 124 126 58 136 112 156 163 133 154 120 87 176 101 171 162 117 100 180 118 129 190 175 144 122 145 103 214 167 201 85 131 194 117 90 131 205 153 157 116 54 130 169 188 119 69 156 143 122 204 129 69 149 132 150 70 88 
52 148 145 43 111 118 141 87 186 102 131 99 174 150 174 190 153 194 142 77 84 180 146 86 136 67 100 62 138 170 130 194 170 95 145 144 169 48 213 49 98 147 132 146 124 87 133 38 141 142 77 128 155 101 145 120 156 93 122 174 115 75 144 158 118 95 93 153 160 111 35 219 152 153 91 153 132 160 65 132 203 81 111 63 191 115 123 84 165 127 132 64 34 67 159 59 116 103 82 89 
203 167 152 170 168 163 192 91 138 62 99 40 180 128 193 124 104 200 99 110 183 170 99 86 142 172 191 33 114 146 144 166 77 133 104 129 95 119 91 44 67 159 168 113 126 114 52 39 105 91 130 175 64 80 132 140 54 121 151 161 53 124 50 19 182 191 117 75 120 164 103 141 161 150 111 23 147 147 79 154 132 138 113 167 185 119 102 194 169 139 166 159 140 113 161 132 115 122 159 151 
100 165 70 104 119 144 53 117 109 133 136 45 115 208 94 79 72 86 166 192 133 145 135 73 162 68 160 91 125 132 173 195 102 191 87 145 99 82 118 138 147 110 139 151 115 172 144 204 41 65 187 87 94 87 118 151 109 129 140 127 166 119 131 222 93 110 118 145 159 61 85 143 123 157 89 109 196 117 108 152 166 99 58 27 150 115 87 138 113 118 163 132 168 163 117 165 129 210 114 57 
156 122 205 191 209 93 169 115 85 115 67 132 196 137 93 139 82 106 187 91 78 202 149 87 84 93 160 121 162 118 183 83 110 130 65 137 173 75 144 111 132 154 148 155 16 123 111 129 102 112 64 84 145 118 183 171 117 116 126 160 157 189 78 181 71 46 81 123 90 171 88 127 163 150 162 70 80 112 146 137 92 154 136 149 92 142 145 145 126 143 95 75 75 114 192 127 129 98 170 72 
117 91 84 156 54 214 200 147 151 66 117 121 139 233 159 110 113 116 186 81 152 90 116 135 66 79 158 113 81 147 131 77 128 43 151 145 165 104 75 141 105 163 61 197 90 75 48 196 162 158 144 122 151 44 169 114 140 144 100 184 124 139 90 134 152 105 178 74 144 63 147 103 147 158 172 176 161 221 125 209 125 47 146 176 92 118 120 98 33 122 91 117 214 91 129 101 115 73 176 131 
114 92 173 157 53 170 83 144 95 170 164 31 189 53 153 220 145 207 87 123 162 156 183 134 129 122 157 34 136 76 145 185 210 128 136 103 140 113 138 114 140 118 152 141 121 179 150 93 80 166 193 172 127 186 184 80 153 122 170 107 181 122 107 181 102 181 186 182 231 92 138 150 131 106 193 136 53 173 176 70 83 56 79 95 136 111 189 106 135 98 120 236 144 135 153 101 68 179 105 24 
123 141 137 137 204 91 123 102 217 92 98 84 133 54 156 61 168 110 108 115 143 34 125 114 200 117 143 201 90 143 99 152 84 122 159 193 91 88 45 146 156 119 116 92 111 119 148 126 133 139 154 121 139 193 136 114 219 144 149 188 104 197 222 129 135 103 207 103 71 65 106 206 113 115 156 141 229 152 81 95 134 156 199 156 205 149 36 164 121 126 127 67 110 160 90 137 180 118 111 121 
110 65 58 208 111 66 172 135 171 123 126 115 127 148 167 142 230 226 77 96 101 40 123 161 106 105 47 191 161 189 52 101 74 152 98 107 124 83 183 39 97 136 96 200 174 136 159 122 105 84 99 148 229 137 103 145 161 84 126 134 28 163 173 167 153 138 131 111 135 134 68 111 116 39 59 97 97 187 71 133 169 144 138 101 120 100 133 192 133 143 154 121 148 89 102 65 105 158 181 160 
86 159 106 104 64 122 193 63 133 92 129 113 150 157 212 185 128 104 175 152 204 48 174 95 159 177 148 71 83 133 116 104 97 182 212 167 108 76 44 162 149 223 135 160 158 156 148 91 88 117 73 129 95 103 171 99 142 110 111 111 118 99 123 199 78 113 117 70 198 175 133 243 152 92 163 159 75 85 137 99 121 108 131 60 186 129 94 35 98 160 100 183 123 116 206 107 217 136 148 124 
151 147 142 176 148 112 51 211 195 92 158 206 117 116 100 183 174 143 94 92 118 174 126 99 179 78 134 143 129 142 40 86 93 158 197 127 115 94 110 68 172 76 64 129 127 50 197 149 151 110 171 100 186 98 51 184 175 134 79 117 115 112 64 164 118 122 114 156 152 150 167 176 130 211 135 131 171 72 103 120 188 128 100 206 97 107 162 127 153 98 108 146 154 64 215 80 126 138 105 73 
156 117 129 115 116 115 192 67 157 148 162 99 90 134 180 62 42 150 110 147 137 180 115 138 190 118 131 154 55 114 35 98 166 140 72 125 154 94 83 151 95 126 119 171 161 209 160 178 43 127 138 84 129 122 184 164 47 197 131 72 200 147 111 148 148 107 76 101 124 187 150 93 144 129 89 111 178 160 70 94 162 65 177 150 137 91 121 118 154 152 125 110 116 162 174 142 145 190 168 150 
123 146 181 143 103 71 163 49 95 127 96 119 149 218 69 115 107 117 84 144 145 128 133 104 121 93 79 162 119 147 107 88 104 125 91 82 143 125 153 189 121 117 87 184 129 163 104 121 134 189 86 136 144 159 175 97 18 212 77 122 77 77 76 68 119 99 81 133 67 76 40 177 78 79 105 59 117 155 172 158 49 147 154 112 122 103 119 105 131 126 56 156 160 62 163 111 141 92 135 101 
191 95 149 108 81 84 93 150 136 99 85 48 133 137 134 164 145 68 108 74 137 95 132 99 132 150 144 98 110 156 124 104 141 155 94 121 198 139 86 113 90 166 74 108 138 183 54 156 78 154 167 126 195 130 127 223 87 126 117 146 115 85 90 111 115 111 109 95 183 152 147 161 85 129 106 169 107 202 193 96 115 168 135 85 117 143 119 82 143 146 162 91 230 129 98 160 126 123 189 128 
213 111 134 150 154 171 117 178 51 84 158 89 177 87 166 191 64 160 90 158 76 77 193 66 125 113 154 147 52 135 48 142 113 36 205 79 147 174 74 163 174 163 81 143 91 182 118 63 200 169 170 123 116 114 76 107 146 111 124 118 96 133 83 69 93 186 168 120 142 169 93 63 137 149 122 227 112 71 159 132 154 145 107 83 89 122 210 159 91 201 101 117 140 106 59 112 158 147 196 59 
124 184 158 169 96 186 120 80 62 229 71 114 128 69 116 122 169 141 106 126 165 137 221 158 134 174 136 53 156 60 131 91 158 92 101 198 49 128 124 89 122 186 68 146 129 72 139 108 88 177 166 41 139 174 88 99 101 108 208 51 110 95 110 129 97 138 160 82 118 115 163 113 107 120 123 123 103 195 121 144 153 119 107 109 118 57 135 152 171 192 133 206 97 155 182 170 97 225 183 155 
82 125 153 105 111 175 136 149 147 47 96 212 97 167 130 93 102 168 118 160 142 115 152 101 122 120 108 131 21 127 164 160 135 121 105 185 126 144 136 180 169 70 122 156 132 87 98 66 73 100 189 156 142 144 185 112 121 150 125 80 125 82 71 196 113 166 194 141 49 73 78 172 173 121 182 118 76 83 135 108 231 202 207 57 204 114 163 121 131 74 125 165 138 114 95 74 151 76 156 116 
160 109 183 129 210 122 141 162 87 97 132 76 96 142 124 116 115 168 95 123 152 78 75 108 139 186 121 96 59 123 105 72 146 112 76 134 127 62 83 156 138 146 142 97 108 110 115 114 147 113 91 95 147 95 137 95 162 81 112 200 200 140 67 81 122 131 85 109 142 117 76 108 94 136 104 131 207 139 112 169 147 171 112 116 133 143 47 17 45 61 75 53 120 130 118 108 42 53 92 56 
148 81 131 164 176 143 95 172 194 73 95 125 134 184 159 158 199 124 181 61 81 132 119 164 111 162 190 160 163 107 156 98 159 206 141 90 50 117 182 43 209 116 74 81 225 169 204 230 151 129 104 205 192 57 139 149 83 210 109 81 116 181 68 97 115 214 146 212 236 100 197 129 128 110 104 129 115 117 141 131 135 138 150 83 109 158 137 91 130 149 145 175 112 115 109 92 202 109 170 78 
191 152 90 116 53 124 130 124 154 73 106 124 146 152 147 204 157 120 112 96 104 97 197 77 103 126 140 172 215 124 167 157 144 78 147 108 60 104 93 89 98 163 103 153 100 170 144 94 159 141 137 149 71 202 112 57 61 180 145 185 177 101 226 127 165 143 120 217 142 159 146 107 53 142 167 174 132 82 198 156 130 130 176 138 143 101 156 120 168 155 201 169 170 98 182 100 141 73 127 149 
130 214 96 137 108 42 119 150 97 161 179 159 140 145 143 134 152 61 136 165 143 102 183 140 189 90 141 126 84 149 55 148 89 159 63 174 182 200 93 141 119 197 118 116 173 141 97 131 127 103 188 189 112 151 50 183 145 123 95 57 61 57 177 138 174 193 126 113 101 178 133 188 172 111 84 171 161 129 53 110 151 146 176 61 66 152 94 86 202 172 127 151 90 153 98 101 160 156 66 144 
57 182 52 131 140 107 129 121 127 87 181 213 121 80 142 191 115 64 128 172 172 161 146 183 104 159 80 94 148 112 147 163 101 154 160 93 202 178 30 90 75 208 114 108 39 100 113 123 131 87 118 160 102 106 133 192 72 164 78 65 131 105 182 62 127 170 143 187 186 139 126 58 34 56 106 129 100 88 73 133 165 124 43 63 119 150 161 156 85 52 79 131 133 63 190 101 89 163 65 122 
51 106 89 182 73 181 142 72 119 125 213 127 165 147 171 199 64 179 73 150 120 165 99 140 153 171 93 120 173 185 107 156 104 181 136 26 82 160 141 17 72 119 82 124 87 60 103 201 79 72 163 130 151 107 107 87 124 136 72 138 108 246 113 138 107 75 174 68 54 121 86 210 83 195 121 129 181 145 159 65 146 100 226 103 109 130 127 156 168 143 102 132 95 111 179 112 56 156 87 66 
63 76 27 124 190 155 112 220 185 104 226 103 151 205 152 156 205 179 84 149 124 130 157 75 179 128 148 125 118 185 95 66 110 175 120 115 150 74 128 142 139 172 93 234 146 77 133 126 27 133 168 161 157 106 169 144 170 118 165 162 109 86 202 188 61 114 137 192 78 146 90 164 129 146 221 104 139 50 118 171 74 52 109 47 166 107 224 91 103 116 163 114 196 129 151 107 74 50 108 136 
200 122 198 210 103 134 110 76 152 64 142 148 221 83 59 41 103 147 71 132 103 129 187 207 186 78 62 184 97 241 136 162 120 131 160 87 159 221 139 127 170 178 51 93 150 42 138 60 196 102 28 102 164 154 129 55 146 140 188 181 75 71 101 54 87 61 64 110 106 162 169 160 70 118 56 155 199 80 152 92 93 9 100 105 33 115 117 182 114 162 90 137 150 116 90 152 200 131 99 128 
160 150 174 222 114 190 124 121 117 123 124 95 46 87 127 145 108 75 116 77 80 157 137 117 94 211 82 140 102 97 29 160 102 199 115 97 122 121 134 160 168 77 146 124 94 82 121 34 130 107 179 171 102 134 100 155 134 86 124 122 130 89 43 135 134 32 116 106 102 106 178 59 153 150 118 140 192 59 100 145 111 121 73 99 80 166 129 158 144 100 121 202 195 210 175 80 174 146 139 76 
112 38 75 99 180 151 220 55 109 171 125 128 161 120 190 224 178 124 97 106 86 144 71 119 128 179 202 154 102 90 85 148 139 96 223 159 197 144 199 160 191 134 139 201 31 148 115 116 109 150 161 147 186 111 160 131 153 94 135 118 92 180 170 142 153 92 114 197 39 174 124 127 216 167 90 83 108 164 130 50 108 124 157 142 138 92 138 58 164 193 128 167 132 227 191 80 130 151 89 168 
154 183 125 170 81 81 168 150 203 140 37 128 114 114 202 184 165 137 90 166 150 72 159 85 102 76 121 63 119 136 101 180 138 88 128 191 107 197 88 82 80 158 91 197 99 173 135 156 107 127 120 152 130 208 75 166 141 99 153 24 129 90 135 176 113 46 99 125 46 213 87 103 153 144 158 53 168 153 135 91 90 181 103 131 63 116 112 51 139 176 86 117 122 136 159 121 137 116 153 137 
170 103 170 157 159 209 179 53 121 180 82 62 78 27 177 194 135 139 95 64 69 97 143 62 108 122 170 196 171 115 94 173 182 32 178 185 116 190 102 95 148 76 122 147 131 50 148 179 169 134 161 144 131 144 144 153 125 151 183 110 121 80 123 44 136 169 123 87 118 138 109 99 100 141 147 149 97 145 194 149 122 132 94 79 157 128 146 68 186 118 128 131 117 126 119 131 138 75 140 189 
103 73 73 152 103 193 128 65 134 111 165 177 157 155 178 49 82 124 108 223 159 70 107 111 130 107 140 145 161 113 60 162 221 135 96 159 152 108 188 158 143 129 60 197 67 91 87 186 151 120 124 137 158 172 156 160 75 47 96 136 121 190 182 169 47 181 184 67 79 114 102 151 59 88 85 147 207 150 75 99 65 163 209 176 105 191 165 90 108 79 170 88 103 120 195 123 184 108 81 147 
139 100 180 92 59 152 129 138 72 165 203 166 164 160 72 93 88 77 114 96 127 132 177 139 131 166 117 70 181 97 47 96 160 59 100 93 131 121 103 101 58 142 195 237 131 53 94 148 153 222 93 129 180 102 122 85 169 179 107 126 146 114 185 87 185 134 204 151 211 55 57 87 124 149 166 115 89 116 140 81 77 182 119 139 94 110 105 125 163 117 63 132 83 198 159 75 90 89 84 161 
141 134 167 145 210 74 142 79 150 165 88 197 51 101 183 84 107 200 53 89 159 140 96 152 98 108 156 152 157 95 199 210 113 123 75 181 64 190 119 110 85 97 71 71 122 112 108 215 134 83 124 161 134 237 122 126 102 118 94 47 130 179 121 72 165 178 77 156 132 113 87 134 94 114 124 173 192 117 82 140 72 84 45 172 139 178 123 68 146 105 228 96 79 79 171 132 134 146 128 135 
183 101 107 113 216 126 117 74 153 117 123 155 95 81 96 124 75 135 75 40 113 232 114 174 161 152 172 135 122 171 82 116 118 101 169 157 163 101 129 114 179 163 150 141 111 133 124 80 90 159 182 156 132 113 125 97 159 234 158 233 116 141 125 76 193 165 117 160 102 106 117 189 117 79 180 179 150 101 99 135 156 177 93 139 159 154 99 71 153 82 131 151 138 104 144 102 144 167 123 35 
115 195 127 226 176 57 75 78 179 191 133 51 86 125 165 71 143 158 98 70 182 211 117 123 104 175 147 202 182 142 159 52 183 156 144 140 87 54 167 133 209 179 143 151 116 177 169 126 119 151 96 99 198 154 201 105 144 37 193 197 167 104 145 117 123 151 231 76 119 175 122 130 79 117 38 118 144 141 71 125 49 181 136 161 180 85 148 52 133 180 212 104 95 129 81 137 30 114 40 163 
77 173 97 160 87 158 108 127 159 164 102 108 154 125 87 117 163 224 58 173 107 107 149 153 100 97 187 73 122 124 131 192 160 66 190 148 127 122 136 43 173 30 218 167 163 147 198 178 164 132 95 57 142 96 62 140 183 94 141 179 143 127 144 159 189 83 81 145 159 56 134 203 161 217 135 45 151 117 156 82 65 136 132 44 129 71 162 122 51 153 87 154 111 88 124 160 82 187 100 80 
95 130 148 122 149 152 93 123 153 160 53 79 110 93 155 73 122 177 95 165 117 127 128 83 149 153 115 75 71 112 72 121 156 96 147 149 85 177 130 182 156 81 147 72 56 208 76 123 111 145 77 174 183 141 53 217 120 180 155 117 154 113 124 82 76 130 113 27 129 132 65 146 146 147 215 70 134 78 170 193 67 121 84 149 132 24 83 145 56 231 95 150 127 152 108 117 51 151 116 159 
156 152 129 97 148 122 59 126 53 144 126 198 177 79 94 74 161 215 154 99 110 161 103 109 92 119 46 156 138 83 119 187 117 225 74 108 153 161 129 166 101 124 125 110 187 122 146 166 106 132 128 43 182 123 117 204 215 66 168 81 195 113 182 25 145 155 82 178 128 125 75 85 199 182 139 171 131 98 110 133 166 135 144 84 206 130 46 102 125 177 133 64 193 100 188 167 162 122 140 102 
128 80 155 138 185 101 82 136 80 141 144 77 136 54 187 177 78 152 137 218 31 137 162 110 112 104 129 116 186 144 175 180 33 79 88 124 107 166 134 127 116 107 70 46 143 102 90 158 181 158 144 121 93 37 127 114 173 121 218 103 160 144 117 108 167 160 130 124 176 119 123 114 164 92 150 132 167 29 124 85 74 70 105 163 138 144 136 206 115 118 241 156 176 110 57 62 42 100 43 149 
101 111 184 104 203 114 147 138 36 152 135 90 83 59 81 147 116 131 94 147 89 86 110 225 172 146 187 51 171 105 186 182 113 68 153 193 74 221 187 129 137 23 178 69 72 132 146 119 152 154 111 222 138 118 160 87 63 170 193 205 159 215 59 100 84 174 107 104 119 124 168 111 81 185 134 82 191 158 171 99 119 175 108 93 103 120 127 131 76 192 201 156 147 97 128 181 156 131 119 133 
91 138 155 212 138 143 137 180 169 147 140 124 197 81 105 108 84 185 159 130 228 93 149 100 79 61 71 184 65 210 123 208 118 83 168 139 46 69 156 170 211 102 114 167 99 158 211 49 86 135 233 126 193 111 55 160 117 80 152 187 165 174 200 129 58 125 178 98 192 69 79 154 67 183 122 169 93 178 145 121 129 80 199 172 136 110 151 119 47 163 82 170 126 134 184 154 63 142 96 135 
83 33 115 114 167 73 94 108 155 177 183 144 105 114 168 140 145 140 127 116 109 189 79 66 129 112 135 172 172 193 58 182 156 139 109 181 122 122 126 176 170 132 156 134 50 179 96 142 153 100 137 83 65 129 153 147 127 106 167 121 90 116 158 150 89 125 121 89 144 106 135 129 81 130 99 73 137 129 224 91 127 214 203 159 141 115 147 73 147 94 145 66 100 98 149 97 143 139 136 138 
73 60 205 116 116 149 165 132 136 106 80 145 125 115 176 128 136 120 153 117 146 111 46 139 76 132 168 178 198 97 124 178 116 103 131 107 82 93 98 167 112 205 119 87 196 90 155 58 101 167 156 89 119 180 161 99 116 59 94 134 173 148 165 156 190 161 30 129 110 144 165 48 143 133 74 72 121 104 140 119 147 179 187 125 148 193 73 128 204 114 38 106 168 210 70 167 187 159 119 188 
106 161 178 145 79 127 152 20 123 160 58 130 143 170 166 39 159 146 178 169 91 82 188 61 104 221 195 89 63 121 129 191 154 112 57 211 120 134 148 121 186 81 159 111 155 147 93 97 36 107 95 83 150 160 118 173 62 104 89 146 71 159 201 178 161 93 186 62 108 129 119 117 186 132 111 133 106 73 136 209 136 86 108 50 50 77 111 169 97 138 113 39 108 154 94 145 167 220 107 123 
107 78 47 61 143 84 98 153 148 81 136 96 106 81 178 143 163 120 100 85 120 120 174 104 143 111 143 215 127 118 205 160 79 16 130 176 171 186 61 131 85 92 46 81 108 129 107 188 146 152 141 132 163 180 119 103 110 175 106 108 79 125 143 191 152 38 118 136 105 118 172 109 133 121 91 134 128 69 103 127 148 207 155 111 84 142 112 194 108 149 198 166 85 158 134 32 83 146 128 126 
198 64 49 72 156 77 126 144 69 58 154 42 67 157 203 115 110 129 177 160 104 141 82 131 57 104 118 148 138 116 125 214 161 164 131 61 158 114 229 154 78 108 134 104 183 124 145 64 127 36 179 172 223 167 140 138 135 156 42 159 48 141 138 189 161 183 115 79 125 82 168 132 135 25 67 164 100 149 73 185 92 96 140 144 139 45 132 90 169 141 113 45 119 134 116 137 133 21 181 123 
42 191 33 56 163 111 98 49 110 98 188 167 81 97 38 123 180 103 109 40 179 85 101 110 177 85 114 97 164 155 193 143 126 148 86 152 36 143 79 109 201 139 220 110 144 171 137 139 177 218 125 165 166 160 133 139 128 98 181 175 127 186 147 125 163 103 84 35 68 152 229 74 87 91 199 173 153 177 43 136 152 104 190 154 191 188 158 66 148 112 131 162 133 24 150 147 176 59 97 128 
