P2
100 100
255
105 115 127 119 131 69 125 167 102 123 83 138 160 210 61 102 111 124 149 68 127 131 194 73 141 143 172 167 80 172 111 167 201 118 85 160 140 135 89 134 65 70 95 192 164 149 148 52 111 204 126 132 158 156 164 176 109 98 179 73 129 125 193 195 95 184 157 170 105 16 86 161 133 143 140 57 94 170 167 136 75 132 117 174 160 130 104 180 80 122 169 152 63 116 113 164 112 59 112 123 
101 170 100 164 135 79 115 142 75 106 186 157 132 152 185 129 59 40 68 83 102 128 152 173 69 123 166 100 138 77 147 107 140 95 99 144 74 98 63 112 128 75 82 145 90 141 141 177 80 128 137 95 106 58 148 55 159 86 164 98 68 157 90 166 150 98 151 47 192 167 202 105 147 126 137 111 205 117 133 190 85 82 140 164 152 89 174 102 66 151 141 132 177 132 122 154 113 183 174 98 
135 250 121 128 159 146 106 60 146 158 174 97 54 86 179 162 106 143 133 53 145 111 134 79 113 125 142 155 173 103 186 181 160 206 110 187 175 94 149 122 217 181 143 116 63 114 191 173 145 118 86 137 102 108 198 70 53 122 102 143 166 118 81 92 93 199 121 141 202 112 70 138 98 164 68 167 114 107 99 43 103 77 113 96 65 55 75 95 128 105 114 207 137 105 122 107 79 89 137 122 
195 89 136 112 42 80 56 168 113 124 205 150 187 82 90 244 112 167 112 129 139 200 178 165 155 165 154 190 62 164 163 196 108 142 82 118 94 105 102 46 83 132 83 247 41 142 67 93 109 167 95 189 170 225 199 103 135 172 80 139 170 73 190 104 152 90 193 160 124 136 85 102 170 153 39 121 130 118 223 186 94 145 200 140 179 107 23 126 90 43 52 172 151 197 141 171 63 220 39 127 
144 135 196 137 113 46 112 153 102 119 185 101 148 181 210 103 104 81 194 27 94 167 125 168 231 168 112 126 102 210 39 170 123 225 140 148 125 133 130 193 211 167 102 110 231 140 45 64 96 152 195 85 173 159 181 124 163 133 162 97 125 104 173 45 82 56 138 160 65 183 113 206 117 139 127 125 154 113 78 166 163 67 158 194 122 120 88 144 134 91 64 118 145 154 131 101 100 146 140 131 
137 166 156 147 24 169 152 178 165 172 117 100 194 123 164 168 167 81 210 91 75 175 133 129 143 122 116 171 106 87 138 151 96 177 99 124 204 100 161 68 140 106 46 61 200 193 135 171 108 164 107 152 137 169 133 99 125 149 91 106 69 134 106 37 104 123 142 105 122 94 172 181 139 125 182 79 71 71 142 170 147 111 225 64 106 187 144 139 148 127 126 129 105 86 108 89 129 126 146 164 
119 135 179 89 150 178 144 112 159 149 162 133 101 139 184 97 74 159 68 149 164 76 77 158 198 164 105 92 134 76 161 169 178 103 158 146 156 143 206 119 155 122 130 172 88 115 127 147 95 196 100 108 60 106 116 220 179 133 119 177 135 104 108 32 116 78 154 124 102 125 174 38 157 100 159 159 219 189 139 147 169 108 117 115 67 112 95 119 104 94 110 84 113 91 101 151 70 145 134 183 
126 135 221 160 98 141 81 238 137 165 173 148 149 111 134 128 146 159 117 217 94 165 111 157 117 126 46 188 143 110 134 125 118 96 152 159 112 71 122 124 115 124 66 135 134 104 157 100 92 107 131 174 39 123 125 179 145 33 126 103 131 188 119 169 124 58 101 110 60 239 162 111 69 72 162 161 165 121 76 107 97 108 152 83 127 206 148 75 39 212 42 78 115 96 111 127 152 138 141 93 
91 161 212 78 89 120 157 118 112 104 106 131 70 135 99 112 127 112 192 130 155 121 163 86 169 153 41 166 191 62 70 39 165 15 121 100 93 103 99 93 121 146 147 85 102 85 164 153 220 173 43 103 128 88 89 138 68 96 79 149 33 68 94 97 123 115 112 160 161 82 168 112 193 106 113 213 142 93 145 140 151 137 103 59 139 128 68 156 121 112 227 137 123 176 183 140 117 176 99 185 
65 130 193 97 171 121 77 182 108 100 141 97 92 118 182 110 145 65 189 169 107 98 142 92 180 94 124 117 55 148 163 199 148 158 69 92 99 107 140 147 98 123 136 166 164 126 109 161 154 138 84 139 98 114 87 133 28 137 88 171 77 107 93 105 171 122 120 121 48 142 119 103 142 159 83 102 166 104 191 77 135 78 139 93 146 92 161 157 177 132 58 17 133 151 112 123 75 206 110 132 
95 194 63 134 128 85 157 187 169 167 99 198 98 84 172 133 65 88 149 164 50 145 122 119 148 82 145 123 194 128 80 95 139 168 50 167 89 169 127 122 168 83 149 140 104 164 157 139 126 177 100 126 126 167 123 153 94 160 150 141 183 147 125 102 109 168 153 199 129 76 137 30 89 125 118 161 90 105 113 170 134 92 88 114 101 177 145 81 122 80 114 162 111 60 142 130 133 183 161 159 
55 178 68 172 96 146 180 117 105 175 155 134 118 118 66 158 172 123 160 183 130 45 127 128 160 130 158 126 100 71 171 155 106 203 39 117 208 57 155 93 108 180 93 118 147 69 128 85 129 92 141 128 35 96 98 158 83 132 162 156 105 94 138 130 196 141 120 98 183 127 58 141 36 105 142 120 135 105 153 140 130 162 34 79 142 169 95 164 128 152 146 155 109 100 234 103 131 108 103 115 
100 115 114 25 121 46 135 112 192 180 33 89 146 151 101 161 117 114 110 100 128 121 106 22 195 103 166 146 72 130 116 181 141 111 192 141 127 180 179 142 150 148 94 135 91 90 141 203 141 112 124 153 68 112 65 112 144 139 62 42 195 109 128 123 118 180 131 135 117 166 154 225 191 233 82 84 137 199 145 211 111 109 118 120 126 153 142 196 135 177 212 95 23 129 130 110 108 178 48 76 
212 125 117 77 117 193 134 47 86 194 27 196 183 126 128 168 138 98 184 212 82 83 104 181 71 134 188 66 44 141 105 110 91 190 185 51 139 105 68 73 142 110 155 98 89 189 144 106 129 108 81 63 147 105 98 125 125 210 207 101 143 112 158 98 139 178 124 173 183 186 180 176 121 102 89 195 81 94 141 131 161 172 179 117 133 96 80 150 122 188 154 168 111 119 129 112 230 237 160 160 
151 190 145 166 139 70 99 106 112 103 164 123 81 126 106 80 129 173 94 159 140 156 158 112 175 166 107 121 135 158 135 125 62 123 180 77 75 21 131 152 81 78 114 155 66 133 133 98 175 167 149 117 56 82 176 141 129 61 125 155 95 206 73 102 92 133 131 93 153 173 181 87 143 105 58 133 99 130 129 56 137 141 92 84 165 138 187 89 133 165 113 130 176 221 93 41 128 68 148 159 
127 122 188 127 187 81 119 94 139 92 170 174 147 71 167 200 153 142 150 168 151 114 128 148 88 130 168 89 71 25 153 88 108 70 123 124 183 183 148 211 121 157 175 162 178 151 79 73 146 212 170 114 141 153 94 192 37 191 156 80 146 107 149 121 129 198 115 82 143 171 64 165 81 113 126 96 141 122 165 93 131 94 84 162 216 189 107 164 136 129 95 91 159 23 196 163 61 71 130 219 
63 172 159 141 142 176 179 191 172 187 138 107 98 139 198 110 236 121 128 135 177 183 201 213 131 120 61 124 77 148 188 118 66 122 75 93 63 86 191 175 95 71 142 171 167 153 115 128 93 161 174 161 104 157 108 88 169 132 107 43 114 112 166 133 75 149 108 153 169 112 143 34 182 157 129 20 152 31 114 128 162 98 171 189 156 147 196 127 112 92 89 90 172 126 219 128 121 126 108 159 
212 235 168 100 79 73 105 212 58 82 72 61 116 236 100 92 125 91 143 170 142 117 179 94 197 180 121 154 142 111 123 50 151 112 109 174 121 129 191 154 196 73 134 57 81 89 102 118 167 215 92 105 110 53 94 109 113 111 76 134 136 142 127 130 125 164 67 117 202 67 84 155 131 145 113 144 168 215 88 156 72 170 137 94 127 207 182 120 134 88 98 94 96 195 86 169 202 154 142 92 
91 205 146 111 81 145 148 179 68 220 144 182 66 134 114 139 62 84 153 184 79 130 191 163 111 38 152 50 233 147 179 147 104 120 130 144 72 54 173 123 201 110 150 192 224 94 124 113 71 142 73 77 197 75 95 98 102 167 125 98 111 62 49 128 173 185 134 118 149 178 143 227 84 166 120 163 95 118 71 157 129 151 118 164 166 94 164 157 117 189 185 104 136 112 74 159 65 137 99 88 
98 75 150 164 82 146 47 143 120 137 145 116 159 166 113 171 170 64 33 24 39 67 151 108 171 122 117 69 166 94 127 153 180 166 207 136 75 120 101 162 69 158 123 122 146 106 171 95 82 186 35 132 158 146 96 143 129 126 74 166 68 61 106 102 105 86 103 219 159 98 211 208 101 215 116 201 179 129 136 120 198 139 76 107 119 90 96 143 158 87 162 92 193 137 65 153 186 162 98 153 
196 150 143 106 136 96 123 144 202 68 168 152 76 93 85 155 113 115 147 77 120 155 65 106 217 105 150 204 148 119 103 92 149 161 65 173 172 108 66 143 86 124 179 43 120 140 133 144 119 207 112 158 137 155 196 143 203 110 159 142 214 62 199 111 143 162 116 111 134 151 106 196 114 151 50 172 147 108 148 219 110 33 128 90 172 154 68 43 129 176 142 156 138 154 98 111 177 163 151 133 
110 133 65 114 185 59 172 113 91 87 100 79 102 138 150 105 138 151 81 46 83 76 64 86 80 145 86 132 125 200 177 36 193 193 71 111 77 100 190 225 47 114 106 108 163 80 166 164 131 143 203 203 137 184 163 105 178 159 62 176 101 143 117 219 223 109 155 137 147 135 128 97 131 98 158 94 166 131 66 130 144 148 105 80 93 136 105 178 106 142 115 63 117 168 83 106 24 202 100 142 
111 118 81 98 166 56 178 175 165 31 119 128 118 133 96 108 143 197 126 124 71 204 141 31 137 143 78 115 128 159 127 96 165 159 74 143 200 153 91 73 131 111 219 129 176 186 172 196 165 92 110 93 142 149 119 187 173 143 124 154 102 104 191 40 151 197 86 179 223 122 66 100 146 145 162 198 138 129 218 70 84 72 95 158 123 155 78 179 190 74 95 147 127 106 57 110 153 138 227 137 
145 184 128 71 177 128 144 96 156 144 186 83 36 191 112 164 88 65 131 118 70 177 122 119 155 151 92 199 159 153 121 116 76 169 182 90 70 133 87 77 204 153 205 103 94 128 91 82 106 222 111 150 76 124 186 82 183 133 110 93 176 137 147 98 211 69 129 81 111 217 54 114 103 135 134 138 134 152 162 161 110 217 132 156 69 208 123 70 136 97 116 133 89 96 147 88 119 166 133 52 
133 105 83 182 89 137 103 132 178 190 156 120 122 96 116 196 137 121 101 176 72 156 89 122 111 133 122 143 145 155 76 211 64 86 126 85 50 66 50 165 174 104 124 113 102 149 38 64 90 109 112 166 199 119 68 155 102 71 160 67 128 92 144 183 143 136 130 103 198 48 103 136 169 168 137 89 153 118 76 132 85 105 80 178 175 127 191 112 126 114 119 65 138 107 104 185 76 144 165 96 
117 90 178 84 149 79 194 59 153 160 70 103 85 112 119 132 184 155 80 218 90 172 166 174 95 48 183 170 47 160 106 166 143 93 154 124 153 211 165 107 133 184 194 204 94 74 173 109 84 194 168 114 105 62 167 113 194 184 125 183 173 178 82 165 170 117 91 192 142 130 154 178 143 194 139 185 127 147 104 163 59 118 146 142 130 66 69 100 164 148 115 78 160 133 140 116 115 140 136 147 
118 103 122 112 105 79 151 99 116 228 125 208 135 125 103 96 40 165 99 91 96 117 139 134 102 137 183 115 97 93 107 211 100 202 138 105 58 206 96 195 111 90 109 152 162 159 150 158 136 94 130 120 108 98 152 148 216 78 150 139 94 113 181 127 103 52 77 86 80 77 132 153 172 121 59 109 80 130 174 165 107 179 113 178 173 80 120 155 176 140 170 152 156 115 105 105 51 171 212 50 
176 136 42 134 103 188 68 69 115 185 140 175 112 106 134 110 83 121 152 148 190 94 159 148 112 166 136 120 91 149 132 91 58 166 57 121 120 181 146 127 125 80 229 23 67 158 82 185 122 114 73 142 93 132 138 89 122 159 71 98 128 200 89 156 121 108 96 199 147 113 111 111 125 38 121 165 92 146 52 145 95 172 165 126 128 93 76 147 77 91 90 139 151 143 115 115 104 136 147 121 
62 132 227 115 140 165 143 138 188 168 120 142 146 211 155 65 151 112 147 121 62 140 175 178 46 149 112 139 119 61 136 109 126 182 96 68 118 67 194 90 204 94 102 151 89 174 124 135 72 130 136 131 140 196 115 76 123 121 163 80 150 117 167 197 84 146 66 97 133 130 120 114 80 131 144 193 79 114 85 142 152 58 218 110 84 126 108 169 147 165 115 177 121 73 126 109 132 108 138 92 
52 157 175 58 174 188 162 123 83 60 110 138 163 150 201 111 66 103 112 171 94 75 120 68 72 34 133 143 155 132 103 159 90 98 145 112 146 136 98 137 90 68 152 127 86 50 172 192 99 94 155 146 168 169 192 165 92 99 48 80 196 58 175 220 142 94 96 156 122 73 121 115 173 107 53 97 119 136 82 137 154 95 141 74 77 59 169 123 112 155 118 179 103 39 117 149 166 106 122 158 
94 200 153 142 74 175 171 113 72 96 201 119 45 101 105 153 169 77 152 128 183 148 116 100 82 111 147 186 156 191 140 140 108 152 103 127 199 91 138 115 108 169 163 168 30 96 113 55 65 130 112 97 157 90 110 106 200 111 130 175 141 199 105 220 85 96 123 180 156 78 180 118 98 167 128 52 155 139 159 125 200 79 111 150 136 154 91 31 169 186 20 65 118 119 214 99 138 234 27 79 
75 172 140 190 125 157 162 107 77 101 104 178 174 89 132 123 69 78 120 172 84 48 159 116 117 224 86 106 205 125 144 151 124 93 138 128 180 134 119 170 209 70 151 75 24 75 120 69 160 203 146 104 138 182 159 130 90 130 115 178 99 152 61 55 203 130 132 132 84 136 62 127 118 87 196 126 135 110 191 138 119 97 227 78 128 213 97 171 91 65 111 109 113 52 165 79 160 146 97 153 
93 135 115 134 106 136 113 150 138 172 115 129 153 98 145 68 141 122 175 96 131 126 171 216 121 103 119 200 73 94 118 94 178 79 89 103 212 167 53 124 97 58 197 154 190 93 37 121 132 144 156 81 214 117 144 65 135 171 105 143 171 176 109 111 179 186 112 148 93 128 158 66 19 105 48 82 68 183 177 208 74 108 67 121 37 25 147 130 149 136 140 156 174 110 197 119 86 93 116 155 
116 95 98 158 116 82 123 170 191 128 186 112 61 173 79 106 64 190 128 156 110 91 118 201 183 171 140 115 154 135 115 67 138 160 110 126 111 50 91 217 76 167 60 90 200 78 148 143 206 112 161 77 167 129 174 119 118 150 75 85 155 174 157 113 151 160 107 134 169 146 166 113 165 175 121 135 97 52 119 104 191 176 133 101 144 92 147 182 229 149 120 79 127 173 122 117 98 212 161 171 
67 63 102 21 175 129 134 152 81 98 119 143 88 69 112 151 164 148 110 167 169 89 120 174 159 77 176 179 195 171 47 151 99 130 60 116 162 50 100 173 159 209 118 127 116 99 141 87 113 90 196 116 187 131 147 123 80 126 152 130 116 96 171 60 135 102 201 94 96 148 160 148 78 79 184 177 79 70 61 72 133 129 84 124 136 218 65 159 149 76 110 64 176 47 117 104 173 108 132 120 
206 64 125 99 161 88 148 24 62 203 139 52 169 181 155 161 140 145 135 112 129 22 134 171 86 51 115 202 107 159 174 141 148 157 85 135 133 150 37 79 154 160 141 141 105 109 189 112 142 103 137 56 120 133 187 150 150 190 121 179 73 138 87 108 102 118 122 173 127 72 79 121 135 157 139 141 125 70 135 197 115 119 111 133 109 157 214 22 81 47 34 107 239 208 101 93 109 135 126 162 
127 83 60 129 70 179 87 72 167 175 149 72 155 63 76 139 143 140 165 135 71 150 123 166 69 143 156 138 128 78 179 125 132 74 119 156 77 127 111 171 146 109 89 190 149 81 74 87 198 169 120 151 149 139 105 156 83 114 91 109 90 158 82 127 140 179 162 77 123 182 133 108 89 121 112 133 106 169 98 95 59 117 161 110 120 206 163 134 61 131 152 77 155 57 151 123 121 197 101 60 
164 62 163 138 154 112 105 87 131 98 72 98 102 79 78 159 76 143 62 197 75 130 112 107 179 172 102 123 113 34 114 156 171 164 130 191 113 214 127 113 192 94 146 159 124 193 68 64 128 86 111 76 114 114 126 137 153 94 102 71 215 61 160 146 186 67 58 159 71 141 81 149 190 123 124 145 193 159 129 100 56 136 131 228 116 141 165 156 126 112 189 126 95 151 120 80 58 177 102 108 
121 61 110 121 118 198 77 124 208 122 168 190 155 134 170 132 128 200 88 159 121 183 125 75 150 190 123 145 158 170 130 137 193 82 83 36 113 106 155 151 149 96 100 170 177 165 86 96 161 36 133 159 129 50 211 111 156 110 164 63 89 150 169 142 158 168 93 107 124 165 88 155 139 201 102 153 108 47 61 140 133 151 70 145 143 75 123 108 85 179 142 71 166 109 201 138 171 115 156 162 
192 156 139 215 145 103 110 121 93 168 87 91 115 110 167 160 186 135 112 194 80 101 134 29 146 95 106 139 93 171 28 135 163 153 167 105 93 95 124 73 131 128 120 87 98 65 135 108 166 133 81 115 198 174 122 94 127 138 140 103 144 184 107 18 176 182 122 105 107 134 87 126 79 93 72 118 115 84 144 198 108 112 115 161 68 162 168 112 109 128 38 156 116 173 139 124 106 185 70 191 
110 99 115 65 145 120 18 150 59 126 94 8 158 138 208 94 148 114 161 80 154 146 137 215 168 104 113 103 53 154 132 142 134 80 138 163 114 83 111 171 135 201 112 156 200 132 155 215 179 209 148 100 144 152 155 92 192 128 134 153 58 134 176 159 137 61 38 120 121 94 57 69 59 154 176 133 193 95 102 97 97 67 122 84 149 75 136 143 145 166 135 112 126 109 104 77 105 71 129 195 
119 114 155 152 144 126 181 91 201 131 122 149 197 154 101 137 185 164 105 58 63 193 152 58 102 67 53 82 130 130 145 213 48 145 144 96 17 138 60 149 167 159 73 87 151 134 83 152 239 109 123 149 156 96 138 40 148 147 198 130 129 105 146 126 171 107 113 189 133 98 31 144 215 153 131 199 141 48 65 174 127 190 124 73 177 109 27 153 68 98 69 123 157 103 187 148 165 142 74 163 
190 89 89 50 213 209 88 149 106 177 118 142 143 179 153 73 130 131 85 132 74 187 89 88 119 105 106 168 107 156 60 198 92 93 152 119 144 112 156 59 142 84 149 123 143 179 96 108 125 178 128 123 128 109 173 116 77 141 134 82 56 151 84 100 161 100 160 90 116 98 89 202 111 59 139 127 108 158 136 185 213 165 129 120 74 117 92 155 19 127 193 178 100 147 124 118 93 162 179 139 
201 202 89 119 115 44 85 131 59 203 168 129 111 149 20 113 137 95 123 104 147 132 173 171 130 41 129 138 133 155 169 111 36 130 226 218 66 53 133 99 40 122 145 108 137 127 152 84 140 18 128 104 150 166 143 149 88 160 147 137 81 116 78 159 164 83 119 206 182 79 216 187 128 108 126 120 62 173 143 129 157 130 132 213 82 90 170 149 158 109 131 137 71 79 143 154 58 63 86 102 
51 155 101 157 195 164 161 128 162 184 106 172 54 140 142 156 89 128 136 139 154 126 95 125 177 84 159 140 149 116 127 80 135 126 138 80 217 54 111 81 102 211 73 176 69 112 120 161 137 196 135 145 149 151 143 107 180 92 140 166 60 45 118 199 150 156 206 98 87 151 95 162 122 83 103 102 202 111 51 157 125 88 139 76 81 92 137 96 190 76 194 114 100 199 119 141 89 160 152 217 
94 204 64 124 117 150 161 99 134 62 24 118 212 124 100 42 84 153 89 109 98 183 71 54 151 168 78 118 136 115 152 78 222 96 209 145 163 59 136 123 105 159 197 197 124 165 136 67 155 157 88 225 71 140 162 181 149 133 189 143 232 121 155 137 120 142 179 231 85 148 177 211 188 179 148 163 210 104 129 154 87 104 111 182 162 84 130 146 183 57 206 156 69 129 167 148 167 179 100 95 
81 111 102 159 110 133 107 93 121 143 106 98 122 166 160 95 153 78 85 102 148 119 157 110 53 136 171 128 139 139 139 100 76 107 67 159 127 157 181 148 117 132 153 189 96 159 177 142 176 105 98 206 68 149 81 91 58 100 112 128 156 129 92 191 70 131 124 56 117 62 94 79 119 100 113 43 138 90 149 128 127 142 172 168 92 120 114 148 78 91 200 113 136 135 171 21 32 124 108 97 
198 192 179 211 122 132 131 222 148 113 133 143 177 113 78 138 146 187 140 39 172 64 108 133 112 103 148 75 175 131 192 146 62 160 168 183 98 95 127 156 85 143 128 62 89 187 79 94 79 87 202 125 211 73 100 117 166 182 32 145 110 60 154 101 97 140 122 101 168 216 143 79 70 79 86 107 134 91 101 111 148 126 144 167 120 52 154 169 92 220 78 71 193 99 227 148 143 103 128 147 
157 73 123 91 119 153 115 102 159 134 133 109 101 124 127 106 181 96 58 20 88 181 108 127 101 122 122 75 133 97 90 142 119 140 149 168 158 81 128 60 126 180 125 113 90 221 209 123 153 163 187 148 86 85 111 175 129 66 203 90 122 94 22 143 98 92 168 58 165 106 134 157 150 174 175 146 112 191 111 39 86 201 99 103 161 66 89 53 97 91 140 112 135 183 112 91 129 155 214 122 
45 94 112 40 73 191 168 184 133 76 132 146 112 116 193 140 175 148 142 169 91 165 174 120 85 193 122 124 145 178 134 98 196 154 187 139 183 152 117 152 107 89 170 181 71 119 150 42 87 218 98 131 118 168 100 130 192 91 164 129 149 111 72 98 120 33 150 157 164 108 175 61 148 134 127 55 127 148 153 103 145 119 113 73 184 112 108 137 153 197 167 109 58 97 94 40 122 149 161 79 
103 161 195 142 160 174 223 133 23 211 184 125 129 87 103 113 141 170 164 89 97 183 90 83 74 224 95 114 126 55 155 170 88 74 115 149 65 176 88 124 170 116 147 142 105 155 98 76 164 84 136 119 182 70 115 161 116 126 101 124 56 184 161 100 160 121 160 176 119 152 126 159 178 200 149 38 66 119 197 134 98 96 159 69 173 118 86 28 143 71 106 69 118 124 139 101 22 68 184 147 
207 146 80 89 70 178 187 154 140 111 88 113 112 191 65 134 171 189 187 69 153 99 146 112 138 228 131 145 118 108 73 128 129 120 162 83 143 72 103 87 97 76 156 132 139 145 155 65 171 118 149 92 164 111 23 84 166 92 112 153 117 114 138 124 154 136 128 135 123 111 129 76 131 120 114 162 52 140 132 106 134 187 78 82 116 134 126 176 124 79 198 55 131 79 156 97 144 149 150 114 
148 121 59 148 149 134 104 127 166 67 25 163 174 114 60 170 119 79 60 165 167 181 131 150 198 110 175 180 69 117 194 69 116 192 79 110 110 131 142 143 46 192 99 187 121 154 101 231 95 129 148 102 121 114 119 146 130 113 177 166 141 45 145 99 55 107 169 174 161 130 39 76 137 117 167 112 147 97 157 181 76 185 87 166 106 119 148 82 105 146 94 124 213 73 131 110 95 105 116 171 
103 18 82 90 123 154 87 113 161 160 137 165 142 55 114 94 100 154 106 99 130 135 167 100 136 97 86 93 120 94 221 159 120 183 96 148 148 127 109 98 96 161 158 177 137 200 178 88 177 94 147 159 163 133 110 160 181 236 158 144 116 187 111 83 118 122 111 156 99 113 143 189 41 140 91 62 86 111 212 80 109 84 136 161 56 118 159 164 105 86 60 133 78 74 125 176 107 60 90 141 
126 127 179 147 83 107 220 184 246 109 137 102 86 201 117 80 200 93 168 134 111 135 206 82 97 164 181 84 182 152 123 106 133 160 129 134 95 123 119 99 95 93 76 139 79 168 149 118 120 147 182 136 171 174 62 97 127 97 90 98 167 133 129 207 136 114 146 139 146 133 108 167 127 152 149 123 154 161 73 99 56 162 151 138 184 144 156 133 125 143 113 71 169 110 149 81 177 125 128 145 
196 172 156 136 159 99 159 189 100 164 12 116 172 100 206 203 103 159 109 89 64 210 124 95 153 144 107 139 109 85 230 101 130 129 189 120 156 145 110 142 22 143 127 99 155 154 185 68 126 68 75 193 80 66 111 106 163 111 89 135 136 168 162 100 35 94 168 134 175 104 160 145 100 121 185 138 129 167 127 160 159 85 54 159 156 138 107 94 162 138 98 110 169 140 120 155 96 117 125 208 
136 111 132 63 71 72 104 101 70 58 183 88 111 124 178 88 156 88 193 184 189 106 125 143 175 183 102 193 144 135 146 102 136 145 73 169 82 100 172 154 52 131 53 118 88 186 39 19 81 177 175 127 159 53 34 102 79 113 128 64 181 152 189 144 142 70 112 177 48 45 143 112 137 64 86 129 124 160 60 175 173 132 143 191 89 82 54 107 36 112 166 146 133 189 162 159 114 131 144 188 
100 144 130 78 136 85 192 161 126 187 41 117 46 146 166 112 98 125 112 169 144 165 129 109 176 131 158 150 125 152 114 89 105 84 95 80 76 136 75 70 92 104 172 79 183 130 83 86 54 48 97 129 100 216 111 147 171 122 109 103 153 131 79 82 95 79 107 143 89 81 158 123 228 133 92 101 178 149 118 165 70 223 59 142 165 224 93 224 135 201 123 101 118 101 192 176 131 128 177 77 
119 142 81 138 122 130 83 146 75 155 93 180 160 155 154 174 132 149 90 138 184 182 129 142 175 228 163 174 102 169 102 143 176 93 104 84 192 122 166 150 115 126 166 133 206 78 120 133 172 131 132 45 143 105 202 125 187 144 106 240 102 172 103 187 78 81 166 102 157 95 103 155 207 93 184 107 89 146 99 188 131 48 87 109 164 96 46 173 173 170 190 172 171 119 79 155 179 113 131 146 
126 171 46 129 179 153 99 25 134 106 60 63 210 179 113 213 79 35 99 138 104 183 75 132 65 120 56 82 97 123 126 141 132 176 145 218 116 165 200 71 169 92 97 165 193 87 49 99 144 183 170 186 84 79 148 129 152 59 128 158 173 61 101 69 113 20 138 101 107 128 79 176 110 65 68 120 83 192 71 173 120 133 190 106 98 188 115 155 139 119 66 163 134 132 48 94 153 93 155 117 
144 202 89 136 155 174 90 147 211 94 167 134 157 108 135 165 232 139 133 168 145 117 137 110 101 84 128 158 131 145 144 82 150 109 53 144 107 140 129 87 101 152 137 167 95 81 99 185 98 179 111 112 85 91 224 135 185 71 132 123 100 127 136 46 221 98 76 80 149 75 116 79 189 112 196 114 61 181 132 233 118 81 63 106 143 134 115 225 32 182 118 41 121 164 172 208 35 128 123 161 
114 177 73 130 78 96 199 70 196 70 116 167 137 53 146 100 155 86 74 132 153 102 128 113 132 82 118 157 214 167 131 141 125 153 81 113 208 190 158 84 112 93 127 150 66 107 70 190 126 110 176 178 96 225 51 183 157 148 66 122 82 181 73 122 96 149 105 132 71 58 220 98 141 87 139 125 196 94 113 147 116 172 118 151 81 117 136 98 95 165 113 97 100 83 115 84 162 100 141 98 
171 220 209 127 87 45 70 84 107 135 103 154 129 165 53 204 166 150 131 126 118 145 147 53 113 63 90 118 66 147 111 200 183 114 136 146 145 151 138 73 86 81 86 96 215 101 138 105 91 121 187 112 177 94 101 134 111 118 136 214 99 163 127 157 139 111 78 190 111 158 172 85 153 154 79 46 162 177 52 134 141 107 164 144 185 199 143 132 118 157 92 158 166 60 72 87 122 169 55 145 
138 155 136 143 109 170 166 175 123 51 177 199 81 79 114 80 91 151 146 145 75 83 69 39 97 78 219 186 108 119 132 142 110 159 146 159 143 146 146 103 83 164 98 147 95 116 128 38 122 111 173 163 96 87 171 167 145 129 161 191 189 156 157 164 140 161 143 17 155 114 32 214 153 119 137 135 197 137 98 34 90 90 145 115 94 95 78 177 190 104 79 85 113 157 144 63 79 130 108 172 
184 157 116 112 140 119 132 22 144 159 110 103 151 99 154 26 103 156 202 86 120 222 133 113 141 221 86 68 93 144 140 143 170 132 145 89 149 171 101 94 111 75 130 75 156 114 162 172 118 162 162 108 109 157 105 155 98 157 123 158 155 168 102 73 151 135 131 87 227 155 47 86 87 151 200 27 229 183 159 181 180 93 163 206 143 41 167 127 96 123 74 110 100 158 150 144 42 142 100 33 
159 202 143 178 103 205 183 89 139 100 181 111 175 214 170 85 195 117 159 82 196 125 129 144 95 123 149 48 92 151 148 136 20 154 93 137 74 147 124 105 58 108 174 130 61 160 200 168 96 123 164 105 160 84 152 146 162 97 82 124 139 143 133 125 137 28 146 141 169 177 70 161 51 164 68 82 131 189 89 197 155 45 97 162 81 176 190 131 161 142 179 118 116 182 186 151 74 181 122 88 
60 114 90 158 169 180 99 169 112 97 101 106 194 72 139 181 127 110 76 152 112 111 168 158 101 98 120 80 135 142 86 78 95 225 58 192 139 150 89 129 127 79 194 113 95 104 149 161 115 217 155 84 65 48 103 148 115 116 166 51 115 89 193 75 89 155 152 98 96 92 89 152 100 192 112 187 64 73 74 171 131 145 144 148 85 127 154 100 134 68 166 85 103 146 173 124 53 95 168 157 
154 93 126 165 116 104 124 151 174 151 62 106 30 66 146 92 52 176 58 142 96 159 137 121 139 92 145 128 142 118 136 133 140 177 145 183 151 106 142 107 132 145 113 157 133 157 93 40 101 91 121 145 137 162 75 120 150 121 77 77 104 140 142 97 180 155 112 164 117 138 181 52 156 106 119 171 100 114 118 166 147 47 90 33 97 192 133 83 53 36 141 167 129 116 122 135 143 57 121 67 
147 35 155 124 145 71 164 129 67 134 157 129 145 210 54 118 88 156 104 96 177 166 73 142 115 59 107 147 81 86 139 136 211 138 85 134 109 159 136 114 152 65 87 147 131 108 116 132 106 155 53 127 106 82 94 147 35 92 157 147 180 191 98 125 185 109 109 129 32 110 110 73 112 164 151 197 59 142 137 65 109 114 100 165 41 104 126 98 127 105 127 112 136 203 185 52 14 155 219 102 
184 121 128 210 153 83 193 163 66 145 158 155 161 154 127 118 118 146 118 84 148 192 173 144 55 125 119 92 194 203 96 91 203 165 182 91 138 85 116 180 160 45 164 129 127 146 65 38 34 164 78 171 132 79 64 163 144 96 106 161 120 150 113 112 75 88 134 138 76 185 165 100 166 186 51 127 131 157 127 145 177 102 136 69 67 156 54 161 47 145 107 127 167 155 103 122 172 99 62 248 
185 125 106 87 108 187 81 169 107 111 117 146 102 164 150 117 113 94 142 111 157 68 95 142 56 99 162 158 37 165 124 107 139 139 49 136 167 136 145 38 193 125 106 101 136 47 115 44 92 130 208 100 111 177 129 54 76 125 119 104 142 158 167 165 125 122 193 114 129 116 119 31 123 111 141 203 203 159 167 142 157 40 109 130 32 150 139 107 122 95 143 122 102 65 143 148 187 153 137 85 
71 138 88 174 182 78 59 169 138 141 141 98 86 137 148 151 112 126 129 103 130 144 142 58 99 76 125 162 63 131 105 147 133 46 124 127 200 94 145 38 171 95 97 215 105 112 18 117 150 120 57 131 141 86 137 118 109 201 96 20 143 116 130 82 149 124 96 182 137 149 113 90 171 146 208 138 188 96 152 117 103 143 197 178 125 93 62 71 109 124 67 173 137 190 84 86 177 140 50 127 
130 147 115 78 99 126 74 99 86 78 136 142 131 40 65 141 153 132 115 112 201 99 149 87 138 182 185 164 117 163 127 145 84 112 142 121 114 107 77 122 134 152 160 208 108 100 184 149 99 153 187 177 81 72 130 68 123 130 125 166 139 163 129 129 88 102 83 83 172 137 168 93 116 201 135 98 98 89 106 32 181 157 123 100 70 158 134 144 148 129 138 111 42 146 120 76 142 136 122 181 
140 114 82 114 123 142 157 163 154 174 139 107 100 154 104 137 140 116 150 94 115 112 93 148 79 161 112 180 83 152 197 123 129 169 62 60 155 164 111 134 146 104 101 150 86 191 179 157 146 114 123 142 170 151 192 119 111 120 148 192 164 150 112 109 147 177 182 213 194 173 38 116 169 168 67 29 185 86 149 71 215 110 162 135 120 79 92 55 132 155 135 187 95 112 166 148 105 106 154 174 
116 146 180 154 143 162 93 94 113 117 130 132 120 125 156 159 116 113 136 176 86 155 82 121 136 156 69 105 137 80 109 113 217 146 162 106 87 129 202 121 88 180 171 159 159 132 114 153 179 39 116 128 155 111 117 95 72 87 149 49 89 102 92 152 175 175 230 120 112 94 90 149 111 79 131 177 147 119 130 203 156 177 89 17 113 113 109 115 202 154 104 86 164 125 172 122 150 163 120 218 
114 130 95 156 164 125 189 40 94 160 212 142 120 142 69 120 157 186 196 126 107 180 163 104 74 38 121 120 116 92 194 158 85 149 111 189 117 72 134 184 86 82 182 60 78 121 121 91 208 97 153 185 69 129 171 160 194 106 106 140 101 133 192 133 148 209 210 150 191 155 129 113 139 158 127 154 173 71 149 132 113 132 135 162 65 119 51 165 95 80 101 183 151 122 51 124 101 133 121 90 
81 171 195 112 138 188 148 119 196 73 128 120 73 107 97 33 143 138 55 154 121 112 121 107 112 80 108 139 117 183 112 226 131 148 74 110 132 106 98 146 216 171 168 137 124 95 69 109 166 163 124 122 144 125 84 103 73 188 95 193 119 210 167 138 178 159 172 180 83 156 166 218 185 58 101 55 89 181 95 92 105 206 166 166 195 73 163 138 158 49 84 157 117 149 109 77 84 95 153 101 
135 129 85 180 67 155 105 138 174 81 104 75 119 188 113 105 140 84 111 136 160 187 129 102 128 124 127 81 131 170 154 82 167 164 146 98 102 71 161 206 162 175 128 40 105 149 172 216 60 143 168 111 131 118 154 104 115 172 33 118 186 133 162 122 141 202 84 195 188 170 78 71 149 169 65 102 39 144 145 73 180 200 71 171 201 115 167 85 151 240 191 166 100 93 183 117 186 164 37 130 
175 143 38 172 186 159 43 40 154 179 191 101 115 111 172 113 74 162 152 97 116 206 123 230 105 115 93 135 92 150 68 128 117 223 152 207 167 126 125 123 132 129 60 154 101 159 111 55 133 124 131 124 100 140 183 108 126 84 136 90 118 74 136 102 181 158 106 137 136 96 131 156 169 117 101 137 180 110 109 106 76 138 170 123 96 160 55 171 150 83 147 144 88 120 99 134 193 114 80 147 
90 47 115 101 150 180 139 93 131 92 181 163 101 119 39 126 120 71 202 139 101 143 192 171 158 158 59 104 128 136 93 121 233 168 163 174 102 130 121 163 56 88 166 163 45 66 151 48 85 90 133 185 140 161 123 131 45 174 59 173 98 145 204 153 126 121 102 119 134 188 72 161 158 186 162 108 93 174 165 221 176 132 172 103 191 80 37 106 118 243 119 147 158 163 130 155 130 144 121 212 
136 227 169 150 165 93 109 182 90 145 140 184 87 126 64 192 113 123 198 142 138 114 126 141 148 112 117 190 124 179 85 155 94 202 57 111 165 112 184 124 127 120 94 109 165 79 66 71 99 100 87 90 139 178 159 108 72 79 75 126 194 201 97 119 142 110 161 121 102 155 30 86 69 91 190 120 155 180 65 132 131 125 165 136 68 195 139 180 127 132 86 97 150 206 181 104 109 110 101 112 
91 100 112 118 120 104 70 108 150 119 97 95 129 53 96 55 107 173 191 100 108 84 104 79 133 95 210 41 188 117 148 113 140 83 51 90 187 136 111 104 149 137 120 128 125 94 143 116 227 143 199 104 137 139 69 186 62 123 152 114 138 148 10 82 112 160 130 132 180 86 90 101 40 152 41 48 123 105 123 110 157 178 133 172 132 212 104 49 57 134 67 180 110 135 119 198 108 122 218 146 
121 156 132 161 122 152 112 87 119 159 153 138 104 109 129 166 72 123 113 118 12 134 176 82 175 110 99 99 127 123 159 102 159 98 96 107 175 157 134 162 160 110 180 97 91 184 122 93 110 57 151 106 92 177 119 142 178 144 168 157 61 124 170 145 206 158 176 109 114 149 144 138 35 149 131 179 147 132 156 118 159 40 148 103 199 122 165 111 151 75 83 41 154 98 163 87 104 101 91 151 
147 100 98 151 79 77 179 227 143 114 82 72 152 161 106 89 100 132 185 175 138 146 113 128 167 88 132 109 140 203 118 120 116 124 159 123 142 193 56 189 140 192 224 99 153 66 93 71 153 216 200 113 222 119 190 97 190 65 74 180 55 55 171 93 90 185 119 100 108 133 163 64 120 120 172 85 115 157 137 203 210 136 138 181 91 161 70 155 116 189 44 59 47 94 103 88 110 124 92 80 
125 76 133 136 135 89 106 119 92 152 149 128 90 98 116 147 126 63 103 228 165 101 145 149 148 153 145 78 144 101 157 161 135 135 181 222 176 136 133 48 90 96 141 145 171 174 100 117 79 113 129 172 86 129 141 167 188 99 178 109 116 206 201 83 94 76 136 110 139 120 166 92 104 147 168 178 39 182 108 104 112 121 126 200 126 144 109 132 136 153 130 119 154 141 70 172 104 118 175 125 
168 135 126 101 107 87 88 110 180 124 104 122 99 170 149 108 46 133 145 186 88 144 96 93 133 156 81 91 126 45 151 133 117 150 119 157 121 90 242 143 170 28 73 147 148 70 228 219 146 177 144 110 177 148 120 185 158 158 144 17 148 85 103 149 141 122 152 47 111 133 145 86 164 192 121 139 70 164 177 141 117 178 166 77 105 140 71 107 177 184 179 158 119 160 103 149 92 116 137 90 
122 87 57 150 174 126 234 152 103 203 93 124 85 115 100 119 160 134 88 89 155 106 85 112 123 146 148 220 104 133 104 99 100 163 96 107 135 86 124 102 73 113 204 153 114 146 182 160 113 83 150 128 222 156 48 104 21 124 138 159 174 121 103 119 92 166 144 110 127 81 84 132 138 141 176 113 83 149 79 162 134 7 215 152 162 163 134 139 82 158 155 185 127 94 107 158 142 78 192 179 
210 197 146 147 118 88 117 100 158 118 168 134 153 83 156 115 99 106 67 103 97 116 171 46 105 58 106 105 13 164 98 167 19 168 119 110 210 43 141 134 192 79 107 107 150 130 96 158 177 137 104 132 115 73 147 59 152 211 118 54 94 157 186 62 174 129 72 139 191 203 147 172 88 60 227 122 164 118 139 122 128 100 155 109 215 159 38 164 190 147 96 156 139 120 120 121 127 81 162 140 
168 155 135 65 158 138 161 110 135 154 109 189 75 86 140 161 183 97 77 65 79 95 163 35 144 66 95 102 136 194 164 149 147 141 133 206 133 124 219 46 117 136 164 126 94 156 141 145 148 213 109 47 97 100 179 86 114 165 74 91 131 131 109 100 185 131 111 144 35 98 197 206 121 96 169 102 131 97 141 106 91 90 135 173 204 187 73 116 98 135 219 77 89 58 126 94 104 78 211 123 
161 103 154 71 154 112 105 191 174 42 160 151 151 162 220 170 103 148 166 148 146 144 126 99 117 195 139 131 143 107 184 76 106 121 114 124 186 162 123 66 102 153 139 166 146 121 122 98 73 87 180 99 117 140 121 42 124 82 93 85 140 144 218 84 97 91 57 117 130 190 58 162 165 73 119 83 165 132 91 107 150 78 136 165 85 114 136 145 134 99 114 185 102 140 177 38 150 83 164 161 
129 148 104 95 76 114 107 67 170 164 134 109 148 110 111 161 105 89 122 153 83 122 188 191 107 178 110 59 103 182 186 115 119 111 123 52 121 98 197 193 178 136 148 133 171 157 164 153 170 98 134 161 159 128 173 104 133 78 158 80 141 84 143 155 156 166 102 62 83 223 137 121 145 56 159 127 105 113 150 113 142 105 166 183 112 190 102 152 210 120 95 179 152 59 114 114 157 95 170 91 
151 131 85 129 144 189 138 154 90 72 134 102 181 143 136 61 211 163 35 147 148 64 92 131 93 211 142 101 101 123 136 146 163 198 94 177 88 183 128 198 138 212 173 171 103 73 112 37 137 164 106 149 164 72 120 141 78 123 100 111 91 115 67 118 126 145 116 150 94 141 167 123 150 83 30 125 77 183 163 100 89 198 215 116 118 100 215 101 141 137 92 102 166 113 223 42 54 227 144 57 
67 135 123 134 124 152 122 75 128 167 164 118 189 151 107 120 124 118 177 210 120 139 115 172 152 120 144 51 124 89 45 55 67 186 170 199 133 164 71 153 78 191 103 132 128 136 70 116 116 183 135 139 168 60 164 149 82 114 52 153 135 105 224 173 173 221 201 44 160 117 120 143 113 156 121 162 189 166 148 141 175 100 95 97 131 62 59 54 91 119 143 143 216 29 123 164 172 164 194 187 
105 131 103 134 172 147 149 20 166 142 86 169 37 84 96 160 131 162 101 128 106 206 68 95 185 107 96 96 79 81 138 173 137 135 143 129 155 144 120 159 162 172 192 63 192 50 101 166 162 143 113 190 101 193 139 89 127 230 95 165 112 65 164 32 180 157 141 123 172 182 141 121 132 106 43 146 144 122 113 36 164 124 192 40 138 132 56 114 232 119 213 43 124 197 154 159 159 51 176 73 
99 145 188 164 147 159 138 179 104 114 56 137 195 95 48 92 31 129 108 105 118 116 149 59 162 61 124 130 101 98 179 173 182 126 160 132 65 144 197 55 133 187 124 119 133 98 140 189 118 178 141 111 161 68 103 115 121 197 146 112 178 104 210 57 71 133 72 154 75 63 183 99 173 196 103 159 70 164 152 106 135 171 110 60 135 158 115 115 116 124 127 211 123 113 115 145 147 151 99 180 
225 206 137 80 103 101 116 102 141 143 201 93 111 191 162 189 141 134 98 149 132 144 8 182 66 210 102 133 156 242 159 221 142 150 88 54 96 83 170 64 112 191 51 90 52 108 91 130 143 126 51 92 95 46 150 91 164 97 250 152 97 69 73 99 115 50 162 109 162 37 131 108 146 159 217 156 110 108 50 77 45 131 125 144 128 108 155 117 86 191 93 160 126 101 139 94 140 109 110 175 
130 100 176 122 68 153 160 174 69 193 98 104 77 142 60 43 179 161 100 152 128 120 117 131 51 121 154 103 104 160 117 169 117 171 48 145 134 141 149 100 170 117 119 70 140 103 109 182 73 131 110 128 153 36 183 161 171 175 233 172 128 150 134 199 171 127 71 172 89 78 138 106 102 117 115 117 170 153 131 61 44 162 124 177 91 58 191 125 178 109 143 114 93 98 141 96 94 233 132 159 
198 127 152 136 104 152 39 39 72 87 133 148 168 104 93 161 122 105 110 112 27 144 154 143 98 47 137 170 151 216 107 155 159 175 168 101 192 100 204 86 112 143 179 170 72 201 129 165 72 117 119 57 21 125 107 176 119 205 62 94 209 129 135 117 161 89 107 29 113 126 103 78 124 178 177 121 132 118 97 120 108 146 79 82 148 183 122 195 71 164 20 159 24 55 154 172 108 74 110 70 
112 91 178 160 128 142 204 185 99 150 208 28 162 107 48 132 100 72 166 56 103 124 84 152 118 163 184 57 108 160 103 133 40 66 132 104 189 82 119 125 133 53 149 112 113 160 131 75 207 113 170 115 95 153 116 172 25 88 117 73 183 36 155 158 97 107 86 80 183 110 126 108 110 91 133 186 149 201 105 176 128 143 110 180 95 180 82 141 125 129 151 92 212 125 153 97 125 75 184 128 
204 135 45 124 130 122 175 96 67 150 175 132 159 172 101 127 119 100 76 154 102 75 157 152 113 182 137 111 126 102 164 94 97 109 68 156 156 225 160 115 214 87 131 133 132 187 139 65 158 85 118 203 112 75 214 137 160 158 168 157 103 91 131 172 40 63 144 179 151 71 120 209 167 105 138 200 131 165 154 127 131 77 107 158 160 118 116 165 80 107 193 163 200 135 49 106 73 158 58 141 
