P2
100 100
255
173 183 69 146 26 87 124 142 40 140 99 182 149 191 137 62 80 147 145 174 186 115 65 128 85 168 15 146 178 96 180 77 94 127 111 120 34 128 129 131 46 21 145 149 174 122 159 145 107 76 118 130 70 142 147 49 98 69 164 203 184 99 54 101 144 104 61 85 126 169 153 162 52 144 60 133 148 196 124 110 117 94 38 114 83 95 130 115 162 161 110 180 106 92 87 112 87 86 121 122 
142 152 116 141 106 133 150 195 83 118 31 139 107 164 105 188 149 138 166 170 77 118 142 144 160 147 93 150 156 90 106 89 103 116 91 33 124 151 166 174 193 86 88 122 159 115 97 76 90 197 181 75 124 107 100 184 223 126 151 55 177 30 161 179 149 116 141 136 84 98 168 173 142 103 177 44 132 130 28 161 177 69 52 135 70 82 80 146 75 145 91 92 43 185 109 116 94 106 86 112 
153 155 144 129 85 197 124 95 119 180 236 170 216 200 73 118 133 152 167 99 173 208 64 153 205 91 116 161 125 159 107 122 90 74 28 168 184 132 71 182 146 34 41 52 144 100 143 114 140 102 69 154 98 123 88 106 115 155 176 151 150 113 90 100 156 136 105 214 105 158 125 183 118 107 179 191 203 122 152 160 81 95 200 87 131 204 206 69 178 131 157 242 148 139 53 195 127 120 163 150 
151 159 122 185 129 92 114 177 86 115 114 179 163 62 146 197 159 103 174 203 94 185 192 174 192 134 170 190 157 77 112 45 105 53 119 63 201 101 158 160 71 161 90 142 179 64 65 78 63 77 118 126 36 103 158 142 99 66 196 107 72 137 66 161 107 155 238 142 130 110 70 137 123 158 154 111 39 117 154 209 127 111 150 145 86 184 144 32 49 138 149 113 173 168 114 114 199 193 93 68 
151 162 38 118 57 162 79 156 90 108 125 95 135 126 116 92 79 98 174 174 68 127 81 86 99 69 99 62 110 92 87 157 76 130 134 64 142 75 121 132 152 213 132 74 84 109 122 192 151 76 131 88 162 158 126 137 187 135 213 22 134 79 174 165 40 107 221 173 129 225 154 173 118 104 154 142 128 114 99 152 132 64 114 81 63 126 199 87 120 173 35 174 141 188 172 108 124 114 179 153 
175 106 209 163 68 110 189 109 105 133 207 71 173 67 119 164 51 141 21 165 70 92 83 128 185 143 192 167 112 105 116 223 165 189 143 111 154 96 87 99 124 152 195 153 189 124 120 127 178 75 84 139 159 104 125 166 215 99 116 180 156 148 65 119 172 111 49 199 68 62 69 105 151 106 160 104 138 146 138 97 117 80 116 166 120 111 136 124 154 88 51 65 128 157 139 147 179 161 124 94 
173 83 139 103 162 73 167 98 107 67 188 121 180 124 154 132 96 200 141 99 152 93 106 166 153 165 130 153 77 125 98 121 92 125 122 153 140 89 102 124 183 61 92 138 57 162 149 84 127 160 178 62 65 137 135 87 131 114 126 94 46 159 119 171 149 50 143 88 157 63 84 171 47 99 104 107 86 169 104 91 134 193 153 241 112 107 128 173 142 152 81 190 107 92 136 147 126 75 196 63 
167 126 188 170 181 139 96 121 151 125 175 97 127 172 168 56 134 80 159 133 109 148 122 123 138 115 67 114 217 219 121 59 182 162 116 181 153 224 123 127 126 54 213 72 147 154 137 120 147 125 147 92 139 166 141 126 93 121 146 102 92 89 57 164 92 112 127 175 231 97 139 137 132 173 153 150 110 125 220 63 205 195 142 105 242 96 148 80 99 109 51 174 132 111 161 166 151 154 145 99 
186 174 32 67 120 29 52 151 93 111 60 64 156 68 69 146 177 58 146 120 190 124 179 186 191 94 171 181 115 77 146 137 175 167 146 179 21 143 147 159 142 94 117 133 146 144 100 121 92 124 134 137 99 160 132 82 117 84 154 126 169 72 135 94 149 159 81 64 140 61 121 118 105 164 133 69 143 222 203 99 122 160 127 46 128 164 213 171 113 86 96 98 83 177 149 143 232 235 104 143 
70 220 72 119 116 147 59 104 135 126 106 158 63 56 93 144 147 109 127 103 83 161 96 131 212 115 147 191 69 183 125 139 195 95 86 144 96 143 162 164 154 110 208 115 115 164 109 175 101 171 155 186 146 161 100 136 123 116 69 155 158 191 172 162 110 102 129 199 110 215 151 165 76 153 141 79 160 214 139 162 56 76 110 139 102 159 90 135 217 213 131 153 86 133 57 155 102 179 80 240 
145 138 76 112 136 98 118 171 214 186 53 118 32 121 210 120 129 122 137 122 101 67 123 165 65 115 127 132 182 149 197 60 128 87 125 143 151 134 148 132 100 77 219 157 148 118 68 145 185 178 50 123 201 215 84 93 94 183 88 139 140 150 57 140 129 95 124 176 74 60 80 222 176 111 175 154 95 112 131 72 150 164 129 205 142 57 162 130 155 185 85 175 175 73 131 100 127 117 125 136 
98 108 124 126 151 120 131 189 127 177 117 86 190 48 77 109 74 113 121 154 167 152 111 112 56 125 90 146 73 131 128 123 58 190 95 154 164 125 192 156 151 167 130 177 161 141 114 144 130 87 92 133 189 187 125 98 143 184 158 78 131 123 93 123 123 123 99 205 56 131 194 185 134 156 166 129 117 129 98 163 187 99 217 246 94 115 85 120 137 120 78 142 178 166 180 136 80 111 71 124 
102 145 214 147 81 160 165 148 46 194 149 118 105 199 131 140 81 214 222 152 90 112 114 174 75 92 99 159 134 132 112 97 151 108 129 153 168 116 174 84 135 64 117 123 75 211 96 139 85 168 128 96 146 114 165 205 205 150 158 138 159 182 98 190 123 132 108 148 91 77 182 91 87 63 145 90 193 88 162 156 79 141 168 120 145 53 134 202 180 122 128 181 142 200 77 163 72 168 172 146 
129 60 165 114 58 141 110 60 140 234 159 120 123 61 195 92 201 120 127 108 141 115 167 157 105 88 110 150 193 199 229 106 122 116 156 182 176 143 148 188 173 127 174 205 101 158 193 107 113 108 59 179 83 165 166 78 160 84 99 121 99 64 190 117 81 89 109 121 115 106 69 57 69 112 217 212 115 169 148 86 195 110 101 118 143 58 143 151 127 113 61 117 95 93 145 80 110 161 190 145 
175 109 206 109 139 202 111 114 197 117 151 139 71 118 205 83 142 113 161 206 164 137 204 62 159 100 135 40 113 156 208 118 69 88 168 96 109 113 169 131 101 66 88 198 125 97 120 120 163 97 155 133 82 152 136 168 125 180 154 165 95 145 91 133 166 175 95 105 169 112 141 91 66 94 186 154 79 152 89 104 132 137 136 95 95 140 214 136 71 163 113 119 29 85 106 99 144 176 132 57 
126 131 192 168 138 109 123 89 64 138 221 50 85 90 88 97 134 200 69 102 107 159 174 65 210 73 188 113 121 135 133 150 116 215 98 112 100 84 117 107 52 77 179 67 128 103 93 189 120 139 159 129 117 86 100 210 226 120 64 120 176 147 184 140 91 174 142 116 190 115 108 163 162 119 150 84 81 149 110 71 109 230 226 145 173 142 147 138 185 180 168 106 93 143 114 99 92 89 128 162 
57 118 110 128 196 76 130 45 66 160 181 136 123 109 143 148 84 119 87 85 167 167 80 170 70 160 159 162 89 114 113 120 92 155 128 110 82 140 129 167 178 89 77 95 127 124 84 43 88 138 116 120 174 50 97 138 167 178 94 127 108 189 184 182 37 64 138 153 140 78 75 74 147 83 149 62 112 103 59 108 203 152 222 83 74 55 106 105 147 124 185 125 155 114 74 160 155 92 34 97 
139 75 65 99 195 168 135 101 106 159 74 195 89 211 160 151 81 150 142 164 143 152 138 100 65 91 192 150 123 56 73 115 118 173 123 119 49 99 140 146 127 112 162 74 144 92 99 169 149 188 104 141 90 189 97 158 80 57 43 128 187 117 45 73 131 28 97 133 120 175 167 116 111 106 48 134 109 95 69 42 147 85 101 137 113 101 188 96 167 161 78 120 178 172 140 169 69 119 130 195 
153 69 95 82 158 204 76 112 125 107 124 101 189 58 59 166 134 141 179 132 154 160 101 165 94 53 64 108 207 141 118 164 150 130 146 186 135 104 181 59 152 184 137 105 219 165 113 165 118 43 172 160 65 74 138 131 123 71 135 146 140 189 82 69 149 147 92 35 139 175 101 56 130 137 138 119 77 69 128 82 94 58 164 105 98 193 133 70 198 228 153 104 90 87 105 134 121 40 90 111 
205 90 116 89 55 95 108 141 93 87 42 166 207 126 79 180 111 142 213 162 164 205 168 119 84 104 128 86 137 133 234 117 89 115 147 159 132 174 115 200 173 185 174 154 129 148 105 156 171 168 181 160 193 125 78 93 153 182 104 124 149 190 106 140 94 99 102 149 111 138 112 177 175 110 150 104 34 167 138 86 51 140 157 63 90 145 75 116 104 75 98 171 141 137 154 127 81 69 185 122 
111 143 124 123 187 26 95 143 89 149 64 144 189 135 111 130 76 55 196 137 162 142 88 188 131 143 129 130 155 199 76 119 152 145 111 138 62 62 120 124 114 117 82 105 131 126 117 155 124 124 201 150 87 102 221 27 146 117 174 106 135 121 114 45 97 175 54 106 149 121 161 157 148 137 173 137 96 56 140 180 126 80 108 188 175 93 89 193 95 80 133 176 107 153 111 93 95 89 154 215 
91 115 110 199 176 137 96 154 60 117 153 130 69 66 170 123 161 121 94 198 152 102 146 172 116 78 116 88 77 98 147 114 194 132 120 41 192 111 149 177 106 147 170 78 128 159 118 80 186 115 131 143 129 90 100 145 172 112 106 203 174 169 188 187 45 107 126 60 130 130 110 102 122 57 127 207 103 80 83 140 101 168 110 121 168 93 135 124 165 173 176 152 99 135 118 145 85 51 156 135 
83 133 112 206 130 163 99 111 121 138 183 152 131 95 173 161 106 86 188 83 215 178 89 234 158 138 86 164 122 141 98 191 45 139 189 172 144 149 125 78 154 176 59 110 104 139 180 170 165 72 169 126 58 146 203 83 119 170 157 60 87 155 132 203 74 157 124 103 60 111 204 148 72 106 106 131 166 89 108 134 122 149 218 121 69 148 128 90 132 95 105 86 102 38 55 133 160 112 144 119 
131 183 140 140 77 111 88 183 72 89 191 75 39 130 188 48 68 148 115 104 92 110 160 157 204 124 101 119 120 140 151 120 152 77 130 134 95 185 100 38 159 113 115 124 54 166 113 169 168 138 138 185 71 115 150 165 80 96 128 151 173 145 101 101 144 151 121 143 113 158 205 121 47 214 132 174 84 60 148 168 216 104 127 79 125 160 178 139 197 94 109 117 102 158 81 124 141 131 83 172 
97 89 171 78 200 148 136 87 171 120 169 160 68 19 65 108 181 93 155 63 185 118 124 115 148 177 184 139 196 160 199 129 170 99 52 82 180 106 129 76 157 138 107 164 168 117 168 75 169 69 120 201 100 174 89 118 36 36 136 125 81 175 102 142 89 30 98 178 168 110 140 137 130 155 115 97 85 84 109 122 97 99 170 161 60 112 87 97 205 114 126 80 118 89 109 169 111 161 183 16 
164 146 131 169 202 101 197 147 93 75 156 119 123 11 175 102 184 127 176 124 173 149 133 163 135 149 125 26 106 172 81 90 154 164 147 129 115 146 105 123 115 169 169 64 132 140 188 155 127 196 119 124 85 53 107 97 173 163 148 167 48 90 147 101 192 149 99 110 141 59 66 66 181 109 171 109 148 172 104 209 187 99 136 68 154 116 76 156 127 120 82 233 184 102 95 181 173 141 90 194 
77 96 183 97 103 165 128 128 150 102 172 168 188 189 178 79 92 101 36 168 135 111 194 52 119 165 147 170 160 114 47 47 59 77 65 41 101 68 125 28 52 70 47 203 119 90 137 136 104 215 143 158 84 148 77 231 128 89 143 95 166 148 150 88 81 96 59 148 82 95 184 95 170 138 114 67 180 92 87 108 115 210 81 136 156 43 168 134 112 201 194 198 176 111 106 114 115 51 193 206 
97 129 112 140 122 133 146 218 116 90 157 78 134 72 87 133 95 23 54 139 156 46 229 87 118 72 126 187 212 159 60 174 205 181 106 164 104 193 107 160 107 140 67 124 143 116 102 74 89 151 133 69 155 173 96 142 156 98 76 204 131 143 173 140 97 90 70 164 159 94 86 168 132 108 104 146 97 101 139 79 57 177 184 132 149 89 121 119 114 125 137 118 207 34 209 97 78 107 96 125 
141 169 132 150 51 98 110 112 100 180 84 134 109 150 76 86 101 121 88 63 189 59 38 111 138 167 139 156 89 182 180 135 150 126 126 129 117 106 93 125 118 155 105 132 206 46 180 152 153 171 137 176 106 123 102 173 160 109 140 76 101 196 154 118 122 156 199 86 128 147 179 209 68 182 101 126 61 176 127 94 127 147 148 179 61 53 159 139 172 92 35 94 123 132 203 152 147 127 71 127 
150 113 156 175 33 106 188 121 137 153 95 82 150 56 114 116 165 95 124 97 89 179 176 72 100 162 171 155 148 56 185 87 146 211 101 85 90 149 99 92 94 176 88 168 129 126 81 137 171 173 134 109 135 100 162 141 143 132 149 180 153 151 191 93 37 30 173 43 162 160 152 142 107 39 138 140 89 132 159 77 146 237 211 112 152 76 180 214 125 127 112 93 182 97 125 69 99 222 116 132 
107 122 204 171 135 198 113 190 159 189 58 151 195 133 122 120 179 140 75 85 97 72 163 68 139 141 58 171 129 53 157 115 113 91 118 97 188 172 142 169 180 171 120 89 41 147 91 195 212 158 80 204 61 153 149 72 112 245 66 110 95 125 171 142 206 140 134 150 140 149 188 181 162 136 142 131 93 167 129 98 161 105 193 110 104 141 148 182 126 84 196 97 108 111 138 112 101 198 127 88 
128 120 181 128 123 101 162 143 177 159 104 113 192 68 205 88 88 88 121 128 138 164 126 201 141 194 130 98 111 114 154 115 65 106 148 63 90 172 139 164 66 53 76 93 54 122 177 142 156 90 113 121 128 103 229 184 100 183 124 63 65 99 134 129 86 153 92 85 71 181 81 129 215 89 98 175 80 153 135 121 107 181 141 63 191 91 133 214 144 93 38 80 125 138 132 128 112 73 172 148 
118 212 146 159 201 165 131 178 235 37 107 83 146 83 169 244 178 179 130 63 164 166 108 198 148 97 127 108 168 90 189 162 84 123 112 71 222 193 77 116 185 116 127 65 130 109 127 188 112 90 116 103 153 103 166 134 147 35 172 94 100 149 85 155 101 105 109 188 172 81 125 105 188 149 180 166 116 109 183 103 76 87 85 102 136 118 65 131 117 230 138 120 152 111 87 124 71 117 70 166 
90 139 112 200 182 96 167 82 104 182 177 131 123 135 82 146 173 130 110 240 120 61 159 110 49 160 162 145 114 153 111 107 105 66 78 153 62 89 115 144 111 168 165 24 83 175 88 149 74 180 66 140 78 108 123 123 176 102 88 162 158 110 48 66 67 156 153 155 114 191 149 99 130 208 99 198 93 179 108 129 137 67 164 173 60 99 160 129 66 85 31 95 136 175 138 127 54 198 126 154 
104 77 146 69 155 161 175 166 92 111 140 107 147 31 183 142 118 101 147 145 111 131 87 130 163 109 128 49 135 60 225 157 114 128 113 127 75 149 108 34 73 142 130 116 112 91 152 115 85 162 77 141 148 91 56 207 155 88 178 157 149 152 142 105 158 102 89 188 87 159 129 178 82 159 132 147 61 187 102 160 118 120 117 134 165 115 73 97 152 113 109 137 180 199 52 123 129 148 88 189 
113 62 77 66 115 120 158 106 205 105 37 45 194 123 70 57 69 51 144 87 153 189 197 114 129 135 192 179 149 55 130 202 153 171 115 123 103 141 189 85 134 166 105 52 179 118 189 127 31 145 110 80 116 138 200 111 91 139 115 123 103 39 222 88 82 220 85 173 128 203 165 100 145 177 197 66 68 199 141 146 194 43 162 115 192 79 100 228 145 129 97 111 109 159 46 120 144 124 69 163 
125 87 86 160 157 40 173 144 71 153 131 78 129 156 95 92 186 220 110 114 149 124 60 139 159 150 115 99 129 58 89 61 133 115 125 76 137 147 84 160 175 64 138 134 159 146 115 116 58 101 112 86 156 125 119 79 175 157 130 117 186 214 178 143 93 161 49 107 156 112 136 153 156 87 176 168 142 148 108 117 72 103 171 121 197 170 73 186 129 138 97 158 68 166 83 189 96 155 139 153 
148 77 99 84 110 179 128 129 103 73 37 127 148 77 137 100 209 199 171 139 93 47 168 127 151 136 53 179 131 171 179 157 129 167 180 173 148 137 67 117 111 149 120 167 203 107 189 86 141 107 136 174 127 139 68 137 110 25 173 62 157 146 95 138 140 164 147 153 108 195 64 68 106 118 76 159 156 108 198 83 118 50 61 143 95 147 168 153 78 182 190 90 109 141 133 119 68 125 117 67 
151 98 144 101 127 94 206 163 172 119 71 74 129 59 57 98 117 89 201 74 80 84 120 150 162 140 91 143 149 104 175 66 143 68 150 109 105 152 184 85 157 99 185 144 83 153 115 82 148 98 168 137 140 175 193 71 79 158 169 141 231 87 114 147 114 108 109 63 183 158 128 112 122 110 192 80 206 158 128 125 205 179 83 185 181 164 210 101 167 137 109 171 199 88 80 94 29 114 226 114 
92 176 138 156 111 163 141 181 169 88 82 123 56 77 135 209 159 204 112 114 79 153 110 98 69 130 138 205 104 149 154 156 63 89 112 112 126 127 135 72 117 169 114 136 148 178 114 123 83 174 70 171 100 108 147 70 85 140 93 145 192 150 188 40 86 77 133 124 92 174 121 183 109 101 172 91 157 90 32 108 48 174 69 131 89 172 125 77 171 133 180 135 135 98 204 120 137 113 80 123 
47 104 186 104 99 162 100 107 165 97 125 66 82 157 157 124 118 194 138 101 31 206 90 181 134 85 123 169 111 151 196 168 24 91 149 92 123 100 147 142 89 157 117 133 150 131 71 166 79 86 150 122 185 125 84 159 193 178 108 113 202 77 56 98 100 112 194 94 172 153 118 159 94 179 148 65 98 188 179 166 72 124 143 106 53 49 176 118 172 120 86 187 117 164 189 202 132 71 163 88 
156 110 162 90 111 148 157 87 121 121 151 150 171 135 165 172 14 133 83 107 130 120 102 191 129 99 62 187 111 94 169 189 106 145 227 84 169 195 139 188 152 53 189 41 153 138 115 150 124 157 26 110 145 60 130 140 185 92 171 117 126 172 119 95 102 93 152 169 127 140 106 199 97 80 131 132 63 117 118 92 133 146 49 89 79 127 164 156 84 158 93 51 164 124 84 179 83 93 161 168 
62 174 89 162 110 146 60 106 187 132 163 160 66 189 174 82 119 92 90 221 192 123 140 64 118 94 114 140 181 124 56 133 179 154 39 181 116 82 132 97 124 134 147 176 132 96 96 207 131 103 206 163 105 75 65 193 131 161 167 111 118 112 101 95 176 203 126 43 166 201 120 100 184 133 146 123 98 126 165 167 185 53 107 97 190 126 146 92 118 111 97 139 196 90 95 87 141 65 205 114 
73 135 136 121 162 70 159 160 177 30 104 83 164 206 115 96 94 106 71 174 95 87 117 61 198 101 116 146 99 96 85 98 94 106 97 169 147 144 151 177 81 65 177 71 121 109 208 153 140 82 110 115 67 110 138 99 161 159 135 100 173 138 101 171 132 115 120 155 119 90 104 158 90 156 93 192 135 69 142 163 152 105 78 158 200 133 163 117 155 106 142 68 132 79 72 179 62 163 136 141 
156 195 131 144 86 196 114 103 124 85 192 141 149 134 119 151 30 117 104 66 120 79 94 125 136 126 164 194 149 164 53 147 244 135 125 194 171 95 183 86 192 139 182 85 128 113 76 82 137 171 147 98 103 86 93 149 139 128 100 170 85 187 85 155 103 134 55 73 43 122 133 101 102 96 119 117 146 104 118 82 140 126 138 139 51 96 88 186 166 102 98 213 127 98 135 153 99 65 73 102 
72 43 108 149 62 160 186 124 53 79 85 38 124 87 111 178 161 195 151 170 174 139 209 171 81 151 171 172 159 141 131 179 92 118 127 75 143 110 155 136 56 98 154 82 51 85 129 155 95 89 157 132 134 109 60 139 98 75 142 153 81 119 174 153 167 147 135 144 180 108 144 127 142 199 114 111 77 123 96 188 147 108 166 129 163 93 212 128 69 80 123 167 201 158 121 160 113 119 170 91 
143 119 174 166 100 160 199 82 169 70 128 166 105 117 186 59 117 49 151 90 134 68 194 100 94 206 202 111 126 47 116 103 151 26 123 199 116 165 141 120 149 154 133 152 72 101 92 152 126 127 111 132 62 158 200 119 133 131 147 160 121 35 150 195 109 154 55 64 101 35 149 116 67 147 32 116 107 158 119 206 148 34 213 38 164 180 82 101 105 111 39 148 149 130 31 138 109 119 180 137 
183 71 108 101 133 149 158 140 108 125 191 173 163 117 131 174 109 90 106 74 75 207 155 142 94 125 197 102 66 164 123 104 69 136 199 71 50 181 212 126 140 79 105 61 71 101 95 90 136 162 149 63 135 54 95 147 141 87 156 98 177 129 181 60 188 191 156 95 167 126 90 130 101 143 137 123 124 116 150 120 127 194 162 60 124 203 194 62 184 171 132 76 159 152 66 130 172 209 115 94 
61 126 147 124 187 174 150 156 144 154 99 165 100 101 34 113 81 96 162 100 113 158 178 118 188 76 143 95 132 85 40 143 199 169 82 153 140 75 89 150 130 102 100 129 141 95 155 104 143 128 27 123 87 140 179 197 58 129 91 85 112 176 87 58 104 135 116 97 46 127 60 78 136 101 137 121 166 144 160 172 116 195 141 100 137 120 202 112 35 171 165 141 99 187 89 96 141 199 85 196 
142 170 167 94 117 174 83 223 112 140 93 191 80 91 190 155 135 173 102 195 147 106 74 68 175 148 190 75 123 157 153 122 85 26 60 159 168 51 117 142 90 113 154 92 95 128 199 162 134 152 140 103 49 205 112 132 133 212 70 32 138 133 118 198 167 144 138 73 120 193 114 44 179 100 73 128 89 149 129 221 132 122 128 204 130 171 37 107 79 186 103 90 112 72 100 82 89 104 125 133 
111 176 72 163 162 78 179 189 97 204 76 88 135 195 94 148 150 117 176 123 67 118 52 152 190 179 129 91 160 181 111 134 81 204 54 53 130 129 62 154 154 218 110 158 139 88 68 108 63 115 179 146 185 140 171 153 181 32 209 67 88 161 75 127 116 72 139 119 91 108 204 108 143 120 80 51 161 126 208 80 134 50 170 163 164 198 76 98 128 185 184 128 163 94 97 136 41 70 136 44 
131 84 137 99 107 107 155 179 64 171 140 87 170 152 122 153 71 108 107 104 61 84 158 138 166 171 158 111 103 82 142 111 76 126 128 101 175 217 148 88 172 106 146 174 107 125 151 84 115 144 128 146 76 162 140 49 111 89 96 62 106 140 86 38 60 99 168 131 157 129 217 173 91 211 118 67 120 102 45 95 101 121 186 180 71 41 109 93 104 148 88 141 131 43 183 22 115 77 52 117 
45 85 128 148 100 133 192 75 116 149 166 129 105 101 74 183 111 154 169 99 121 191 182 145 37 94 142 89 129 141 196 136 94 111 190 127 135 122 97 155 133 126 97 132 123 170 151 75 133 83 101 115 89 107 189 89 114 115 113 101 129 63 128 147 226 195 131 174 155 127 141 32 145 163 98 167 32 76 54 106 91 56 161 83 99 104 190 229 106 119 52 78 177 61 148 118 107 118 135 140 
131 127 179 120 114 121 113 193 113 182 211 151 211 139 143 144 80 90 146 25 109 159 74 112 87 56 154 99 208 60 122 122 106 85 100 109 98 109 24 65 56 102 110 121 103 83 71 128 93 159 85 52 78 141 97 65 216 71 101 231 90 176 181 146 93 96 118 192 68 133 160 104 132 104 91 128 161 174 113 133 126 74 126 87 206 70 121 189 133 88 136 96 138 133 144 217 178 109 91 146 
176 88 62 205 29 46 201 156 112 153 131 228 172 94 78 166 107 78 91 49 108 136 118 136 11 53 142 150 128 93 114 154 124 192 186 106 99 154 144 134 116 111 47 121 105 138 191 148 23 168 191 52 137 170 191 176 155 162 152 216 141 232 133 106 174 69 178 88 108 153 218 65 134 178 113 68 128 162 96 84 192 129 98 73 127 102 133 130 78 92 128 37 97 88 144 158 80 84 108 108 
41 112 131 151 129 108 154 144 115 116 115 138 121 79 214 157 132 87 76 169 139 215 112 96 143 88 108 150 129 83 72 117 120 141 92 147 144 165 140 141 119 59 93 146 117 133 83 184 144 154 114 141 144 99 174 185 65 151 78 189 143 45 49 214 119 157 48 27 111 225 79 162 87 219 90 200 160 164 160 98 171 203 93 104 133 102 186 147 118 82 96 126 237 94 128 138 104 135 54 143 
70 179 136 142 131 170 205 150 69 54 60 133 63 136 158 47 96 119 202 157 110 182 116 56 97 147 135 164 102 22 197 175 173 175 118 138 136 87 42 191 129 138 56 167 162 108 100 176 128 100 158 117 197 43 110 110 125 156 93 150 196 118 91 220 165 105 183 166 121 162 142 125 144 173 180 141 87 134 91 104 129 213 164 72 124 90 153 177 85 172 165 172 190 120 108 146 93 215 84 145 
182 68 102 108 132 178 129 146 69 162 153 158 112 138 163 178 75 187 138 94 151 105 107 112 102 114 125 94 160 125 209 129 126 163 134 93 118 82 133 69 200 154 124 146 109 219 123 84 46 132 149 162 212 237 92 147 131 179 66 145 187 99 113 144 75 113 171 75 92 150 133 207 136 77 134 139 174 146 80 158 62 208 156 81 126 150 135 182 128 163 146 104 100 140 69 169 93 158 212 188 
41 129 91 138 198 66 213 83 149 131 153 171 50 153 104 114 59 133 117 119 76 62 143 151 151 82 153 20 178 94 76 200 150 99 136 192 183 113 147 149 94 117 156 140 155 156 53 215 90 172 40 178 100 200 97 120 113 149 136 64 174 145 130 122 57 169 190 65 196 186 54 100 140 111 125 132 202 113 78 188 155 77 72 194 131 116 158 168 94 127 90 134 127 147 108 131 94 159 85 180 
222 103 85 143 58 92 96 138 147 55 118 214 197 116 121 173 111 154 128 187 103 157 192 104 69 175 72 184 102 119 151 82 110 129 130 54 213 150 188 210 210 134 59 105 48 94 113 183 113 165 149 183 111 158 118 181 107 49 116 186 122 130 179 54 104 155 74 66 98 186 84 81 158 210 108 137 159 172 94 91 43 148 180 161 239 138 141 111 102 133 142 88 110 127 126 128 107 97 143 205 
193 82 148 130 82 82 164 142 125 160 207 53 166 133 108 142 180 109 133 189 99 35 117 101 149 166 106 177 70 188 146 180 90 106 155 64 174 140 140 205 209 115 102 83 131 145 129 146 127 163 93 123 112 168 126 135 200 132 133 140 138 152 105 135 131 197 138 178 127 103 145 97 91 162 62 101 100 162 177 89 89 145 124 127 77 187 169 142 71 184 162 90 74 51 208 61 140 90 74 112 
183 63 154 198 135 144 100 173 155 151 151 69 144 107 134 90 155 30 83 65 146 31 204 98 136 105 32 71 119 182 153 171 179 87 181 136 183 198 104 97 113 101 88 141 171 175 63 152 114 157 211 76 156 101 96 155 138 131 129 194 78 167 104 127 38 83 150 188 116 93 149 120 159 146 64 199 70 63 53 194 90 148 55 47 180 108 206 114 123 87 115 221 176 140 70 96 144 113 101 92 
158 142 163 71 224 69 160 154 90 77 63 171 107 80 114 157 150 25 144 142 173 108 146 101 162 115 87 161 152 181 83 214 150 65 84 174 41 107 94 168 181 121 132 121 160 185 97 66 87 176 128 140 128 216 36 112 151 118 198 123 105 86 97 114 119 209 177 40 100 223 101 97 7 51 141 85 114 30 124 107 113 70 115 77 44 67 101 69 156 37 204 146 126 149 117 130 128 131 158 127 
157 96 114 223 98 74 64 193 138 169 123 81 179 121 194 121 139 150 168 63 129 198 101 153 181 117 133 19 126 177 231 162 33 59 113 129 168 146 94 184 118 146 154 58 176 214 90 147 192 141 93 150 90 106 152 59 21 98 125 157 177 88 75 92 101 200 89 178 158 202 117 195 179 179 171 79 157 38 135 78 153 148 132 93 149 114 104 94 72 81 79 85 96 147 152 165 178 92 79 141 
165 180 107 108 101 81 196 105 61 115 100 84 134 112 121 118 62 110 158 109 186 178 93 211 156 127 121 156 89 144 93 124 186 153 69 118 141 140 92 190 163 178 37 141 113 154 61 241 148 139 97 167 53 126 154 97 156 102 213 83 82 173 101 121 113 87 145 148 108 144 175 120 203 118 148 177 196 122 124 148 128 136 32 167 164 37 74 99 56 92 180 215 85 96 78 157 122 122 114 133 
163 116 206 201 196 58 128 149 49 109 182 42 111 111 44 85 198 104 172 93 121 164 184 108 32 104 146 187 187 81 102 68 138 144 141 116 156 109 109 33 174 129 167 88 197 58 137 163 148 134 151 147 129 228 158 107 194 146 90 76 82 176 188 55 43 203 154 130 93 161 56 167 86 74 160 195 183 208 189 106 58 78 76 111 100 120 124 158 171 85 94 73 196 27 39 101 181 85 101 124 
44 68 77 88 173 125 138 237 49 101 132 57 142 187 106 153 163 183 160 86 195 147 152 112 97 89 162 147 95 92 76 110 173 137 140 165 45 79 107 45 158 89 177 75 132 148 156 105 160 75 160 198 163 121 128 204 81 119 232 150 157 102 145 91 132 91 198 182 160 155 115 84 215 203 140 147 214 130 161 166 134 154 69 139 120 240 139 156 138 98 174 163 150 147 84 86 131 129 146 118 
152 138 174 124 129 137 152 133 164 151 167 119 133 147 137 111 204 95 120 154 156 177 119 127 142 41 97 177 30 117 92 164 73 168 181 93 119 115 60 34 85 128 95 118 108 88 125 110 122 83 103 144 86 106 79 155 142 114 202 74 130 104 163 37 162 77 120 123 88 113 113 47 119 87 126 123 119 180 198 86 123 105 129 118 139 124 66 192 118 35 160 161 224 117 107 198 200 151 163 143 
175 92 44 63 82 146 118 137 117 55 123 116 66 116 55 200 150 83 69 157 150 163 175 209 191 76 156 137 145 161 160 84 98 182 128 191 140 128 159 129 99 83 82 89 157 134 87 139 86 165 84 78 79 149 58 208 167 151 133 188 98 169 118 114 70 147 91 150 140 107 156 110 94 135 142 65 145 176 119 195 189 105 85 70 124 93 151 161 141 213 165 82 103 148 212 204 191 126 133 79 
77 69 58 143 186 183 138 88 125 131 146 187 100 212 143 118 65 85 142 95 72 150 157 27 58 155 146 207 217 83 107 84 62 100 142 104 125 192 138 57 124 230 9 163 174 140 124 170 124 65 145 163 182 110 109 129 76 122 179 137 126 73 162 93 73 181 101 133 97 89 131 169 90 81 57 133 73 75 201 211 74 99 112 138 82 154 125 83 123 146 57 56 237 96 159 92 207 108 63 178 
102 170 168 202 146 219 35 92 136 83 101 142 120 208 48 210 163 67 91 109 134 140 30 142 123 179 199 93 71 204 55 198 144 71 111 136 146 164 98 203 168 189 107 133 132 162 115 93 94 153 128 223 110 116 131 102 157 131 86 131 109 182 174 69 101 159 172 228 211 183 133 160 50 106 52 108 130 108 153 170 111 191 214 146 105 226 183 75 203 99 202 91 45 152 79 102 207 146 207 118 
170 190 63 172 106 93 191 87 73 135 172 108 134 208 161 88 76 64 104 72 169 105 137 135 143 66 78 106 146 103 150 80 135 98 147 181 123 81 133 111 111 157 63 136 103 151 71 125 123 147 152 130 167 173 120 121 150 143 137 211 99 103 189 174 104 104 235 155 153 186 157 112 42 154 181 123 153 169 103 151 142 200 156 93 111 107 110 136 63 158 127 138 131 108 187 147 148 124 116 163 
58 117 142 96 55 112 19 125 140 57 178 110 53 82 160 142 125 102 211 170 141 99 174 159 147 125 150 128 125 195 108 106 98 92 163 55 96 141 98 38 44 64 49 199 103 178 209 133 26 128 91 154 79 121 161 72 94 140 91 125 112 114 112 172 189 153 118 158 144 131 172 73 58 85 93 80 125 155 100 87 139 159 129 102 79 204 107 18 136 132 106 131 138 61 131 122 149 39 136 230 
157 86 157 189 111 164 109 67 185 146 153 191 143 179 155 90 110 105 103 63 106 72 76 62 84 161 135 220 146 183 235 76 126 125 107 87 139 149 164 118 110 53 128 161 110 147 185 90 200 59 107 219 159 111 216 158 87 62 156 123 154 196 165 50 159 113 179 89 76 55 65 118 51 120 105 138 60 131 203 188 75 199 135 130 96 120 55 161 132 50 156 110 136 95 72 141 135 92 134 52 
100 144 117 152 130 143 154 66 98 133 97 80 144 164 176 84 123 155 55 145 229 59 130 60 69 147 230 101 121 164 62 75 79 19 177 141 152 122 78 218 131 140 123 153 126 181 132 143 80 150 178 147 209 46 140 100 99 185 83 127 160 199 111 72 178 136 153 134 129 150 146 139 119 95 97 111 109 115 170 168 174 140 201 129 97 128 115 145 124 172 106 128 83 82 144 63 73 84 105 142 
110 110 98 66 45 47 148 82 125 138 92 131 141 89 130 98 163 90 86 120 157 151 83 109 140 160 136 197 83 127 168 133 178 127 100 100 190 162 116 103 49 90 93 89 174 99 77 78 201 77 218 194 94 111 130 144 115 128 163 159 125 79 134 141 82 105 45 138 117 111 66 141 95 174 125 75 220 130 125 171 199 101 109 89 125 86 163 29 139 88 110 98 156 128 51 99 156 131 121 125 
202 221 194 162 143 151 183 115 208 240 78 131 197 64 119 187 55 149 135 60 59 160 52 132 67 163 246 92 93 152 177 154 152 125 77 155 170 191 140 161 169 119 152 63 183 94 102 186 54 235 88 98 98 204 121 145 113 96 79 150 85 90 119 130 118 139 221 137 220 97 87 152 70 80 107 76 111 149 115 123 85 96 52 163 193 53 150 121 179 141 141 86 155 195 113 82 123 87 135 82 
175 89 76 106 100 159 142 76 199 152 137 158 105 79 66 89 123 88 194 91 61 94 94 90 123 76 183 130 94 124 73 129 130 115 116 164 101 175 130 96 160 149 80 77 146 213 187 203 167 190 151 142 205 185 185 150 132 140 150 54 194 100 177 130 200 196 176 37 193 88 112 146 159 61 48 161 94 120 175 163 161 134 120 114 113 114 199 172 101 112 137 171 175 160 168 124 184 165 61 174 
55 145 105 81 139 44 190 200 137 179 105 176 179 149 210 75 189 147 158 166 160 193 96 72 73 200 137 216 86 147 103 212 193 180 129 61 135 95 157 89 102 126 119 102 84 157 167 105 186 127 135 119 98 175 149 145 97 196 51 117 134 151 196 184 36 99 56 83 97 95 181 44 147 91 164 154 60 130 154 105 162 117 164 88 132 69 118 93 105 181 134 97 91 83 106 43 122 137 93 146 
138 112 158 99 135 209 104 149 140 127 164 103 104 164 110 157 197 122 139 112 88 150 63 134 215 36 229 167 149 149 120 174 129 145 194 144 163 118 167 137 147 166 150 183 22 181 199 89 65 120 93 85 94 161 148 194 80 71 38 184 225 100 42 78 73 179 211 63 109 112 164 171 193 141 136 145 57 64 160 49 92 102 164 153 175 109 163 153 149 147 93 118 116 165 138 184 127 155 41 130 
73 164 52 197 127 102 167 115 134 136 82 115 185 169 166 67 173 144 185 22 106 5 88 151 201 104 91 87 195 129 130 110 112 189 119 114 102 68 80 155 62 58 161 134 82 93 98 98 148 87 120 76 157 226 37 185 70 91 91 128 79 69 153 111 73 105 117 72 148 82 164 131 141 133 171 155 217 77 77 178 109 112 129 115 108 44 117 214 118 92 194 91 87 120 174 44 170 111 112 206 
112 212 93 98 148 72 205 102 170 153 93 106 108 210 92 87 143 195 208 198 47 164 134 86 67 175 199 177 116 148 144 161 163 120 89 217 119 77 136 165 90 147 142 140 223 176 129 176 146 55 108 130 41 146 138 201 176 166 128 223 129 191 118 117 179 63 109 114 173 163 73 154 148 138 102 94 123 141 139 166 139 101 138 99 117 107 119 183 183 161 119 167 182 119 52 93 168 99 109 100 
135 130 64 131 155 204 103 207 169 103 203 32 62 182 71 91 115 184 191 118 117 134 151 148 129 109 116 132 189 141 187 84 88 82 135 165 161 209 239 108 57 165 191 96 152 62 80 181 176 138 173 130 93 104 84 105 85 96 118 152 64 131 158 190 162 92 141 248 158 127 127 145 168 173 155 162 49 162 45 40 200 85 159 102 32 101 230 195 139 139 79 114 156 208 147 143 150 103 216 171 
79 109 113 107 145 171 119 80 70 92 175 124 106 128 195 66 115 116 175 150 81 90 138 128 108 216 112 107 39 74 156 181 28 124 95 123 167 168 115 168 146 128 136 150 99 101 145 92 115 92 84 152 50 177 117 137 187 111 65 161 147 157 102 183 149 97 204 151 123 164 177 118 163 145 102 28 119 208 104 89 188 91 153 63 134 113 108 142 102 182 104 168 128 163 70 185 200 116 199 129 
63 170 103 74 186 149 99 163 142 83 92 146 63 124 147 132 104 150 135 149 141 80 89 64 123 112 124 148 140 160 181 134 145 134 95 130 139 205 209 149 134 54 138 105 52 165 112 93 137 136 87 55 95 117 133 79 151 205 140 132 155 84 174 89 35 151 80 126 185 165 155 169 48 163 182 97 121 115 143 126 152 98 165 172 179 104 107 216 115 84 145 120 116 116 146 164 112 198 148 145 
114 102 116 141 147 192 124 88 128 157 100 212 47 116 104 122 181 187 159 100 118 107 230 165 113 161 130 112 101 45 149 179 132 160 210 186 200 99 178 152 177 95 137 195 204 89 120 107 159 91 145 131 117 128 178 47 81 161 147 107 109 74 82 161 112 199 116 192 113 129 172 48 113 79 169 70 113 89 116 74 129 106 107 161 154 124 144 101 125 200 138 66 92 190 92 207 88 116 89 172 
151 152 87 126 172 92 139 85 135 111 113 73 146 96 183 190 120 154 127 176 187 138 178 167 126 119 146 152 142 196 176 186 87 102 40 210 119 45 114 55 173 121 126 164 61 50 131 158 164 146 97 122 82 144 141 127 147 124 113 110 67 139 153 184 55 55 72 120 121 151 83 130 96 154 83 170 132 194 218 151 119 92 157 150 111 147 154 101 97 87 109 237 130 90 219 176 106 118 147 134 
144 110 112 97 139 87 150 45 91 182 158 232 178 151 87 162 106 88 242 139 91 158 66 139 49 115 106 172 182 127 166 133 52 82 114 157 138 134 167 91 182 99 208 131 160 124 104 71 147 163 114 240 108 121 146 186 179 70 153 106 179 145 110 72 219 66 55 144 123 167 132 164 68 137 102 126 90 190 74 101 143 124 167 123 183 153 142 145 187 117 192 64 142 87 162 94 63 167 55 102 
51 92 158 160 73 57 100 71 169 89 180 78 138 166 74 156 114 145 132 133 159 171 111 60 129 107 86 90 122 146 103 153 207 88 38 56 109 170 150 40 139 121 120 68 181 112 145 162 227 106 144 95 157 86 131 120 63 115 188 127 122 106 185 113 103 187 209 115 175 116 93 194 135 169 164 122 121 171 124 41 132 194 121 50 115 194 163 62 155 160 133 168 104 221 163 89 111 92 134 90 
155 165 122 69 156 53 159 169 73 101 76 176 182 158 109 58 157 93 109 159 123 197 98 129 72 168 147 73 167 136 60 177 149 77 116 124 144 144 93 102 130 139 75 94 112 174 66 142 30 109 68 130 229 130 136 154 109 136 87 169 164 176 123 116 100 99 78 121 156 205 103 110 134 97 132 120 54 152 119 219 117 72 165 181 120 105 24 99 98 67 169 65 101 170 137 103 79 105 55 159 
78 94 70 168 50 113 127 148 135 146 164 117 180 175 85 167 146 122 126 176 114 191 146 136 127 180 194 192 91 119 194 148 89 219 157 93 118 127 219 126 102 140 127 63 117 141 126 102 86 190 52 131 145 149 122 100 150 117 181 184 209 129 122 161 85 133 68 184 143 101 153 104 115 148 98 142 88 97 220 78 84 122 140 171 157 125 147 84 122 115 199 89 59 89 173 108 121 71 161 112 
113 207 86 62 83 140 149 221 174 174 167 140 203 150 201 121 120 133 152 79 98 113 149 83 171 113 37 135 108 220 151 194 134 97 110 94 132 112 91 207 105 140 209 199 144 117 102 119 152 81 128 113 117 138 170 179 126 122 142 162 99 208 153 173 186 174 116 163 186 153 149 149 174 130 153 109 106 147 114 159 114 78 211 44 48 87 81 111 100 139 198 117 155 147 133 177 189 123 22 141 
170 84 185 82 87 129 148 88 99 199 91 53 170 90 125 170 132 111 151 138 178 77 142 169 107 158 151 202 155 176 34 161 45 105 110 166 216 160 133 206 116 133 99 57 179 215 122 154 133 61 94 136 126 130 88 126 130 58 52 190 97 89 121 84 104 178 138 159 94 136 199 88 86 101 145 139 184 107 65 80 156 127 219 109 133 129 181 140 110 145 200 105 166 162 98 193 164 110 167 83 
159 235 100 162 132 135 131 59 101 137 84 122 59 96 60 124 128 156 100 93 180 69 22 148 189 127 118 92 63 199 13 149 138 114 190 139 60 112 158 130 41 103 102 85 144 47 128 103 101 58 145 106 142 107 102 96 152 102 140 93 137 144 78 170 138 82 155 175 107 165 120 111 146 153 175 123 115 142 167 49 136 112 187 132 136 122 150 139 83 127 145 160 76 168 128 106 154 154 145 140 
76 127 131 130 83 117 181 132 167 66 183 121 86 101 33 173 112 181 111 106 159 97 71 132 68 93 204 115 138 115 167 94 222 148 116 149 186 102 143 53 126 85 103 152 129 112 107 200 53 89 99 87 116 94 132 127 148 158 110 163 130 103 152 205 134 99 113 203 70 157 96 126 82 153 107 94 175 166 120 205 148 165 169 165 73 95 132 196 126 159 171 143 150 183 50 50 123 144 149 108 
202 115 176 167 74 131 192 210 126 157 106 157 154 54 228 139 102 222 114 159 130 173 105 85 70 49 179 106 162 88 154 201 176 121 140 86 127 215 92 71 115 119 47 119 130 192 116 96 96 60 174 72 120 182 88 156 94 14 142 152 62 48 191 59 187 144 93 174 126 136 154 115 103 91 165 171 170 146 113 90 42 163 77 177 123 117 49 72 105 205 113 119 146 168 194 193 146 155 73 155 
107 108 180 183 109 91 132 156 123 194 41 113 137 96 190 183 155 120 206 91 159 124 221 130 127 182 140 144 155 103 159 165 78 56 98 208 108 208 126 179 165 85 101 204 160 103 149 122 197 91 42 83 144 99 180 223 107 144 105 175 139 174 49 136 109 9 166 149 204 120 192 66 125 112 70 112 88 110 61 81 137 122 99 134 127 140 88 132 161 92 132 103 178 121 87 148 208 68 116 186 
176 113 138 185 169 93 29 222 161 120 132 201 153 137 87 185 177 125 107 219 103 76 41 156 144 107 142 165 159 198 117 123 166 79 144 139 154 184 101 116 80 100 132 168 87 130 99 113 163 155 160 177 151 93 62 64 49 144 82 123 190 109 113 205 100 172 152 205 107 90 185 136 198 120 133 182 202 151 89 64 96 109 177 85 144 178 159 187 79 114 203 20 105 74 153 141 88 83 25 88 
209 129 49 155 99 153 154 134 101 144 109 163 163 162 157 38 150 73 117 164 161 104 60 109 145 165 70 61 104 170 122 165 146 203 140 132 111 66 110 113 125 140 156 170 37 68 127 113 152 108 139 99 149 109 85 149 144 72 118 167 145 146 120 155 86 67 105 112 171 137 136 105 173 206 167 137 182 79 48 124 143 169 87 129 215 150 179 102 201 63 132 112 111 200 123 120 127 53 146 213 
215 221 47 148 70 92 164 19 90 137 89 77 124 99 142 29 145 135 131 94 102 64 167 46 161 83 89 134 170 129 136 74 90 161 54 91 125 123 71 125 147 137 83 127 214 135 177 190 157 38 108 236 34 120 62 143 137 111 114 71 197 94 118 38 141 129 105 107 135 175 126 48 125 55 30 90 100 91 176 163 63 50 201 113 153 128 146 88 181 95 168 121 131 135 139 173 176 199 189 212 
