P2
100 100
255
125 211 125 159 115 144 161 97 129 106 110 158 118 85 120 160 188 95 136 145 196 172 37 61 98 43 159 136 85 188 197 160 117 52 154 88 155 117 56 30 206 140 71 48 94 109 92 178 125 116 73 116 90 156 90 169 171 157 80 209 200 153 230 175 141 202 166 86 219 180 106 161 108 126 140 56 101 54 175 185 214 94 42 88 131 114 144 92 102 97 49 88 149 165 92 96 45 129 194 114 
114 185 92 131 162 189 117 160 163 84 131 92 133 192 40 144 190 183 128 150 133 145 120 86 144 97 99 113 142 153 182 175 150 150 85 148 87 43 109 147 96 89 152 124 156 122 46 77 211 149 121 203 146 186 73 55 149 132 213 71 191 84 82 116 119 151 39 98 174 123 121 67 145 145 176 76 152 137 131 131 60 157 77 88 169 104 173 131 72 83 143 146 92 86 77 103 60 166 156 153 
134 127 134 146 150 115 189 102 97 64 113 149 113 69 85 132 175 115 70 125 56 99 136 189 29 174 165 118 133 64 107 141 153 97 79 117 164 91 74 141 209 58 49 198 154 150 128 168 115 162 160 126 147 71 126 125 96 46 78 115 195 92 97 142 172 167 203 234 77 70 117 82 45 121 145 183 128 204 123 118 165 70 199 144 133 203 125 132 138 110 76 117 212 77 78 122 140 97 124 182 
159 155 170 110 207 175 88 119 190 138 145 112 99 175 129 142 121 166 90 158 156 192 133 115 157 159 81 44 150 108 154 126 126 136 141 114 190 68 27 150 142 141 135 196 129 125 99 17 122 70 30 136 137 218 167 193 126 155 184 143 109 131 56 112 147 167 138 57 119 176 70 55 35 51 112 139 200 71 122 162 93 137 75 67 154 93 170 80 62 106 128 128 146 193 64 99 55 145 144 130 
85 88 175 180 84 58 166 149 139 218 111 194 88 88 141 168 17 132 164 108 162 100 186 51 115 142 93 81 202 175 139 219 136 138 156 113 61 176 75 118 97 108 143 153 121 125 166 159 101 135 100 41 125 199 201 235 84 164 215 51 103 147 133 94 145 80 165 199 189 85 104 156 92 176 104 136 156 108 147 81 188 106 139 138 86 105 94 129 159 137 88 169 124 153 61 107 89 116 97 115 
128 78 68 183 120 100 134 45 159 114 109 120 141 126 132 182 202 109 150 211 121 50 97 231 149 172 55 131 171 98 87 110 208 192 98 124 185 101 155 116 160 130 180 217 199 163 100 120 160 111 99 117 132 57 92 99 108 71 39 168 134 221 104 127 166 131 68 136 187 186 84 151 159 126 46 185 151 97 168 141 114 152 66 175 147 197 178 86 162 173 209 149 136 122 98 140 118 218 127 139 
172 93 111 129 186 107 150 170 104 88 139 128 32 114 78 126 144 156 134 88 187 160 144 180 112 128 73 191 108 150 106 193 125 116 118 121 174 91 68 179 225 176 91 102 67 131 96 50 139 114 198 148 98 213 141 72 190 126 203 98 197 67 137 89 199 98 120 88 68 133 136 167 77 119 109 38 100 86 147 29 40 161 61 50 143 70 89 69 161 106 190 134 152 119 72 91 122 77 138 85 
208 151 146 63 107 146 170 70 163 103 76 141 157 151 77 113 101 159 112 151 109 149 135 121 60 84 93 110 126 132 138 49 92 115 150 131 159 103 164 166 177 62 130 133 150 119 65 128 196 83 66 147 162 124 157 132 163 152 157 142 63 49 97 87 104 162 66 156 116 84 137 130 89 218 167 176 83 157 76 90 155 218 166 29 151 172 155 139 146 119 40 169 112 136 69 135 72 154 160 178 
74 85 121 141 83 76 134 148 185 123 95 82 119 80 96 69 113 124 155 131 108 84 117 75 68 162 84 142 86 164 182 158 74 90 61 148 53 209 141 165 46 80 202 123 149 146 160 108 183 160 177 203 114 188 181 129 166 185 45 95 218 118 139 60 91 140 187 167 105 116 103 110 120 148 95 165 161 160 171 97 66 87 182 88 189 126 40 126 90 159 125 149 116 212 81 133 140 203 67 99 
172 114 132 202 114 219 141 167 134 159 146 90 144 77 140 48 208 153 79 99 73 162 163 164 109 155 124 93 47 117 137 131 73 94 117 200 124 159 121 189 99 64 130 190 187 190 90 48 207 54 225 117 131 152 49 201 77 71 169 155 106 157 99 120 147 109 161 33 166 137 145 118 172 84 176 70 94 35 166 184 102 140 49 153 167 141 60 190 196 117 135 95 106 162 41 209 45 86 232 66 
133 103 118 147 144 44 87 157 83 133 85 91 148 136 109 91 118 194 104 193 84 112 81 137 60 176 124 147 169 88 176 132 141 33 169 90 91 83 166 87 141 138 186 158 143 124 157 133 180 42 205 107 161 76 153 165 202 111 50 158 71 191 102 106 59 181 119 230 151 178 58 131 202 149 157 53 184 91 90 171 139 92 114 35 219 112 154 65 189 51 137 89 92 164 105 83 123 49 138 92 
206 45 230 113 92 134 171 182 204 178 130 78 98 71 150 167 106 182 92 135 169 165 110 80 126 160 168 162 141 48 143 150 122 138 186 202 98 88 80 166 203 93 187 108 47 105 147 206 190 116 225 103 126 63 111 166 153 157 195 133 118 137 69 113 130 130 106 128 129 135 220 97 121 122 46 118 149 184 151 56 49 21 169 87 122 124 122 114 149 148 118 128 201 173 91 81 81 102 112 160 
107 163 98 113 123 168 45 172 143 181 159 139 137 182 183 129 179 181 155 134 180 132 176 146 161 183 141 99 203 129 65 98 183 113 109 139 68 130 143 79 175 115 92 111 134 58 190 141 152 75 117 108 167 193 178 90 199 131 127 109 162 65 84 109 122 124 53 124 139 106 156 115 181 90 180 156 86 169 130 77 64 69 133 221 51 159 174 173 137 99 181 77 108 136 136 145 128 206 109 81 
173 120 55 31 173 74 57 116 161 207 175 71 163 61 140 200 70 199 123 124 58 122 103 139 155 116 125 96 173 118 187 94 29 155 180 155 164 171 179 164 96 138 145 144 81 120 77 150 137 60 54 84 67 47 86 114 99 108 136 98 80 97 158 118 118 101 162 117 80 88 152 129 126 175 140 78 155 213 194 42 205 105 102 112 99 232 123 135 111 234 129 178 56 96 80 108 140 75 117 78 
161 116 117 52 56 72 140 167 30 137 135 169 124 77 118 181 69 169 95 76 119 92 223 149 207 104 176 65 129 60 159 48 120 54 170 148 117 108 167 102 124 126 200 156 92 109 167 155 161 138 52 77 199 176 93 146 176 132 103 32 194 81 70 154 138 139 104 125 140 68 104 110 181 68 165 114 95 175 131 121 87 150 177 111 100 143 153 170 86 180 170 138 67 115 134 133 183 161 122 197 
64 170 158 139 112 107 144 144 108 164 74 121 160 189 130 108 104 174 98 102 45 154 147 57 140 100 149 158 81 124 155 151 181 160 239 131 155 136 106 71 171 144 111 149 87 92 117 95 194 70 86 191 69 143 136 100 148 125 85 205 99 119 150 118 67 187 174 163 138 144 178 138 152 138 72 143 34 160 216 74 111 7 136 133 93 66 160 159 167 108 158 78 111 142 95 159 141 83 54 196 
155 103 53 139 21 93 110 139 162 114 94 94 48 162 97 151 50 85 68 119 99 101 157 163 121 158 151 149 172 83 164 163 174 147 47 128 108 110 170 151 80 50 91 65 81 135 184 60 140 81 141 43 100 126 188 86 104 51 177 145 166 63 126 116 161 149 68 215 108 172 89 111 130 189 218 87 89 156 140 123 111 92 163 48 89 60 180 220 70 74 111 61 119 116 148 160 209 197 159 213 
147 115 66 67 124 214 160 110 126 91 94 110 120 138 109 132 180 121 67 167 58 91 119 75 84 98 150 105 126 114 105 134 111 166 216 49 79 169 125 146 101 165 147 169 145 103 115 160 48 110 114 173 123 154 113 165 73 127 187 81 113 80 99 136 157 159 163 154 119 173 183 115 170 53 158 61 118 91 162 91 29 186 116 45 125 162 128 199 87 195 169 127 147 145 101 183 155 102 149 151 
126 165 133 207 214 150 80 136 68 117 46 154 92 111 64 161 96 170 143 122 183 108 134 152 141 25 83 102 172 76 160 42 93 147 161 158 158 110 195 201 244 148 129 103 89 104 214 146 104 105 133 62 129 90 162 135 137 152 159 170 105 68 81 165 198 41 89 112 137 138 115 55 101 110 102 138 110 76 163 124 121 102 102 186 131 161 193 65 69 29 129 106 157 109 149 165 67 67 93 101 
146 112 130 129 171 165 103 145 136 139 143 160 145 97 89 79 187 228 115 150 110 192 96 121 153 155 130 118 137 162 188 65 39 176 123 112 139 147 84 76 88 177 107 67 153 130 137 125 148 124 92 129 126 155 100 140 138 92 153 203 184 126 113 115 52 113 134 100 116 132 199 128 100 143 94 68 118 213 144 195 192 177 104 149 179 100 207 115 101 174 83 75 103 174 156 152 92 161 173 56 
56 134 122 132 186 101 157 156 115 67 185 155 124 122 189 152 189 167 199 170 134 73 213 80 71 123 69 57 71 144 123 124 234 186 112 60 112 195 136 115 118 74 179 42 100 144 100 160 116 156 98 148 185 72 74 220 137 180 128 132 212 86 57 206 185 148 18 131 128 174 102 122 135 43 128 146 79 117 167 136 133 176 141 127 212 156 192 194 191 61 76 105 86 197 170 146 131 82 114 224 
161 170 81 149 52 75 141 80 160 143 74 105 107 126 114 139 135 154 172 52 115 92 121 157 174 139 134 70 165 86 188 119 113 170 155 111 148 105 122 173 156 125 112 94 75 147 93 111 144 118 116 122 181 97 158 117 144 80 124 100 137 120 106 139 108 211 131 85 113 137 39 130 95 147 160 153 192 75 173 114 162 149 94 125 31 184 177 120 141 129 136 170 94 194 136 130 167 124 144 135 
117 142 213 170 96 94 140 165 129 176 95 87 71 166 161 120 76 147 164 49 104 138 172 58 138 142 152 60 74 136 189 152 71 97 153 92 150 159 104 146 106 160 107 67 137 132 112 181 37 110 156 45 185 153 152 118 193 97 94 105 112 120 115 92 105 70 82 87 90 124 152 72 123 96 149 59 117 98 124 88 126 205 149 131 95 20 144 113 158 35 104 92 104 53 145 190 173 106 122 151 
129 35 187 103 164 123 89 156 132 195 183 118 122 85 93 190 143 164 103 91 98 96 171 167 128 129 143 178 48 107 66 142 101 130 157 99 104 133 21 202 128 174 126 178 60 85 157 130 220 31 117 83 40 75 98 147 122 133 136 151 126 122 162 80 51 160 167 188 193 94 180 137 154 158 109 156 148 113 110 147 125 78 154 91 161 176 90 112 135 159 131 133 148 109 129 153 165 224 124 112 
137 207 149 150 143 68 113 127 186 185 154 120 130 134 53 173 129 111 140 152 184 79 135 222 58 134 166 166 48 158 83 135 141 143 164 139 113 134 110 185 120 183 101 217 124 116 81 129 114 72 104 172 146 147 182 60 185 156 156 114 82 79 116 155 86 86 121 65 107 227 129 143 153 154 115 93 90 127 103 103 120 152 126 200 162 194 122 106 201 128 142 109 135 57 163 156 210 154 67 97 
159 160 157 129 124 76 174 106 68 156 114 130 173 83 44 168 83 136 103 159 96 168 175 166 145 143 145 144 153 183 167 163 117 65 137 82 150 180 133 133 56 215 76 137 174 178 227 151 167 121 89 157 131 96 143 143 101 46 112 117 168 114 225 209 103 71 221 121 136 92 98 106 67 152 157 112 37 154 76 118 142 36 149 118 115 109 193 86 172 208 69 120 152 152 143 131 48 124 129 108 
66 105 86 72 51 154 107 44 63 175 77 110 109 126 98 84 111 81 129 164 70 197 115 132 171 63 63 179 130 94 55 143 92 128 212 192 126 132 64 226 92 91 54 146 182 113 50 206 173 133 134 195 169 61 171 107 99 183 38 113 55 105 194 174 176 161 169 122 158 87 162 121 134 144 94 78 95 174 147 69 87 84 145 83 88 25 151 94 77 115 178 172 159 194 201 127 126 158 92 106 
88 150 155 173 126 160 124 162 132 130 149 79 155 174 175 58 120 131 146 173 118 87 91 164 101 79 91 194 107 111 129 159 100 107 144 121 175 195 55 106 147 140 127 80 153 211 47 149 102 120 138 121 41 131 157 158 90 144 104 135 81 185 79 93 112 132 113 177 173 145 154 63 110 30 50 128 137 93 181 117 81 65 200 83 91 162 170 168 50 79 145 102 140 146 101 42 117 144 110 195 
86 123 208 75 109 89 87 234 66 161 167 114 150 32 191 93 114 121 196 142 199 180 149 126 56 141 101 164 154 71 86 140 176 183 112 163 149 118 64 118 118 67 129 140 125 79 134 169 163 166 122 121 146 151 97 161 138 170 52 165 131 190 80 158 189 124 98 108 171 209 74 174 169 179 142 169 100 106 132 142 119 98 80 75 111 163 184 192 32 124 116 102 146 88 98 129 125 183 115 139 
184 146 154 156 103 106 159 171 110 152 129 205 103 94 102 65 181 104 73 145 131 132 105 125 118 87 43 205 93 134 45 97 148 110 142 137 150 146 132 147 209 90 93 104 107 116 136 136 130 107 92 191 93 131 121 175 129 120 102 116 192 103 162 168 128 185 77 176 33 118 120 201 130 175 87 193 203 106 115 154 122 121 170 209 109 103 210 172 112 133 156 169 96 212 120 98 59 196 72 54 
179 144 118 162 69 139 168 98 83 151 128 161 92 118 121 116 133 123 64 119 127 98 178 121 118 115 93 50 222 186 216 138 175 124 101 67 120 140 77 88 92 189 177 91 164 131 161 144 148 169 169 43 192 86 146 82 118 159 154 82 143 170 150 106 109 141 127 106 137 122 99 137 180 54 67 137 84 139 152 78 59 178 40 124 135 114 141 197 118 111 135 106 138 100 133 108 37 223 132 131 
69 50 181 207 164 116 168 192 109 79 81 100 154 206 59 99 163 138 77 71 105 180 92 154 92 146 158 68 179 123 205 168 121 115 158 143 100 132 173 147 88 192 234 88 118 110 177 117 123 129 114 152 103 218 112 108 143 113 131 80 66 65 71 161 123 161 144 121 131 166 106 116 153 157 60 79 176 169 178 116 173 115 61 152 183 148 121 109 100 96 181 69 157 73 182 175 147 201 122 69 
154 163 58 153 141 84 106 102 111 148 160 149 97 155 108 71 142 123 144 119 44 114 124 121 122 78 30 192 153 163 112 156 174 69 148 101 107 192 66 160 136 131 196 145 189 145 142 172 109 156 62 154 98 168 175 220 136 80 106 97 157 124 145 102 87 127 136 82 127 114 168 105 112 108 135 66 153 210 62 155 136 64 97 135 218 148 205 109 134 135 90 135 173 209 75 121 139 121 146 106 
121 108 152 143 121 104 111 177 191 78 204 93 112 103 28 149 213 91 123 119 188 155 108 147 174 96 151 128 148 146 116 149 117 100 107 86 137 220 99 117 128 143 192 205 234 116 155 181 235 101 143 109 127 69 198 129 77 103 130 99 69 144 122 147 141 118 112 202 154 110 103 92 207 103 153 99 49 176 109 136 90 147 185 176 194 134 172 165 123 101 31 92 99 118 243 74 30 137 73 176 
124 95 146 186 105 79 119 97 200 158 157 52 149 99 131 97 113 88 115 140 117 76 188 212 145 38 139 58 176 112 39 183 176 116 148 227 129 51 109 134 144 82 95 151 131 57 102 76 68 107 203 81 72 85 95 58 174 101 156 179 87 186 148 96 100 148 176 82 88 138 104 136 115 193 218 157 75 188 129 208 186 138 123 168 220 204 74 225 98 47 149 218 99 108 215 117 118 69 219 106 
72 187 49 114 155 146 124 169 157 117 193 20 187 110 130 124 181 117 157 73 138 102 131 134 182 155 173 115 116 90 121 185 95 73 123 117 169 125 149 137 118 188 200 86 125 173 100 162 176 88 77 161 103 179 135 213 111 31 101 70 156 211 146 97 118 74 190 107 122 124 165 111 139 163 106 28 134 74 105 115 122 131 195 89 142 66 114 70 38 103 160 115 114 143 164 82 151 125 95 107 
162 135 72 191 137 147 66 148 153 185 110 82 110 229 140 146 114 136 114 160 124 137 163 79 128 184 179 81 86 118 121 43 112 110 127 191 81 96 193 129 54 151 70 156 120 194 142 182 200 101 80 156 125 99 102 75 179 115 160 184 156 189 150 163 64 98 136 171 218 173 153 224 149 65 150 123 102 86 127 52 109 172 110 154 145 164 73 70 143 170 136 132 129 195 192 108 203 154 107 150 
67 125 117 172 186 146 144 108 91 82 26 148 190 24 125 125 126 173 116 160 63 197 138 215 122 72 106 58 157 134 138 99 108 177 83 57 140 153 115 40 155 84 165 119 80 89 120 217 218 81 150 171 95 54 147 145 84 123 127 71 95 151 79 171 53 44 145 86 148 109 154 149 118 226 136 55 173 53 180 103 140 141 125 87 38 151 56 170 39 170 178 128 119 43 133 86 146 210 94 123 
196 122 108 134 182 168 86 121 103 142 91 180 150 134 112 55 201 134 138 72 214 97 206 98 118 163 176 51 106 111 172 183 156 67 45 158 159 126 42 84 62 115 142 235 131 123 210 97 106 206 71 130 135 161 136 149 89 206 221 190 168 190 65 156 145 171 80 153 174 168 62 202 156 144 145 172 153 156 174 90 80 173 92 124 111 35 108 137 100 101 174 163 188 147 182 87 137 120 148 148 
28 127 126 102 166 142 71 97 155 127 76 88 69 52 159 158 137 159 56 141 125 154 111 101 211 134 156 157 138 134 146 64 133 108 96 126 41 140 222 157 98 162 199 162 146 86 99 135 197 135 107 189 114 99 143 90 139 166 76 154 123 77 77 90 176 107 188 205 152 158 199 142 152 137 86 185 125 99 86 154 150 207 152 66 187 230 120 76 189 132 108 124 190 185 155 87 146 91 63 156 
109 92 140 124 64 150 68 52 67 153 146 189 153 134 115 98 70 106 83 98 118 67 95 89 136 178 199 112 66 123 163 109 75 96 191 112 96 211 108 86 48 139 133 101 230 47 51 123 58 111 108 87 31 70 135 214 205 93 180 150 118 167 110 98 94 90 113 126 112 96 32 132 167 102 162 102 68 125 138 67 86 207 131 115 70 186 138 94 165 82 128 124 133 144 117 151 113 136 116 102 
55 169 165 127 215 106 138 141 110 129 122 167 93 119 65 123 109 112 125 199 106 72 119 100 123 174 86 123 119 115 169 137 121 60 101 158 69 180 216 188 206 106 148 95 127 107 96 115 42 121 121 103 146 89 149 174 182 183 146 138 158 136 118 140 121 175 67 174 74 133 149 194 170 179 104 112 128 199 178 172 55 133 72 197 80 180 57 150 124 128 145 75 197 153 148 202 172 181 207 155 
113 152 154 111 168 151 79 101 108 76 147 132 175 223 154 90 141 61 102 93 94 95 87 76 185 151 31 189 59 90 188 29 165 101 112 144 78 64 195 137 83 218 101 110 181 77 102 153 106 141 210 65 63 185 133 112 135 136 109 175 122 108 85 83 109 78 162 189 139 75 107 85 165 146 78 122 125 74 82 117 191 158 130 116 110 129 154 148 41 103 151 120 107 97 137 111 85 137 102 178 
79 169 208 62 51 103 135 92 108 103 130 178 139 104 148 104 52 126 32 86 174 178 114 148 149 119 108 197 82 108 61 72 20 119 100 23 92 116 205 159 159 82 158 62 116 89 154 53 79 156 108 136 157 109 191 83 139 97 72 63 147 149 177 45 134 212 126 87 142 157 92 41 223 87 135 133 114 144 70 103 74 14 140 170 169 126 141 138 156 184 108 167 53 119 158 138 63 96 163 105 
67 81 101 79 121 70 102 141 122 23 132 126 47 69 124 173 210 117 166 118 143 112 199 32 130 119 136 119 129 127 158 147 60 107 136 151 129 137 113 147 99 153 123 201 30 52 28 198 85 121 99 137 57 95 43 106 121 105 75 22 98 65 76 84 165 84 217 137 194 69 132 115 133 156 182 140 114 119 151 150 75 146 108 163 70 133 48 155 212 128 147 127 145 145 117 89 131 102 167 87 
117 111 118 149 99 171 99 114 66 94 116 98 104 139 60 148 50 138 123 83 104 172 206 125 158 98 198 83 198 58 108 83 99 128 170 68 196 116 200 130 161 89 130 114 73 130 100 59 110 91 199 151 136 40 99 141 145 62 148 56 85 199 92 129 176 102 158 81 167 50 93 96 167 117 172 103 145 166 154 57 214 124 174 137 153 212 96 128 105 164 175 141 134 146 176 117 85 109 141 150 
85 214 99 86 185 142 132 146 104 102 68 187 81 188 74 137 55 97 96 88 108 99 116 140 67 177 190 108 85 164 68 64 167 148 210 104 173 140 143 108 173 117 56 135 165 107 75 128 194 168 211 120 87 145 149 147 114 111 170 106 152 142 151 187 147 107 70 120 102 175 141 127 96 196 102 181 114 159 122 115 127 165 113 136 175 115 194 174 134 227 185 187 141 156 160 156 112 171 145 108 
76 155 66 90 83 52 120 136 177 67 188 104 145 176 152 140 171 103 101 98 137 158 131 41 133 82 131 72 109 125 207 46 52 160 130 120 181 147 170 172 234 146 139 148 135 155 98 88 197 130 126 54 185 182 215 218 168 168 126 159 155 79 197 168 120 158 67 155 33 102 204 172 185 139 126 182 87 171 140 154 92 69 120 87 137 223 41 158 112 141 98 119 107 111 78 79 91 113 101 85 
149 143 101 55 128 40 109 83 99 123 198 140 99 189 175 171 81 152 202 98 136 161 144 133 99 139 167 127 118 111 108 76 184 162 91 164 123 106 183 151 148 202 184 41 67 138 117 148 103 107 130 115 125 43 201 100 148 172 84 204 117 126 103 123 162 193 114 168 59 172 104 171 177 203 130 73 126 125 149 113 53 83 106 54 210 85 115 179 174 168 131 107 60 117 136 74 133 143 79 164 
89 112 197 109 73 145 162 147 124 109 173 151 60 167 68 148 153 95 167 92 130 91 99 165 66 92 167 92 79 124 180 108 110 119 161 149 151 67 113 130 119 133 79 170 90 116 93 134 188 163 171 104 116 180 149 76 142 115 132 140 141 94 80 203 121 89 154 149 113 93 110 105 64 149 91 177 174 29 111 143 132 29 95 114 105 91 96 167 113 111 45 189 156 76 159 179 45 147 70 94 
166 183 50 138 116 193 142 187 121 89 191 104 70 179 51 101 157 149 64 139 210 66 154 137 200 192 105 115 76 100 210 96 183 77 152 162 121 206 113 135 108 79 115 151 111 88 147 97 81 144 129 68 233 100 103 35 102 86 189 115 127 55 183 136 240 189 125 128 73 112 146 116 171 95 149 143 196 100 129 124 169 203 99 66 160 80 177 152 105 197 97 92 143 128 77 145 65 96 162 152 
39 125 127 155 73 14 139 135 102 219 156 103 161 200 150 79 110 95 129 98 184 113 161 135 206 136 151 178 125 190 170 147 164 127 131 128 177 134 77 163 88 87 124 162 144 61 73 106 102 80 147 101 153 132 195 75 191 115 160 79 178 170 117 37 166 85 174 154 73 165 100 184 155 170 129 155 92 209 57 108 127 107 131 183 84 113 169 102 121 93 244 130 147 217 81 181 148 138 80 202 
173 112 140 90 54 205 114 142 87 128 150 177 112 134 120 72 111 28 84 203 160 179 191 56 118 233 139 42 94 118 172 122 169 229 158 104 170 79 139 53 133 140 107 198 164 99 182 136 221 127 116 122 140 111 219 124 124 125 173 155 88 103 77 177 181 87 222 184 109 119 125 99 161 125 176 165 153 186 93 113 165 142 199 85 135 182 107 66 161 150 120 120 148 76 118 170 114 159 119 81 
147 180 77 92 204 126 88 128 92 70 175 93 91 50 118 56 45 100 204 186 119 100 125 104 61 184 68 80 104 64 138 158 77 53 118 87 49 124 97 61 128 162 137 66 90 126 81 163 167 145 163 123 187 214 136 116 58 87 110 206 118 169 109 78 158 53 156 95 22 93 39 64 89 105 106 38 80 223 67 165 134 125 81 121 82 133 97 128 105 62 106 56 132 94 160 145 174 109 137 187 
96 131 143 87 94 113 127 57 85 59 172 63 204 156 74 202 159 199 122 147 151 164 113 59 73 204 81 207 74 145 45 68 79 169 57 104 161 78 144 126 85 141 191 121 90 85 184 62 93 85 72 142 152 69 133 40 143 126 157 101 25 115 142 168 137 175 162 105 168 178 98 143 116 81 174 138 193 154 102 112 149 163 235 99 202 125 59 71 89 118 189 135 84 155 155 113 145 153 115 119 
135 95 111 115 166 184 61 115 126 133 33 52 161 152 160 65 107 137 171 88 215 159 209 71 119 180 167 52 38 155 120 115 134 166 82 57 143 105 100 117 79 123 101 117 89 89 101 159 55 58 99 116 178 180 57 183 123 141 137 131 177 149 154 111 189 202 201 131 114 100 93 204 199 168 107 147 93 152 112 73 114 76 77 177 177 142 165 81 85 104 128 155 86 101 58 126 87 119 123 126 
188 90 112 140 114 120 108 136 143 128 128 112 168 157 169 87 166 114 89 85 146 86 155 40 75 119 128 146 86 142 161 95 129 158 117 217 84 156 161 147 158 129 120 168 196 184 97 92 157 144 110 94 119 155 166 147 196 224 181 120 163 85 159 122 156 143 157 110 159 134 89 100 124 80 130 62 106 84 193 185 200 119 110 134 58 119 69 104 111 146 154 70 103 79 143 132 114 98 55 197 
85 56 84 60 152 182 154 143 70 57 193 169 138 84 80 161 136 85 72 168 151 155 208 59 105 62 120 125 88 84 104 116 143 76 180 152 66 127 178 74 91 74 140 167 100 129 147 197 186 75 158 146 79 112 190 161 173 141 179 135 121 65 128 130 137 205 121 117 217 116 180 130 69 87 185 81 157 80 152 85 83 66 159 112 77 178 207 142 151 47 151 110 136 120 114 119 103 169 122 178 
169 131 168 152 173 94 88 123 110 136 100 192 69 85 92 173 214 190 165 130 128 65 117 156 79 107 153 49 85 167 16 154 125 103 40 47 83 158 111 132 174 123 142 21 148 212 130 155 168 156 160 65 96 168 100 165 192 180 133 74 121 120 197 140 42 101 170 91 61 155 136 101 85 104 97 154 107 92 178 105 162 150 142 178 183 169 153 118 109 122 154 55 222 102 152 60 82 104 137 135 
70 125 146 57 83 129 125 176 164 169 105 166 166 202 169 115 60 175 126 94 198 161 94 79 32 148 200 101 156 64 81 105 117 50 133 142 78 193 100 119 106 52 129 84 111 180 175 41 104 131 136 212 80 95 158 90 43 181 121 151 92 105 186 179 173 114 120 206 59 203 108 164 63 96 124 120 114 91 134 163 94 166 110 113 150 98 109 142 72 167 159 147 161 111 155 136 211 97 99 186 
138 57 119 191 169 135 135 53 120 132 77 77 97 116 113 78 84 136 107 35 125 71 14 154 128 112 76 199 176 38 88 188 140 88 47 124 134 108 68 112 102 105 24 124 163 78 96 64 136 106 145 54 224 117 76 122 185 77 141 125 142 92 184 88 153 136 94 99 157 124 220 111 161 103 46 92 172 55 72 143 140 166 171 129 148 129 89 162 107 71 153 135 157 114 75 160 181 158 182 61 
60 135 103 112 153 17 101 140 142 106 153 118 132 95 64 139 96 127 101 132 156 177 135 142 119 161 106 103 89 71 85 121 130 113 174 73 178 32 187 111 101 184 166 131 88 124 115 62 146 149 127 85 133 98 149 100 183 143 185 182 120 181 176 222 142 93 63 39 168 82 186 144 102 41 150 79 121 110 32 118 93 191 79 137 59 166 168 192 144 140 84 88 99 108 124 206 58 98 154 83 
61 102 89 120 125 65 141 175 93 109 228 84 82 78 160 134 90 142 103 57 126 192 166 87 50 92 177 102 194 151 207 109 162 103 136 141 173 181 199 196 161 127 106 75 34 77 66 63 80 155 115 93 41 135 204 102 207 167 130 110 219 152 65 57 127 115 133 39 59 170 98 32 96 131 147 116 154 210 104 83 69 68 29 97 138 191 167 223 127 104 88 159 116 112 91 43 237 171 102 67 
37 148 136 93 157 151 62 97 203 169 142 169 123 99 65 105 169 88 95 146 84 149 97 123 88 121 87 185 123 50 112 123 69 157 116 176 189 140 111 110 202 79 44 188 185 145 201 150 101 113 88 224 148 142 138 140 148 72 179 40 147 89 50 140 179 98 92 135 159 164 126 135 178 128 124 154 102 128 106 76 73 156 178 85 149 107 85 123 106 40 126 47 110 107 140 99 152 143 196 138 
146 138 114 173 141 198 188 66 112 188 152 113 120 142 114 86 163 107 64 188 199 135 120 127 95 205 105 137 101 198 118 136 117 15 132 165 71 96 122 108 40 158 122 107 190 128 145 185 140 132 145 157 99 151 131 173 148 94 127 58 149 121 185 108 130 140 126 95 160 124 103 209 168 113 74 119 143 95 104 82 81 159 81 109 198 207 108 100 54 107 120 128 108 150 85 152 105 91 68 86 
133 112 110 176 79 191 172 158 206 159 149 95 144 160 180 127 122 94 142 122 129 74 133 88 116 97 128 213 188 116 102 175 165 140 62 100 98 82 172 191 156 201 180 109 100 122 103 119 155 192 171 101 117 92 103 81 120 110 128 177 124 70 149 194 154 122 149 117 94 44 104 103 119 142 123 183 141 149 158 102 188 124 179 148 118 96 184 176 134 68 117 111 106 127 167 160 162 27 66 112 
105 112 197 141 243 59 139 98 44 196 162 157 174 154 123 111 136 184 126 156 76 129 124 152 195 146 153 89 75 216 157 185 123 98 181 96 100 180 174 189 94 191 80 170 96 135 84 192 97 149 153 93 161 170 174 143 85 185 126 168 126 174 214 102 111 118 104 67 115 161 175 148 126 89 237 210 95 184 106 222 183 84 115 110 63 138 168 43 154 167 165 146 91 177 135 104 160 95 195 76 
99 99 130 139 120 160 137 144 108 30 85 94 122 134 146 109 200 87 137 106 109 162 136 55 182 132 192 106 166 150 99 131 87 131 94 127 160 123 102 123 136 90 108 164 160 135 102 109 172 125 187 129 100 81 163 85 118 126 107 133 114 125 154 56 147 199 133 135 148 30 133 141 97 133 83 80 127 105 92 50 134 144 72 146 101 141 88 161 179 192 99 101 218 131 155 81 160 164 170 131 
156 37 212 166 110 125 108 152 136 56 141 166 101 117 128 116 99 147 142 182 63 95 130 144 98 171 116 170 117 85 72 97 72 119 157 142 158 140 88 71 166 192 148 74 176 159 120 104 58 142 144 155 93 103 127 127 138 120 157 117 114 62 65 125 58 151 139 68 121 162 131 168 148 125 135 128 121 104 82 61 151 142 79 196 140 133 125 129 163 47 97 143 130 113 57 158 83 115 181 117 
114 147 141 110 113 93 98 129 173 131 178 78 110 108 81 169 77 91 81 134 196 182 126 125 105 179 93 176 216 140 45 173 174 100 125 117 133 64 158 159 147 193 102 127 126 143 109 91 191 169 46 87 156 49 51 145 145 150 88 126 116 154 135 156 141 100 104 140 86 118 88 160 128 183 136 175 48 211 184 132 84 76 128 55 128 155 167 144 103 159 125 62 135 90 92 192 142 105 147 183 
116 146 150 138 67 117 148 140 57 155 147 109 123 173 112 197 222 89 133 138 99 89 137 75 93 189 153 151 119 139 49 123 161 126 104 41 117 155 190 119 84 176 84 69 81 130 216 183 84 95 94 188 147 48 145 103 204 145 182 147 115 84 90 99 107 163 196 142 27 134 118 110 120 101 86 73 133 100 151 32 135 110 97 89 116 89 57 115 177 71 98 150 141 116 159 92 178 227 193 104 
56 228 116 159 112 117 180 133 107 170 67 206 192 188 191 128 148 194 98 121 150 176 82 170 205 134 196 153 152 156 185 162 129 146 187 143 135 145 84 101 131 137 227 87 120 89 192 123 66 111 106 182 96 201 62 154 66 119 219 91 171 139 113 97 68 167 139 89 93 67 186 204 142 96 138 174 126 123 201 155 208 129 104 130 166 118 94 198 109 170 131 139 144 107 130 121 50 95 93 110 
156 173 59 160 178 123 151 123 107 82 108 92 164 61 97 59 11 120 191 79 114 157 68 181 144 119 174 115 118 149 180 137 122 125 75 93 43 101 153 112 158 84 96 158 157 143 217 123 74 168 201 187 119 151 198 203 157 186 192 139 132 223 109 100 115 58 102 59 59 95 204 122 137 102 204 111 102 206 134 132 110 202 93 202 79 79 132 172 82 69 193 69 203 194 113 185 108 137 144 62 
116 26 142 91 73 118 171 120 137 103 124 230 148 107 122 153 158 36 170 194 125 107 167 119 77 156 166 85 137 98 130 89 139 176 154 130 131 166 139 208 80 74 197 98 153 88 133 153 143 80 169 81 106 90 43 102 183 42 217 115 143 116 96 100 129 77 100 192 79 229 152 27 117 114 134 135 148 67 110 139 172 121 125 43 136 54 100 102 44 185 80 105 132 99 199 135 126 126 165 114 
121 127 132 88 116 150 192 166 106 166 102 75 124 155 95 93 138 91 95 123 147 114 75 179 165 78 120 98 75 58 140 140 204 103 147 175 118 144 159 225 109 73 39 61 93 114 113 173 112 163 56 139 119 118 101 160 72 82 159 80 47 105 80 130 193 106 100 116 134 104 184 191 176 101 139 127 71 154 135 147 128 165 117 118 131 154 132 117 115 117 149 26 95 71 101 176 119 94 52 97 
176 155 83 54 148 103 111 99 56 197 175 141 147 197 175 154 215 149 233 118 158 102 109 166 170 148 149 142 155 107 174 117 113 94 186 238 83 102 166 67 138 203 200 143 106 147 198 85 91 112 126 137 161 158 174 151 151 193 94 206 135 127 168 183 126 82 90 167 133 169 157 195 166 164 124 174 85 75 187 15 105 166 91 72 157 74 187 134 66 102 95 118 119 147 175 136 143 138 141 131 
107 119 184 86 97 73 101 204 171 118 158 141 80 143 98 116 123 78 107 69 156 114 140 150 95 111 128 172 68 199 126 126 177 100 184 59 153 169 131 144 92 120 142 115 99 95 131 170 117 218 36 130 155 191 117 165 131 92 154 128 164 143 106 108 93 177 188 83 148 156 160 150 186 124 166 187 142 180 150 163 97 172 49 91 165 183 93 161 51 102 166 142 57 76 69 161 76 176 52 108 
144 95 199 150 96 132 161 173 114 219 72 175 115 198 61 126 98 135 129 188 159 85 160 133 44 107 121 88 122 129 88 88 219 89 207 128 153 153 131 115 110 116 83 113 102 85 171 66 108 108 91 215 202 170 142 174 62 123 162 185 225 193 124 121 144 118 67 152 107 119 138 78 128 54 172 140 122 75 99 137 117 136 162 113 144 91 130 156 108 161 103 124 72 159 52 149 126 133 90 136 
156 161 151 119 129 86 63 169 156 67 87 104 161 198 131 102 107 107 87 164 175 132 200 180 135 176 88 133 120 157 77 78 71 130 128 183 190 49 101 167 88 74 120 167 130 172 102 118 80 189 135 89 139 164 94 206 112 122 151 105 115 68 89 105 110 104 88 105 130 187 158 118 144 104 154 95 128 100 40 148 155 187 206 111 201 176 139 123 100 106 52 133 130 84 111 49 215 179 192 66 
103 164 141 151 83 200 160 71 106 163 24 94 62 135 92 102 179 201 121 106 126 149 192 130 150 152 100 94 124 215 122 159 85 111 171 199 133 129 221 69 134 50 187 72 170 114 143 145 163 162 140 92 109 173 124 84 31 146 59 211 152 185 128 97 103 153 98 114 154 122 131 135 178 120 90 147 140 158 133 154 78 89 216 110 109 107 178 122 166 55 206 154 164 62 149 178 144 76 157 137 
154 97 150 115 159 113 162 161 137 127 150 158 165 155 135 131 131 102 127 22 132 134 98 51 171 81 62 114 36 89 142 115 140 67 137 165 191 153 94 97 121 66 129 66 97 103 64 152 67 87 182 74 174 145 120 86 158 96 92 93 149 112 91 102 137 129 128 64 110 90 109 117 85 145 181 145 210 147 155 208 78 74 150 212 192 167 126 144 157 127 170 162 82 62 75 215 72 154 163 93 
203 104 116 49 155 127 72 75 93 175 179 146 135 167 238 172 192 136 137 102 153 169 115 115 140 154 128 82 118 183 102 155 211 55 117 158 159 188 120 188 121 144 125 73 93 100 74 125 109 148 82 160 42 53 105 197 154 127 125 168 105 103 167 171 159 94 73 95 136 132 106 110 200 101 195 166 220 81 160 98 182 45 213 108 119 74 75 132 157 154 106 195 70 124 76 152 211 173 73 156 
101 107 106 24 140 147 123 116 190 60 188 144 182 133 193 95 123 193 68 183 184 197 190 143 144 61 178 130 105 97 174 66 167 101 148 146 150 96 81 114 143 144 98 118 113 172 154 134 174 135 166 97 226 47 234 146 151 165 131 117 93 108 86 97 166 193 95 106 131 111 166 154 124 162 78 117 139 165 132 132 154 186 85 168 103 199 108 70 93 111 145 43 96 132 128 135 149 83 207 114 
138 121 95 168 143 95 152 191 133 84 123 153 139 163 111 123 110 137 171 108 195 128 153 157 125 224 55 174 66 139 202 62 134 21 109 107 107 103 177 110 172 214 166 147 207 36 99 131 76 132 209 212 209 193 176 152 158 160 167 116 186 93 49 94 55 86 94 118 141 137 41 116 204 74 60 212 145 169 169 186 126 101 135 117 94 140 139 169 92 102 100 229 139 174 126 171 151 157 146 208 
94 168 114 178 39 122 101 165 167 103 141 116 160 121 196 17 134 194 121 113 94 197 136 144 72 170 147 108 73 122 109 119 204 90 72 84 70 127 163 72 88 111 83 129 141 202 202 43 127 143 135 83 240 97 131 144 195 113 118 171 118 61 92 134 72 138 151 154 72 95 212 141 166 171 184 79 77 85 166 81 135 123 134 118 207 124 136 116 106 151 176 32 108 212 112 184 160 140 203 73 
64 120 134 118 193 120 132 224 139 131 192 120 77 105 95 110 182 133 160 154 102 116 105 112 151 153 150 139 141 91 139 93 174 190 119 103 117 111 23 72 110 184 107 89 145 169 65 109 162 42 124 191 139 145 55 119 141 54 129 162 66 144 193 120 151 162 83 96 107 72 146 109 150 82 89 108 149 89 62 176 190 145 138 152 144 76 169 144 103 43 149 115 104 151 76 197 9 81 187 159 
143 92 130 146 167 164 89 137 179 185 163 133 244 76 144 131 202 114 110 126 156 128 175 134 73 80 202 175 126 77 233 55 149 95 139 86 142 125 113 157 115 59 174 151 144 189 152 105 142 145 84 130 136 98 117 184 104 115 96 180 45 40 27 149 99 118 95 98 104 190 159 91 86 147 114 134 174 137 44 76 188 50 85 117 129 166 130 54 121 163 117 109 178 149 80 144 94 83 119 143 
118 238 143 101 155 160 182 155 155 188 170 165 119 66 189 72 166 177 86 201 157 120 138 77 97 139 149 146 66 97 161 149 179 104 139 76 205 150 58 148 192 138 117 137 106 128 126 170 64 177 100 109 80 116 47 136 162 142 125 114 116 190 58 145 224 68 60 152 129 151 212 178 118 101 118 151 134 158 195 128 134 117 81 128 186 79 131 105 131 84 162 155 50 158 128 83 180 131 37 107 
136 76 35 95 158 159 52 165 69 90 93 79 139 64 169 87 142 145 149 163 70 73 129 239 49 57 134 192 163 127 157 147 135 111 62 96 166 164 228 168 169 35 117 175 197 36 131 139 182 59 133 151 190 142 238 137 98 151 88 156 106 142 190 103 108 157 187 105 122 158 208 145 126 99 81 145 54 226 77 112 141 118 110 182 158 179 118 156 7 133 128 105 157 210 97 145 103 144 174 68 
146 105 121 53 36 144 84 206 105 125 34 88 111 38 172 173 123 121 163 125 6 121 52 61 210 156 165 139 103 149 81 105 82 171 172 114 163 112 65 60 102 41 94 153 66 178 114 198 91 161 209 112 47 134 86 202 122 231 196 110 163 118 150 94 85 75 196 172 125 137 104 78 133 100 189 60 179 83 88 124 100 115 130 112 170 116 145 168 138 72 102 128 107 78 178 34 153 143 200 135 
116 244 159 88 82 114 159 122 118 126 98 147 105 69 212 141 70 158 193 81 208 133 207 135 181 118 164 136 125 94 50 178 153 147 82 93 74 94 134 127 159 145 176 122 70 185 81 125 127 89 124 100 162 154 147 172 154 128 112 114 74 142 149 114 64 192 87 112 137 195 143 108 169 165 141 165 85 175 164 112 105 117 146 90 132 123 119 104 90 162 109 152 171 151 165 155 60 115 88 129 
57 122 123 99 194 59 144 198 81 172 168 111 144 78 97 185 134 138 106 171 121 160 81 150 155 21 131 96 63 99 79 108 48 67 78 87 126 105 84 106 119 123 165 128 138 122 134 165 223 163 74 100 106 171 85 164 217 97 126 91 160 199 168 129 175 172 84 91 188 171 147 142 114 78 155 186 61 98 110 87 130 132 169 45 79 173 106 141 144 137 161 86 97 153 189 137 71 115 138 185 
230 140 109 50 212 172 171 145 121 173 135 139 90 147 89 160 118 196 177 109 140 115 141 104 139 72 164 155 115 184 66 100 107 80 214 150 75 153 172 156 100 104 57 157 110 27 194 109 156 230 147 146 111 85 86 127 176 133 162 166 192 144 107 91 121 112 172 214 146 128 136 142 177 117 117 117 130 40 109 117 167 161 174 145 76 178 129 87 150 182 98 183 161 211 130 118 193 89 104 121 
88 66 145 109 159 127 130 53 163 84 152 97 70 137 136 67 131 193 159 146 88 205 123 84 149 77 46 142 188 185 150 104 90 82 100 131 61 132 189 112 109 111 124 149 143 88 55 149 101 71 96 40 82 59 135 117 75 184 151 89 149 146 143 153 165 68 137 112 182 175 82 78 140 71 103 172 78 150 100 110 97 127 147 139 181 72 7 101 185 136 160 122 181 105 180 75 180 142 7 118 
140 146 102 142 195 118 122 197 147 139 93 81 150 126 100 108 94 88 168 179 79 118 217 164 87 101 98 140 95 179 183 175 176 118 133 87 100 102 190 54 146 121 134 218 183 98 84 112 82 135 110 106 49 94 154 68 61 167 90 86 99 86 74 62 162 186 237 138 51 77 81 158 130 147 124 22 94 153 165 124 129 167 156 125 90 26 56 141 138 92 161 134 159 112 108 99 104 145 134 183 
136 92 114 88 99 203 165 79 195 168 98 114 106 230 127 86 131 88 148 210 127 62 190 138 136 115 124 90 106 179 142 200 158 46 126 201 177 125 128 87 88 160 109 191 105 82 199 110 49 175 97 180 69 162 103 102 104 75 114 126 150 151 81 125 180 194 121 138 84 218 47 55 152 109 155 52 122 154 133 157 225 142 145 94 140 149 109 96 172 48 78 124 171 132 111 105 124 127 35 172 
117 158 135 109 120 151 66 141 163 114 123 88 133 123 51 111 87 134 128 125 80 108 137 125 204 112 138 155 134 102 17 123 142 148 114 105 112 198 160 86 108 141 94 57 157 27 195 107 72 40 95 152 123 160 148 151 78 110 149 127 110 177 64 147 53 115 102 132 103 147 131 106 127 113 183 92 176 238 127 189 199 139 121 94 139 164 192 120 175 78 95 48 114 80 108 182 145 106 116 96 
17 29 111 102 202 159 93 134 93 51 219 108 149 87 153 185 152 82 196 146 110 180 95 106 217 140 147 171 87 154 110 129 135 122 143 149 75 107 129 113 99 55 117 88 64 92 111 199 74 124 114 128 202 102 116 53 186 138 110 82 136 106 103 201 174 105 134 130 75 170 146 8 63 160 198 138 70 194 133 189 68 87 146 112 131 98 100 65 93 78 115 98 134 123 108 128 97 146 172 187 
40 155 126 54 148 173 92 93 147 105 54 151 107 90 168 94 43 103 65 160 55 104 130 88 45 59 137 80 126 112 209 93 144 63 80 183 117 98 68 121 158 135 100 83 85 91 109 155 122 108 133 34 132 99 159 81 185 69 150 146 143 226 95 81 92 162 137 72 166 115 156 193 112 192 51 101 106 119 118 190 143 146 161 138 105 93 125 110 101 66 146 162 59 185 87 114 208 146 101 123 
196 66 179 124 142 89 121 121 135 156 216 157 185 77 45 169 114 107 69 63 150 169 178 168 62 175 190 143 143 88 107 188 80 96 135 172 165 151 143 102 182 182 91 200 64 120 136 144 108 155 134 23 111 197 135 79 129 139 118 125 76 86 88 171 185 93 170 122 108 175 179 178 133 141 85 181 72 127 99 66 89 130 190 119 151 124 44 128 108 125 115 95 229 144 168 73 165 91 147 97 
