P2
100 100
255
120 156 87 173 175 113 161 131 94 138 192 86 165 65 131 125 78 88 159 130 79 71 103 74 198 192 129 209 106 121 199 143 100 150 46 81 182 181 128 137 151 62 154 137 78 185 40 132 92 89 148 132 138 145 94 158 148 126 105 143 127 159 108 121 209 195 175 161 115 100 159 74 184 82 170 145 154 178 230 177 122 109 129 97 148 196 105 93 162 194 125 150 131 82 125 161 122 125 135 92 
198 172 141 196 170 175 173 85 155 225 123 138 232 174 144 88 66 154 157 97 113 101 94 131 112 154 174 220 161 123 148 138 156 145 74 43 165 158 82 165 93 89 181 71 45 85 131 196 62 132 124 169 93 206 147 124 239 133 139 201 57 118 107 167 169 100 94 138 69 109 102 122 94 87 170 93 139 175 183 160 178 136 167 73 180 131 172 150 101 105 189 119 150 140 121 71 141 89 92 178 
109 202 162 96 108 160 114 179 136 63 84 164 111 161 131 187 80 143 27 128 121 124 137 131 64 112 174 107 159 113 227 193 192 123 111 77 154 156 143 152 63 159 105 172 103 50 48 128 53 131 155 145 171 108 63 131 164 153 40 51 143 155 124 93 125 58 81 149 143 189 155 93 70 132 128 88 195 113 75 95 124 107 157 118 140 214 64 129 193 101 141 132 54 77 202 219 157 92 138 101 
122 175 126 207 210 118 95 134 163 135 68 136 208 195 159 89 116 162 161 147 39 131 167 75 151 129 73 25 132 46 88 56 143 64 169 199 122 57 44 223 125 175 173 221 129 175 130 151 100 123 76 185 166 154 149 195 198 171 117 89 147 141 62 124 144 107 122 48 126 95 106 189 137 141 212 98 173 156 68 56 160 196 110 150 106 164 172 191 164 177 104 109 155 117 121 144 56 167 141 148 
134 131 82 96 123 128 133 103 158 118 142 147 195 96 144 165 75 173 129 53 159 136 103 127 161 80 91 136 182 156 129 127 88 121 134 86 69 57 121 84 119 78 143 108 159 119 163 119 93 143 115 79 98 132 116 92 123 133 110 161 176 114 94 226 93 107 100 81 178 112 152 176 103 148 182 95 106 50 130 137 160 125 202 130 72 171 105 197 188 92 139 185 62 108 95 152 100 109 165 118 
69 172 133 150 104 154 212 85 184 125 96 113 150 200 114 168 96 191 81 91 133 63 79 140 90 88 85 149 247 125 116 78 86 83 143 180 73 84 108 197 47 137 156 96 150 138 150 71 114 212 136 177 159 50 124 156 186 44 105 109 184 101 178 118 46 52 130 106 85 116 88 40 65 181 218 86 141 16 150 122 101 103 125 93 128 100 153 163 63 179 138 64 124 40 120 129 92 106 111 142 
124 84 162 208 123 107 89 22 127 87 210 136 122 52 118 99 76 118 28 53 129 115 154 80 75 155 141 149 98 65 102 91 83 152 161 112 38 68 42 123 110 106 116 168 140 160 127 98 127 76 104 129 128 146 128 57 41 99 49 164 170 79 105 175 133 125 123 105 105 113 152 160 212 101 119 172 41 109 57 153 172 123 94 74 205 126 80 122 183 41 148 168 146 151 111 167 55 133 145 117 
213 78 178 104 124 137 87 126 101 141 156 157 93 129 106 156 47 117 167 33 94 173 103 178 113 87 142 133 119 223 145 82 108 132 71 134 147 69 109 147 75 139 204 61 54 107 177 152 159 123 125 154 140 141 157 113 136 117 72 79 154 102 151 143 140 75 42 170 112 190 143 149 115 196 180 139 87 84 72 194 197 147 81 116 148 67 79 168 141 214 127 141 78 168 205 130 79 50 88 100 
21 200 203 132 146 105 102 152 114 102 157 181 134 179 113 130 131 112 152 56 62 78 94 89 128 157 20 181 202 63 26 167 225 96 101 175 192 50 91 151 134 193 120 132 131 63 105 134 167 91 112 43 119 177 125 119 142 163 157 168 57 104 105 110 206 105 106 155 120 156 187 146 167 107 121 89 84 112 100 160 116 77 127 125 67 132 104 68 104 140 161 116 175 135 132 99 122 114 134 46 
146 135 134 61 73 228 187 191 187 230 91 117 31 169 72 155 161 64 96 133 76 213 47 200 119 82 107 111 106 135 159 84 131 172 72 155 154 130 133 101 156 145 114 171 104 150 178 113 154 181 38 180 141 176 64 160 70 104 173 91 114 92 182 99 109 62 110 182 151 118 61 159 97 132 158 193 126 122 30 119 113 162 177 141 185 152 47 106 185 77 212 91 173 67 35 123 166 73 117 160 
48 84 209 78 98 86 131 161 116 177 140 132 30 162 71 176 166 145 96 119 79 53 199 41 176 95 190 161 132 116 158 105 149 153 157 185 168 126 177 64 115 157 198 152 207 107 142 135 113 115 103 97 176 179 108 146 149 184 158 236 123 137 163 116 186 231 130 183 184 145 143 168 107 98 84 99 170 195 169 100 185 163 167 125 126 61 48 105 178 55 208 188 130 87 91 99 162 128 136 71 
110 139 39 178 172 74 99 140 128 233 222 95 49 85 76 125 194 185 38 163 175 79 87 161 102 192 42 136 113 70 162 90 138 223 66 82 66 101 106 90 175 177 111 192 157 163 171 135 125 124 134 185 56 104 54 130 99 152 83 190 116 204 130 170 92 96 125 139 120 140 134 148 68 41 106 131 19 77 191 47 231 99 165 76 121 150 193 111 53 167 161 65 95 100 147 137 205 74 195 59 
125 143 135 66 88 184 79 141 171 116 45 208 98 66 111 78 57 195 66 167 139 126 124 115 133 114 100 156 81 95 146 111 74 174 139 96 137 144 145 142 121 120 105 69 100 127 140 123 165 86 98 142 126 134 168 62 162 127 107 205 138 139 68 141 57 109 108 177 115 76 149 190 107 130 126 168 156 127 142 133 155 127 112 195 80 89 126 198 113 128 118 127 147 121 147 118 74 173 168 120 
194 170 147 234 126 196 92 52 63 99 104 123 70 165 143 135 108 137 126 128 160 49 65 45 46 68 196 97 164 117 126 116 144 134 122 66 145 176 72 65 121 105 218 106 102 58 74 132 98 169 159 113 111 148 151 125 181 165 139 46 165 94 117 114 101 132 148 117 144 143 159 169 98 122 100 174 215 43 164 159 99 83 180 175 204 122 107 152 132 83 33 83 169 55 122 105 161 141 65 194 
146 134 64 145 72 157 73 38 157 232 96 141 128 164 160 113 171 123 70 142 130 161 137 101 52 105 129 91 118 120 105 221 141 132 134 124 180 177 123 91 145 60 61 88 136 84 92 135 42 159 228 76 132 34 47 177 126 88 181 139 144 129 148 86 145 74 204 107 110 121 198 95 173 113 149 148 75 118 146 117 158 235 100 116 36 142 202 110 78 161 151 114 51 114 130 157 120 161 71 130 
178 43 87 103 161 34 78 156 91 118 43 123 127 151 73 146 121 110 187 53 188 193 80 148 110 127 112 142 120 71 99 84 108 167 115 116 96 47 125 95 135 147 157 149 93 135 27 83 105 89 76 72 180 169 92 199 96 126 106 74 101 133 201 162 77 73 142 165 96 135 92 182 127 38 187 145 202 95 101 83 191 68 103 103 140 184 123 163 70 35 97 138 164 81 177 128 145 155 186 91 
121 58 66 98 140 111 99 151 202 160 169 103 151 60 89 97 89 162 91 76 160 157 53 119 78 205 86 79 99 49 111 165 215 135 108 113 98 168 176 104 140 55 170 195 97 161 110 89 203 92 119 83 103 65 120 129 165 166 156 95 168 199 138 122 132 118 154 74 136 120 82 172 113 154 157 81 218 87 103 156 82 72 128 125 122 138 132 159 150 167 131 93 184 182 195 116 145 151 158 174 
161 113 184 140 177 189 136 176 143 111 112 223 60 204 106 111 160 152 150 133 102 161 110 120 164 192 166 132 122 76 187 100 157 154 147 194 79 203 184 62 90 157 201 176 103 194 121 166 109 215 188 127 169 166 104 116 153 74 91 152 160 52 126 85 117 160 213 163 144 159 196 52 32 141 159 165 191 130 41 184 119 106 144 174 156 136 137 158 71 76 107 157 116 144 113 167 94 217 118 41 
164 110 142 142 127 198 189 106 146 146 164 168 219 204 162 163 142 104 83 184 110 86 147 115 146 123 105 112 95 204 140 132 203 182 111 36 114 152 186 192 91 96 102 161 136 127 23 106 133 119 201 130 154 98 95 108 162 76 162 88 94 137 109 84 75 118 152 101 189 126 158 182 149 96 93 155 115 215 93 46 50 96 151 178 116 114 201 65 197 166 118 124 82 46 96 122 204 112 196 103 
122 71 161 112 133 107 118 183 106 177 108 181 164 77 78 222 117 101 153 194 217 124 80 114 152 179 122 130 122 187 126 139 83 127 165 205 195 202 110 104 135 145 57 151 80 148 126 139 85 94 222 102 144 69 120 101 102 90 146 153 171 108 101 63 75 123 118 109 86 112 133 113 121 169 140 107 199 118 106 125 136 84 114 116 91 159 80 165 96 115 89 40 155 88 126 130 108 183 180 86 
98 120 136 184 205 146 104 139 226 124 120 159 118 120 111 163 110 112 142 137 155 153 50 155 151 161 139 132 144 88 62 96 48 143 126 147 184 201 69 205 175 116 156 171 162 157 170 75 149 102 195 92 164 113 104 185 199 105 184 173 120 100 108 89 69 53 163 133 101 83 127 168 72 102 153 153 184 69 92 176 96 26 105 99 108 100 102 105 89 121 131 150 155 162 120 162 76 234 197 134 
128 91 169 60 150 184 139 125 104 55 94 137 132 160 195 160 103 66 70 128 133 154 194 147 94 91 135 218 64 117 167 203 99 137 91 115 76 176 101 120 133 157 169 86 174 194 140 144 158 140 158 185 160 121 125 184 167 139 156 147 110 114 60 180 138 153 108 196 118 112 146 64 147 83 206 70 105 153 129 56 151 159 231 191 72 131 194 89 148 90 139 179 148 75 99 96 172 76 182 96 
139 157 98 202 167 121 61 134 167 103 97 131 93 158 196 132 138 72 192 167 146 128 79 94 134 74 189 167 87 110 153 89 153 62 125 75 92 132 135 171 137 29 97 83 45 73 154 102 181 62 237 151 156 89 164 188 56 107 135 164 113 103 53 195 195 95 218 187 193 140 166 72 121 124 190 49 22 80 133 98 193 172 138 105 126 145 145 230 163 166 87 97 110 98 163 41 59 124 150 105 
149 176 122 209 163 39 208 66 82 167 102 152 128 78 114 142 89 83 90 78 145 114 76 113 137 197 159 121 91 168 141 104 147 103 152 169 112 107 88 110 127 80 189 170 85 149 110 173 98 96 173 129 156 106 80 110 167 208 147 210 124 96 163 105 87 146 65 138 129 166 76 151 101 72 159 169 23 123 107 131 174 66 109 102 108 103 53 92 133 92 166 177 163 197 133 155 114 156 129 140 
125 129 163 164 120 159 76 168 97 106 100 36 166 179 115 170 59 118 101 84 131 168 87 72 150 86 122 132 42 63 158 146 139 70 82 180 127 131 76 138 150 103 38 132 163 180 94 150 123 160 52 147 130 199 128 106 174 147 173 110 147 159 153 173 112 127 155 191 103 73 104 141 202 162 91 154 191 159 102 160 157 74 152 150 175 164 107 97 143 89 153 120 68 45 125 133 220 163 146 128 
117 124 64 54 50 94 109 136 171 194 105 126 102 100 98 125 137 164 50 148 70 94 185 72 69 121 111 208 105 137 205 77 203 210 198 154 127 162 154 63 150 131 122 103 164 74 150 53 118 142 231 76 86 95 116 192 89 106 102 32 178 149 81 109 68 90 109 53 102 90 163 179 142 144 124 166 75 147 87 181 58 92 136 117 155 107 81 152 93 162 147 198 169 48 114 113 190 118 141 165 
106 119 92 68 156 160 165 124 66 165 144 127 135 169 123 113 193 158 95 92 118 182 143 102 98 24 200 99 153 128 164 74 139 168 115 178 21 157 128 129 99 104 134 121 121 162 125 223 131 85 120 89 147 74 68 178 36 90 161 123 138 191 147 169 165 110 158 166 43 156 182 102 68 194 234 164 183 147 158 215 133 117 71 147 124 115 125 218 128 131 134 89 112 223 181 131 88 99 179 89 
149 62 103 83 130 170 148 53 183 75 154 78 204 129 103 181 112 169 47 126 69 88 68 48 56 102 186 182 80 190 240 200 158 47 64 153 167 169 123 198 63 115 175 133 144 126 45 138 120 67 169 138 5 193 174 142 103 78 71 181 99 94 122 66 105 233 113 183 28 24 175 166 181 52 150 105 191 144 82 242 49 63 175 15 121 119 102 175 167 123 189 163 166 105 150 63 165 53 129 211 
122 208 106 76 137 189 162 196 104 103 78 100 199 157 184 80 118 65 67 150 164 137 87 77 188 113 119 162 46 143 68 125 143 107 163 89 106 203 167 147 150 81 168 101 155 140 104 136 157 148 175 176 71 132 69 160 130 58 189 148 76 102 105 130 77 123 74 147 105 154 124 136 84 78 108 106 239 176 145 228 226 149 170 43 49 136 136 186 193 167 105 81 175 128 96 155 95 138 115 166 
121 100 71 174 106 114 83 148 100 151 63 117 134 78 167 124 142 185 135 127 103 176 99 177 100 200 64 54 75 142 179 92 173 106 125 117 168 108 97 87 176 59 98 111 173 125 140 129 105 111 50 216 161 108 167 138 109 138 157 91 152 106 140 141 105 129 107 93 139 167 82 126 166 76 102 147 112 177 116 91 147 200 139 47 71 76 72 156 162 107 94 166 44 81 156 50 76 64 88 64 
147 106 86 167 176 145 158 59 100 184 117 87 112 90 110 132 123 151 178 125 199 99 147 50 82 153 118 119 51 177 81 74 155 154 162 92 156 186 100 138 157 108 172 172 112 171 147 164 182 79 72 45 123 139 81 116 31 199 222 173 92 174 173 211 148 141 130 98 53 229 56 76 123 80 88 117 129 49 193 132 89 87 144 75 104 192 86 118 107 103 213 134 88 43 90 71 67 120 155 76 
192 101 14 61 128 152 107 153 145 60 134 95 156 108 113 133 74 154 69 162 148 95 134 201 178 103 156 166 174 95 106 34 98 132 109 119 188 124 149 196 90 80 151 155 90 155 134 107 144 115 128 126 120 135 113 93 152 175 120 128 138 134 150 136 105 177 88 151 103 141 185 164 111 89 145 117 163 131 168 197 141 191 196 125 164 103 164 115 116 159 97 132 139 77 73 120 162 152 97 170 
93 160 171 82 106 89 125 93 106 154 102 196 101 128 100 138 99 157 85 124 166 192 157 90 167 185 113 93 107 149 208 104 114 71 80 102 111 147 165 224 167 156 88 154 132 140 132 49 187 76 185 119 92 129 112 89 118 179 109 123 105 129 164 176 170 126 121 135 127 172 160 58 133 111 61 118 155 116 96 103 174 97 125 136 137 102 144 187 144 123 46 66 89 147 83 108 42 181 90 102 
200 122 153 191 111 101 68 94 94 204 145 76 105 157 94 108 230 142 120 166 135 172 174 128 135 174 85 67 133 153 84 157 127 150 156 53 186 153 89 183 116 51 186 167 113 92 206 194 184 191 125 175 104 101 99 217 86 87 89 205 134 115 30 191 95 153 123 138 110 148 121 158 115 88 60 125 138 127 120 137 135 98 63 200 51 116 74 147 121 85 91 107 89 170 178 133 135 40 37 107 
174 135 105 228 131 90 158 135 171 144 141 75 101 141 156 171 88 206 157 93 152 119 96 54 86 184 183 147 113 102 168 135 91 101 30 103 156 118 194 110 132 213 192 115 185 158 138 157 139 112 133 159 54 125 81 112 117 153 78 127 151 110 121 111 196 104 158 127 82 151 137 188 78 104 155 128 108 45 87 97 48 130 134 66 84 139 131 90 85 108 51 154 120 127 77 97 121 213 105 168 
122 127 94 130 98 147 161 133 72 96 139 128 114 158 188 96 86 75 133 55 132 139 90 206 156 161 128 155 143 90 180 105 68 86 122 79 193 77 62 106 85 208 88 141 122 53 156 136 151 169 133 69 78 147 121 194 116 56 153 67 73 188 98 25 103 103 141 112 127 165 111 140 61 198 142 124 165 92 204 180 95 159 194 103 151 84 68 175 193 156 60 114 56 150 107 128 114 139 32 93 
155 103 162 198 109 137 143 151 101 168 100 107 117 101 101 184 179 177 118 134 39 228 148 153 78 120 192 111 204 149 98 90 129 188 103 128 176 105 85 66 193 141 122 168 103 191 175 66 161 131 120 141 109 124 130 86 180 118 165 148 60 156 99 118 76 155 69 145 160 172 162 114 148 149 112 72 203 92 98 68 110 71 207 123 91 111 125 146 108 75 192 219 110 224 200 138 103 127 115 159 
118 128 148 165 95 141 189 16 77 171 30 182 122 136 40 113 82 138 110 83 134 156 88 158 212 147 124 102 184 73 161 153 153 168 80 47 154 156 155 106 109 128 213 139 159 150 82 51 134 136 123 85 111 126 155 107 171 123 146 121 135 62 142 122 93 153 155 116 136 149 132 129 88 103 125 98 97 105 188 171 91 170 115 82 113 215 89 94 98 169 108 174 115 183 34 103 88 174 178 103 
160 129 81 166 146 114 143 137 179 137 147 129 191 118 129 160 128 94 90 128 166 166 216 193 109 128 135 86 124 123 120 55 89 218 121 51 110 25 115 131 148 127 134 58 83 168 63 90 163 167 111 47 114 117 81 82 123 122 88 97 101 128 138 85 152 118 107 120 50 137 36 119 102 243 110 95 88 150 103 140 143 168 103 27 121 143 111 93 173 117 81 138 115 75 119 152 79 131 75 134 
217 17 98 151 99 173 128 154 87 149 93 203 144 186 156 99 79 151 126 129 173 94 142 238 182 154 126 147 117 63 142 87 134 73 134 159 68 113 137 119 139 152 173 127 235 144 128 115 117 188 164 30 197 132 177 120 101 58 166 153 90 151 157 199 155 223 96 117 116 88 135 191 108 119 174 100 136 104 124 107 57 135 117 116 120 70 213 102 179 182 189 84 111 38 148 46 90 76 136 174 
75 136 101 115 113 192 149 162 115 160 62 110 81 183 127 162 216 88 71 119 82 136 151 134 162 50 111 137 105 201 103 226 129 73 128 176 84 146 145 134 140 126 148 60 174 50 193 160 199 53 166 142 126 139 116 163 231 43 176 54 154 83 127 79 182 173 76 133 149 160 118 111 89 111 103 143 148 107 121 128 140 195 51 91 173 51 90 76 159 139 124 135 186 127 70 145 161 89 38 105 
53 116 90 91 69 171 139 180 74 79 89 153 160 153 86 163 118 107 126 154 181 182 101 29 148 171 150 136 135 187 180 110 92 104 129 180 105 177 182 156 86 112 138 133 68 89 151 105 225 162 143 232 62 108 88 128 153 180 162 123 73 158 133 129 122 75 97 70 233 221 75 72 118 78 66 194 124 74 114 103 99 87 148 145 116 144 143 174 216 35 155 169 167 172 171 134 138 193 122 101 
154 88 102 98 113 175 200 115 148 95 136 99 178 99 130 132 144 108 219 128 215 111 44 140 78 76 73 177 167 149 100 122 186 104 41 176 139 208 142 179 117 59 79 45 132 96 120 157 196 76 136 128 101 148 80 110 118 65 150 116 139 137 99 110 116 102 189 122 81 111 170 120 132 201 143 159 125 75 83 158 119 143 82 112 146 172 156 73 93 160 111 56 76 133 188 160 157 102 156 120 
153 55 114 186 177 90 99 177 113 130 134 169 71 176 186 77 79 80 156 173 130 122 158 149 166 176 152 93 119 123 83 74 124 86 151 225 124 184 96 169 191 139 206 90 184 121 208 136 80 221 86 80 200 117 86 141 100 182 114 41 171 121 133 79 58 87 75 78 202 120 116 105 145 119 196 97 157 97 98 64 99 153 34 166 137 167 153 95 107 157 114 56 61 65 27 129 144 161 63 128 
191 103 103 177 162 174 142 120 170 156 113 148 145 103 196 93 59 152 201 123 87 196 138 145 129 167 192 94 143 202 165 88 173 162 142 133 154 23 102 104 82 204 137 125 112 142 144 109 51 45 144 154 112 166 119 126 129 122 181 100 103 149 116 168 133 130 73 102 137 170 157 124 179 161 93 114 108 52 164 32 147 151 121 106 126 101 132 120 86 97 50 109 161 95 103 217 120 90 53 116 
175 129 96 181 118 96 80 91 89 138 68 100 118 137 89 190 193 112 106 113 139 216 170 200 149 89 172 123 98 45 190 110 171 92 118 94 171 94 106 154 203 77 221 189 166 95 173 99 22 120 94 100 99 130 139 137 132 132 176 149 158 44 188 91 195 118 119 85 132 177 165 144 114 149 86 206 164 96 113 105 89 140 185 125 124 56 112 88 144 167 184 73 128 190 102 170 36 85 68 127 
129 165 149 174 169 165 141 187 39 158 157 125 166 117 162 51 226 163 132 165 197 204 189 67 218 169 232 119 125 91 130 120 112 108 182 169 112 177 153 149 107 152 112 65 135 98 164 133 158 160 132 158 86 131 103 87 214 92 176 144 101 109 116 129 124 173 174 177 170 23 78 128 75 68 191 165 96 96 123 88 93 158 136 128 153 19 183 150 143 150 148 129 51 193 138 172 170 71 130 191 
68 60 135 100 70 112 222 158 131 110 123 154 154 87 160 180 122 100 97 96 112 111 229 150 71 166 151 134 103 134 97 42 135 126 147 147 93 142 99 143 112 216 83 125 117 150 86 129 182 98 118 133 142 96 149 187 151 85 103 123 117 138 76 88 199 151 23 159 79 114 99 82 71 59 99 112 126 87 118 169 155 210 150 125 132 135 128 92 49 102 134 68 135 133 149 119 53 162 185 68 
66 62 150 125 128 112 135 142 63 66 163 162 129 213 82 128 107 120 171 98 132 51 70 153 175 106 153 53 107 112 155 131 116 96 93 166 89 135 85 103 182 146 155 103 125 172 158 103 87 116 170 106 120 68 135 96 137 158 80 119 177 86 141 111 172 161 126 68 86 195 111 158 154 144 162 123 154 152 118 138 82 88 131 106 134 144 164 173 113 136 198 152 108 168 26 96 174 64 173 126 
163 21 99 112 178 107 69 115 73 93 112 108 98 146 149 101 177 174 80 77 125 28 107 145 102 103 184 71 177 135 144 193 109 67 132 204 112 121 142 119 146 182 136 155 92 117 154 186 116 156 114 145 152 167 129 209 158 157 94 100 137 121 119 159 80 66 201 105 170 194 84 55 86 73 136 99 140 133 171 65 172 186 65 90 140 96 192 119 134 70 119 106 94 126 143 143 110 117 79 149 
92 131 163 111 213 137 172 76 158 147 139 104 97 147 133 173 179 213 212 93 128 98 172 62 142 126 182 190 145 100 65 155 71 176 137 149 147 97 107 177 157 120 114 74 167 118 123 151 178 50 69 194 91 93 124 134 139 94 100 63 165 73 207 111 109 124 149 157 174 130 142 109 103 123 134 78 148 129 129 182 137 116 107 116 196 141 107 116 145 166 101 126 139 80 163 162 67 122 128 206 
137 122 113 152 135 148 117 68 35 161 175 101 136 156 110 150 103 74 81 75 76 146 134 147 112 165 165 109 155 200 82 169 131 116 89 103 163 74 96 75 104 107 107 177 111 106 157 169 149 102 107 61 67 61 172 168 147 158 80 108 110 148 108 127 69 144 153 138 143 167 106 127 174 107 147 146 143 151 182 128 119 98 211 173 228 125 125 142 182 32 119 198 100 141 183 76 135 12 29 135 
92 58 161 94 188 106 88 150 163 170 81 143 153 133 166 135 204 59 103 42 217 126 190 124 139 120 96 125 157 67 139 102 162 122 189 132 107 190 115 60 93 144 86 126 136 65 101 90 85 61 128 155 134 120 141 56 130 129 110 81 61 43 72 105 73 63 126 96 64 116 136 84 174 196 197 58 181 168 155 149 182 214 72 66 109 153 129 67 142 131 153 201 175 185 172 136 156 205 141 86 
54 50 110 140 101 174 89 77 96 194 168 118 140 165 107 170 124 144 110 181 170 22 104 84 132 77 190 167 140 161 135 97 103 165 206 108 155 150 155 174 138 194 182 83 220 133 88 201 91 90 226 21 54 123 164 167 132 164 98 88 212 212 85 103 100 136 44 195 97 173 218 95 149 107 118 143 141 201 156 171 121 62 161 105 50 135 67 38 137 180 53 75 177 146 162 174 198 165 136 136 
180 168 113 98 42 136 108 146 68 86 69 81 144 187 104 66 99 111 25 184 65 116 84 215 101 81 108 136 99 213 121 126 154 135 117 175 119 51 161 96 104 134 70 171 109 53 90 103 143 200 95 123 173 202 59 36 104 120 135 143 160 110 146 172 106 157 172 95 126 198 88 88 175 140 85 110 110 69 176 54 88 99 122 123 184 166 75 179 207 75 116 159 158 127 99 130 95 186 155 74 
42 65 116 189 152 115 147 99 171 150 63 148 127 41 191 158 137 86 93 151 155 175 145 132 184 158 122 145 158 148 102 174 155 78 103 180 134 137 135 168 139 157 119 109 159 94 129 80 127 106 120 154 105 178 27 94 72 109 162 110 173 56 70 206 115 108 119 77 176 106 116 155 111 144 142 120 106 139 213 92 190 41 115 178 184 34 109 141 184 72 158 120 157 167 8 58 51 182 101 116 
105 69 103 161 69 59 11 206 88 154 103 150 165 174 71 65 63 105 170 139 102 112 122 100 77 66 90 178 132 82 128 75 156 71 126 62 152 91 89 136 95 89 83 104 120 109 104 166 130 92 174 123 58 104 226 207 118 119 121 191 74 74 141 113 114 149 117 145 113 74 52 133 103 162 125 162 124 136 95 134 49 151 131 93 94 126 122 116 133 41 131 134 115 86 96 169 196 63 142 129 
124 126 120 94 127 196 133 135 197 177 94 183 108 99 151 160 56 138 127 76 76 197 213 109 195 173 132 133 158 84 111 192 84 201 50 96 182 45 221 25 78 122 153 112 80 137 178 129 150 128 143 125 126 155 141 111 150 192 199 183 104 98 120 216 226 73 152 83 163 49 105 196 94 103 185 95 174 118 197 148 54 192 117 104 124 129 177 115 71 187 142 113 99 134 58 104 73 177 160 111 
142 143 85 61 90 107 127 204 22 209 131 88 90 185 136 89 185 94 112 161 219 141 149 109 184 120 97 222 89 147 171 132 153 148 65 61 71 164 142 104 136 147 121 79 131 187 186 196 108 127 71 142 93 199 128 119 70 108 171 99 150 100 46 152 84 115 127 147 110 124 94 104 122 117 128 161 197 100 152 35 133 45 162 65 100 95 192 180 117 142 78 97 106 137 150 93 73 149 139 133 
133 118 128 161 134 173 133 123 113 94 148 108 69 79 160 137 50 180 41 169 76 119 158 83 124 196 184 179 191 103 160 128 147 105 164 124 128 161 160 134 109 100 183 126 136 108 135 97 104 181 105 137 21 60 209 172 91 152 175 162 120 90 210 94 134 65 122 67 128 205 195 113 111 96 100 57 117 111 164 171 96 188 108 156 130 28 144 130 129 153 108 238 199 115 158 171 119 61 97 106 
126 157 106 83 134 101 123 215 93 207 62 179 148 62 160 83 174 125 140 49 80 106 163 173 70 119 18 161 146 42 136 154 151 123 156 85 12 110 166 106 117 196 226 192 123 169 142 82 216 119 181 157 219 155 102 22 81 153 156 177 49 154 173 71 195 97 91 146 138 156 102 137 188 105 179 137 141 105 118 101 106 109 163 155 118 117 226 90 62 148 100 157 130 131 113 206 183 86 78 70 
130 120 124 231 145 129 129 118 91 96 203 166 165 102 98 217 98 152 28 39 172 41 151 97 143 145 113 162 127 132 100 112 179 74 165 66 122 170 46 187 131 113 77 102 200 102 162 147 144 124 77 138 194 178 112 148 119 163 53 97 99 143 165 167 96 58 154 180 147 40 117 168 205 144 92 88 225 68 208 166 117 154 74 110 150 125 138 111 120 127 230 76 183 69 97 64 160 181 98 158 
135 42 166 156 135 106 187 94 158 119 126 120 74 118 193 92 175 72 56 132 170 151 142 153 142 172 116 117 155 209 158 166 139 145 134 147 90 88 87 179 57 174 123 11 196 118 105 56 78 174 164 142 18 139 172 61 152 76 128 168 157 172 131 76 135 124 89 192 150 241 105 149 164 114 104 192 181 201 120 172 55 169 136 116 126 48 206 104 214 138 130 143 30 140 147 153 145 113 129 123 
101 125 141 60 115 161 174 119 112 218 124 142 34 221 144 130 105 105 77 86 130 166 122 140 155 87 49 160 98 100 99 105 112 106 118 46 118 79 50 104 185 191 172 105 157 79 193 95 137 108 48 116 228 132 173 186 190 78 138 152 108 151 158 55 61 137 164 161 181 39 97 218 85 140 77 123 135 63 224 94 92 151 163 144 85 156 88 156 139 67 171 125 143 119 189 136 198 129 48 78 
181 107 201 84 121 92 96 85 76 105 134 130 150 82 32 155 71 69 155 125 188 146 119 177 109 189 114 106 133 62 89 139 111 157 92 202 179 117 36 81 131 52 148 159 132 90 181 142 58 109 86 92 80 149 144 74 135 174 233 176 115 169 77 181 92 90 46 147 66 138 126 120 142 99 116 91 117 86 156 56 25 210 147 142 93 198 150 135 147 110 192 118 185 64 88 138 95 88 59 108 
160 162 185 144 180 170 166 156 102 53 63 78 100 169 127 85 62 84 164 142 191 80 77 165 110 174 84 152 113 157 116 161 201 75 111 122 150 131 139 108 132 78 159 108 168 88 118 102 92 146 165 90 127 110 170 78 30 146 148 148 85 188 113 182 193 173 72 138 129 53 138 223 156 89 144 84 148 126 136 164 101 158 84 92 121 137 157 92 127 173 49 86 118 131 139 78 67 23 132 152 
134 159 118 179 102 84 128 144 96 225 102 120 128 129 154 45 177 179 116 107 145 168 60 131 217 159 187 91 195 149 103 94 124 102 59 147 74 118 29 75 65 115 118 135 80 130 155 139 76 188 107 134 204 96 102 91 73 114 165 178 99 173 186 179 111 131 155 142 136 102 87 69 182 124 155 149 128 143 96 173 139 129 153 85 55 84 223 195 141 105 103 169 163 133 145 116 113 182 76 142 
165 96 92 164 147 163 198 106 178 129 179 85 164 122 117 109 87 93 93 160 145 122 129 137 144 132 79 146 138 55 118 152 168 156 106 84 154 121 152 200 126 116 120 143 120 150 185 145 187 40 77 66 131 83 188 140 136 151 127 118 175 179 119 133 117 102 139 99 163 161 113 99 104 107 137 90 176 178 98 86 124 111 183 187 156 67 53 153 96 126 89 138 128 129 114 87 69 147 242 217 
60 55 154 88 158 205 144 140 63 94 125 135 72 176 111 73 115 92 65 139 123 184 156 130 84 131 79 130 152 143 30 63 101 29 121 95 100 66 112 116 50 66 133 236 119 128 73 154 62 146 101 26 118 194 105 128 189 72 103 114 129 140 144 80 125 160 141 121 88 164 86 175 198 112 153 191 104 164 148 193 144 149 125 125 173 99 171 152 103 151 112 109 65 97 119 119 114 97 148 87 
155 153 122 151 213 91 181 161 156 202 156 58 154 153 113 173 117 161 126 136 69 114 111 143 123 136 86 86 98 172 78 141 139 62 90 112 181 74 111 84 116 190 83 114 147 130 185 95 48 114 164 68 48 165 118 143 52 179 121 74 149 63 114 152 128 126 158 138 152 104 153 153 172 173 40 74 139 61 89 120 136 115 50 129 79 73 92 101 65 132 62 159 105 131 124 165 146 77 90 150 
53 102 162 84 112 122 115 172 185 228 129 84 152 195 138 176 205 144 121 93 164 153 91 133 130 131 148 82 132 174 103 166 81 156 171 135 125 102 60 37 193 221 62 75 93 172 139 118 142 195 167 145 154 106 88 44 98 122 97 80 112 158 115 89 115 201 112 109 92 53 73 119 165 85 67 138 121 138 138 127 116 103 83 116 168 92 160 82 109 187 187 118 212 58 168 61 94 155 152 93 
82 115 106 125 155 110 166 77 66 139 122 187 162 140 178 138 143 127 54 120 153 126 149 51 87 161 62 101 203 165 127 64 199 31 148 83 52 108 185 217 140 126 203 54 136 196 104 103 178 148 64 126 163 55 141 63 94 58 168 137 56 169 177 123 147 83 157 111 95 124 137 205 156 66 57 216 103 95 149 116 146 69 136 179 126 176 104 215 104 148 200 66 105 64 179 112 142 177 146 73 
163 105 148 124 92 42 89 103 191 92 160 115 159 81 149 86 164 195 80 165 162 136 146 138 152 164 181 162 52 121 184 134 38 142 131 122 118 169 69 89 222 85 137 50 154 154 128 116 29 158 128 85 66 152 109 115 102 135 88 165 177 156 157 49 128 135 146 64 141 152 114 164 113 173 178 110 199 102 136 44 100 138 61 104 137 139 89 154 72 156 139 103 83 49 70 140 117 111 98 132 
99 128 80 107 120 149 79 187 144 150 199 150 220 165 167 163 83 136 69 25 76 79 100 173 74 33 210 148 40 95 144 143 201 67 108 88 157 91 148 53 56 148 91 173 135 78 137 75 211 106 146 143 199 130 96 206 177 127 162 48 119 173 186 170 110 165 56 121 90 63 156 91 114 126 203 158 166 160 55 97 88 105 112 108 170 111 150 152 39 96 165 70 61 89 167 174 78 62 132 36 
146 123 136 42 215 123 142 144 137 89 108 135 140 184 124 146 127 129 82 97 159 109 183 76 128 152 158 148 143 192 192 162 137 111 154 108 78 173 114 141 86 85 151 42 85 27 119 181 96 108 129 161 76 72 183 134 145 137 104 94 208 160 84 156 131 99 96 58 192 93 182 182 111 68 136 40 161 118 59 80 113 174 178 193 156 132 181 113 107 102 199 204 124 37 110 101 149 111 83 119 
82 212 151 189 135 180 105 120 126 124 183 64 116 161 202 93 102 184 104 169 200 108 93 101 78 109 115 93 86 164 136 146 195 128 63 142 120 155 97 83 83 168 164 171 118 102 177 203 107 183 168 96 99 158 127 120 165 150 88 166 112 113 165 149 114 61 46 96 63 175 67 159 109 80 117 171 183 140 178 135 134 164 58 97 147 70 98 103 162 148 86 73 100 108 181 146 62 151 104 118 
73 127 78 164 158 97 140 123 126 117 184 186 212 137 162 181 89 130 97 122 189 155 77 73 177 171 128 132 110 86 204 141 144 138 161 88 116 130 179 94 175 78 132 86 166 60 149 189 168 155 138 81 120 195 188 124 80 179 142 104 96 96 209 126 106 114 157 95 72 164 128 89 85 113 150 140 49 152 194 200 157 155 115 163 117 46 111 130 72 190 64 111 154 126 86 167 148 187 123 139 
100 81 160 195 189 60 41 62 113 134 208 105 163 120 139 189 86 99 107 144 102 204 52 40 148 134 201 180 132 145 123 53 112 70 146 162 88 109 133 132 112 133 103 153 187 50 211 143 74 16 112 117 86 72 205 166 141 200 154 104 124 114 80 49 103 144 162 50 127 201 170 130 65 175 192 110 115 45 94 113 158 109 171 194 148 143 90 94 121 90 136 158 129 168 198 86 66 154 132 96 
149 146 85 121 40 107 104 171 90 184 139 155 186 126 206 111 39 65 107 105 30 172 100 68 137 215 147 170 106 118 102 93 67 118 72 155 66 152 142 169 139 76 63 187 141 100 134 73 145 136 103 166 96 169 48 55 167 164 80 130 97 68 93 102 184 81 164 112 134 104 93 168 145 92 161 228 196 94 89 151 211 134 133 125 142 69 59 168 151 56 152 89 127 179 174 119 86 153 175 149 
51 104 78 198 166 111 132 107 144 57 104 146 157 167 162 79 81 65 105 107 46 140 109 209 212 215 125 169 71 175 39 53 228 159 190 103 75 145 117 126 111 132 123 60 79 92 31 156 92 202 116 135 103 154 151 132 97 158 98 122 110 99 86 174 119 139 87 95 199 100 101 101 188 127 127 224 180 197 99 161 112 57 108 173 161 114 107 129 197 100 165 135 114 92 104 98 216 172 174 192 
188 83 140 149 109 141 101 81 69 160 133 150 144 74 130 227 92 140 55 57 30 119 94 123 79 137 173 98 177 111 145 61 130 99 147 66 97 106 106 126 98 126 167 93 101 95 173 122 141 77 138 152 112 164 84 155 180 75 69 123 131 98 118 128 128 70 180 173 131 108 140 140 106 167 128 202 151 192 146 107 133 138 110 78 132 163 167 143 133 159 140 127 100 178 106 103 178 76 139 46 
65 149 160 105 142 50 141 112 95 85 192 131 85 173 71 185 96 197 81 74 127 147 166 163 135 88 184 166 62 154 112 176 235 143 105 147 217 105 185 99 139 84 93 122 22 168 114 164 179 172 94 100 151 79 119 137 111 128 173 148 143 99 208 204 177 198 112 121 168 178 176 117 113 115 126 168 33 153 150 127 96 157 23 137 65 186 89 163 228 181 223 102 199 194 238 158 100 167 184 105 
73 57 101 49 101 172 148 34 176 125 137 148 73 175 143 165 152 82 71 138 120 91 178 170 171 130 108 185 133 51 146 110 136 166 160 24 182 105 141 82 189 181 134 93 132 186 62 163 164 146 175 85 68 125 118 92 173 153 84 51 177 105 157 143 143 82 127 171 235 121 65 207 99 132 98 127 104 147 157 116 181 160 210 132 137 64 69 115 170 26 77 76 98 159 112 196 150 104 129 140 
115 194 48 87 127 143 106 90 212 150 155 146 63 56 106 170 182 94 110 87 160 115 67 123 164 184 151 105 147 26 145 128 131 96 140 77 201 145 99 136 156 98 116 164 209 139 114 64 116 172 204 156 167 172 148 94 71 142 146 110 61 45 106 197 129 105 52 140 139 99 159 82 158 133 133 101 149 115 170 130 63 57 162 98 91 86 130 158 88 33 120 161 95 159 94 151 62 138 159 106 
189 161 121 84 114 137 136 138 169 127 151 116 117 96 98 77 101 141 70 178 193 149 168 133 163 157 110 113 113 104 125 50 195 104 151 149 51 123 192 125 119 81 94 177 145 172 94 133 150 112 118 143 62 143 85 113 209 198 135 167 161 142 92 190 71 205 195 69 129 115 108 86 85 141 165 200 145 75 101 73 80 60 204 94 139 63 112 149 210 84 78 123 34 122 182 122 162 138 57 41 
146 105 17 47 136 93 120 65 124 123 163 118 90 91 147 160 132 35 126 207 167 194 101 206 173 204 139 108 168 143 171 143 110 108 148 165 133 175 147 63 65 104 214 144 118 75 114 99 60 87 145 124 112 187 56 146 114 32 177 130 189 110 189 134 145 109 117 121 128 159 148 32 132 44 131 172 177 37 190 125 187 98 77 75 162 161 101 56 132 124 210 53 113 197 138 145 89 114 126 204 
161 83 118 119 126 123 75 166 149 108 98 95 164 176 123 144 163 154 220 115 182 136 91 110 135 117 40 74 137 119 47 204 134 185 95 78 148 99 159 135 125 77 111 169 127 105 92 144 156 94 141 170 110 171 169 128 52 211 136 193 53 135 136 166 146 79 197 66 170 148 143 150 134 128 105 55 184 27 70 139 168 179 78 158 32 130 92 178 75 133 164 164 77 203 105 129 125 146 151 136 
84 185 140 133 74 156 100 108 93 123 202 94 96 150 77 113 102 174 130 134 119 168 137 134 165 134 130 95 171 156 122 240 125 137 78 187 160 151 50 100 76 92 85 166 145 128 161 81 99 67 169 172 52 128 180 108 82 195 119 58 190 133 70 161 122 193 158 86 118 122 155 189 93 173 103 116 126 82 138 144 159 97 120 96 150 115 163 52 123 186 162 96 149 228 85 35 71 141 120 79 
152 145 203 162 122 208 91 133 123 138 148 221 118 171 124 159 143 106 5 26 152 123 144 90 141 49 127 144 131 222 112 182 146 148 137 160 98 126 84 145 72 224 80 76 170 158 102 125 189 77 215 170 191 50 237 192 96 113 60 176 72 159 71 88 186 198 95 192 118 160 95 170 142 123 84 87 136 80 178 128 168 108 68 91 51 95 119 124 108 173 97 143 124 137 204 149 116 220 215 90 
73 129 118 57 128 138 151 190 29 118 77 98 39 149 143 112 138 89 154 100 136 129 75 139 177 179 185 117 90 154 134 73 138 141 132 113 117 141 117 118 127 60 124 128 138 66 92 152 130 92 142 119 177 89 101 127 123 79 215 117 192 176 163 91 128 180 106 167 158 85 116 174 111 49 121 105 218 70 108 124 100 151 87 90 135 147 42 42 181 91 137 157 130 127 74 68 119 158 123 206 
96 168 101 174 148 92 148 133 91 138 99 107 148 69 159 172 96 160 164 125 109 155 22 42 113 169 117 147 157 134 188 121 193 110 195 154 68 68 89 51 104 77 188 180 199 90 203 77 101 117 48 130 96 98 104 150 141 104 163 78 103 128 154 109 142 139 114 189 58 187 178 140 115 109 79 182 40 100 146 71 89 137 158 66 138 141 151 43 131 107 206 158 229 157 51 137 151 91 173 103 
151 154 74 178 201 134 115 111 177 154 96 96 133 66 145 141 85 74 141 152 151 131 141 84 110 107 85 178 76 82 123 166 110 109 65 156 158 176 109 172 174 117 161 81 134 130 90 199 135 141 191 160 80 151 116 149 178 179 199 130 77 201 184 82 63 135 65 175 123 159 165 154 47 116 113 125 151 93 19 153 108 164 214 218 160 118 156 154 167 181 52 169 94 155 176 103 134 85 118 144 
86 148 153 61 118 136 74 140 171 133 124 169 72 69 77 159 59 58 202 124 150 140 144 113 176 109 148 173 93 179 114 107 172 115 67 84 118 143 177 148 144 147 144 64 93 193 79 241 151 101 192 180 116 43 110 179 157 150 184 131 88 147 166 69 102 62 126 85 168 59 183 113 30 76 120 162 134 231 131 162 138 135 111 198 118 141 141 160 151 136 182 128 164 106 122 141 96 78 78 122 
170 108 116 121 65 50 102 92 150 188 152 106 156 125 113 121 99 111 183 50 184 102 129 150 15 105 99 114 148 113 119 153 133 100 123 183 107 130 190 143 97 107 105 100 84 134 143 63 138 218 41 65 94 207 153 121 184 64 175 197 141 83 93 53 102 144 66 121 99 34 100 167 122 88 71 156 52 212 174 105 49 107 75 150 130 120 197 124 134 126 85 162 118 175 128 114 194 41 93 172 
135 76 43 153 85 134 76 164 56 176 59 124 91 169 73 143 151 136 138 197 143 168 199 171 195 96 123 83 92 202 116 156 85 89 35 136 86 55 93 143 140 122 119 163 58 173 75 152 105 67 123 78 183 89 54 118 110 177 77 28 49 94 165 176 175 143 167 73 162 147 90 76 208 157 121 70 109 136 137 157 122 91 46 149 52 88 131 98 35 156 154 131 70 134 75 145 144 74 174 190 
199 93 137 125 173 139 176 208 93 122 163 126 87 114 216 136 206 137 40 175 170 94 142 187 115 186 204 91 133 128 126 199 91 145 98 88 139 104 158 156 116 141 98 169 102 85 203 159 207 147 94 172 140 170 134 129 174 105 145 105 105 146 86 96 61 169 98 87 210 130 88 63 132 171 88 166 71 137 141 59 105 121 200 141 103 140 176 165 63 174 208 95 96 117 89 63 121 172 162 172 
25 93 129 160 83 110 178 94 72 100 119 176 63 209 108 143 122 178 160 172 24 77 108 58 142 199 114 129 111 106 220 19 187 129 121 95 160 89 112 39 182 150 57 92 58 20 142 163 144 126 177 102 158 127 161 223 128 138 122 76 87 82 83 97 152 186 107 23 124 67 71 139 168 154 194 92 140 132 13 162 129 149 124 76 208 123 77 194 130 181 203 130 121 128 190 121 131 118 140 81 
93 115 96 100 117 135 223 86 123 180 235 91 223 100 68 102 187 100 98 160 165 77 202 146 213 129 219 76 143 176 111 133 104 110 68 177 34 137 36 150 111 72 129 153 120 154 210 109 121 136 160 66 175 71 155 124 174 70 96 87 193 76 108 128 122 153 187 63 107 125 167 150 170 78 160 185 148 56 190 154 171 73 108 94 35 139 140 137 142 210 125 132 99 132 143 126 104 241 172 105 
155 183 56 119 116 138 61 128 100 74 154 80 168 135 25 97 164 165 200 168 146 29 80 166 141 183 144 170 182 156 159 149 136 80 105 72 66 142 196 94 101 163 202 156 143 97 39 131 141 96 67 186 77 98 74 140 122 102 90 89 193 110 124 165 100 188 79 105 99 191 144 128 103 135 130 232 144 104 170 52 148 67 159 43 158 77 103 196 33 102 100 39 144 200 120 181 186 239 103 67 
181 140 106 125 149 79 151 39 80 93 156 152 208 120 77 161 116 131 154 174 58 158 192 162 76 87 142 171 109 178 82 97 80 164 239 126 126 52 238 114 208 81 149 51 98 71 161 220 120 84 66 106 132 136 196 115 157 154 128 61 51 134 127 91 32 134 206 53 168 144 103 108 143 146 189 93 17 132 191 218 106 109 110 137 90 175 178 140 177 114 131 177 125 99 109 138 149 152 148 104 
