P2
100 100
255
91 25 95 72 123 127 166 130 37 173 155 183 101 153 110 69 135 79 168 75 150 92 113 106 120 171 68 102 99 76 129 182 79 195 146 129 88 150 55 174 133 131 122 133 123 124 185 137 167 142 155 133 125 187 112 117 159 57 92 178 137 104 206 121 155 140 174 143 107 34 105 75 103 87 126 135 114 167 53 110 146 138 204 104 180 151 191 130 204 59 156 122 84 75 171 167 197 63 30 155 
44 79 87 105 127 206 109 135 167 177 195 80 96 13 132 118 179 160 171 137 85 170 71 162 145 43 62 130 124 138 110 196 136 148 132 98 200 164 127 140 132 156 105 108 149 92 133 67 43 138 159 144 151 212 126 100 94 177 186 150 61 136 113 118 89 177 137 90 169 181 113 187 89 171 105 127 117 134 202 95 89 120 147 156 117 138 149 165 111 99 111 103 65 176 146 158 131 161 154 57 
134 179 148 134 165 121 136 218 127 91 86 91 127 113 131 103 152 63 143 65 119 164 93 92 218 90 157 97 159 123 124 115 121 53 162 115 115 152 91 45 117 91 114 73 174 103 170 114 53 129 128 142 60 157 63 140 135 44 61 153 43 112 110 151 120 145 144 151 158 119 101 125 109 175 155 123 160 132 139 213 194 182 89 101 91 117 124 139 111 58 175 133 177 123 163 123 138 101 134 163 
171 106 141 168 135 100 96 184 51 126 122 123 164 127 165 138 63 185 94 61 135 153 170 114 177 123 89 95 105 191 163 95 162 92 98 109 62 122 85 158 161 199 88 64 93 111 178 67 137 40 85 198 93 173 90 101 163 66 137 132 69 198 89 180 100 150 141 71 91 163 214 80 95 132 91 132 207 79 183 167 88 156 226 131 149 82 58 137 97 56 116 117 147 65 73 93 133 130 165 187 
101 123 179 150 118 168 120 131 191 145 125 84 167 84 213 58 113 106 120 128 75 185 105 84 148 221 113 102 161 72 98 188 129 159 117 75 33 137 56 116 209 163 117 118 150 156 174 161 133 58 93 167 80 181 131 106 135 149 143 11 195 161 187 128 57 88 141 214 67 113 128 94 114 85 24 112 59 129 170 94 88 191 164 105 193 131 161 83 197 53 160 123 75 115 89 165 134 175 175 174 
129 186 94 160 103 173 122 137 41 134 101 72 206 132 138 92 96 164 131 157 142 176 121 171 149 159 57 119 144 157 95 85 153 136 155 103 150 160 220 184 210 111 55 119 135 77 57 186 182 104 102 194 136 122 155 140 166 162 188 121 199 94 143 82 64 80 131 135 121 190 191 96 131 103 151 161 190 77 87 81 192 88 155 113 217 138 134 66 194 185 121 177 141 128 188 162 45 100 96 66 
112 93 138 241 188 137 193 144 156 161 160 131 146 208 131 127 105 141 189 136 241 137 106 202 86 179 97 58 177 77 140 175 129 113 49 143 94 97 55 144 166 200 168 145 95 129 81 129 83 158 74 133 139 180 87 124 129 140 81 196 102 149 148 187 94 95 174 152 111 127 189 76 145 178 124 148 76 68 94 197 182 140 195 148 140 156 197 133 127 54 123 74 70 127 163 97 139 112 88 64 
133 125 126 124 149 176 185 139 171 175 79 175 112 77 108 112 139 172 99 118 72 73 160 167 157 83 111 138 164 124 197 114 147 130 78 115 94 61 181 161 124 89 194 107 159 133 93 71 44 120 32 115 118 131 145 161 108 135 141 180 126 96 159 109 183 99 104 123 167 106 202 122 102 137 96 164 95 222 156 44 196 67 160 155 125 161 104 95 204 151 126 148 144 142 167 79 163 179 62 135 
128 120 125 103 191 109 25 102 171 158 94 32 203 181 133 94 141 182 138 142 110 157 137 101 147 98 110 190 85 60 167 108 126 149 176 68 142 74 158 102 167 67 121 84 164 58 133 78 77 128 197 110 80 184 218 140 173 170 67 144 114 182 128 158 159 130 229 154 185 86 102 81 169 147 172 147 136 140 127 165 96 85 140 132 176 151 79 126 166 184 139 114 92 193 87 181 39 16 93 94 
123 51 103 94 74 153 190 28 43 118 192 65 68 104 45 191 59 57 149 127 166 86 76 86 112 98 127 97 167 172 106 130 82 120 139 44 175 114 171 68 186 86 83 164 182 10 81 81 171 162 115 154 192 179 117 154 55 130 165 217 116 201 120 85 106 125 138 138 175 85 127 196 179 72 91 106 127 170 144 96 149 128 158 126 126 106 179 134 220 93 186 154 154 148 67 100 202 124 74 50 
67 97 69 208 82 132 181 140 186 120 133 99 70 41 98 229 98 91 74 189 139 132 150 210 149 169 172 113 180 127 129 160 146 69 141 189 94 54 104 116 124 123 186 99 139 114 125 158 35 167 152 158 187 123 61 183 98 70 122 190 129 99 83 140 117 163 84 135 131 129 166 120 134 101 116 179 128 113 100 213 96 123 104 141 191 156 72 145 153 125 151 91 196 185 154 101 38 79 223 184 
192 144 109 137 148 149 145 127 71 160 97 45 138 135 83 144 154 109 74 92 67 106 109 102 93 191 43 85 118 167 226 110 91 96 110 129 87 59 82 174 184 165 142 123 191 19 83 141 106 116 143 78 76 173 74 158 117 148 199 115 84 51 51 92 51 74 49 97 221 191 208 143 116 62 121 171 141 73 166 110 112 202 118 208 42 179 194 118 125 102 126 50 65 158 54 151 155 74 44 116 
143 107 96 144 163 69 73 198 126 180 69 96 118 150 166 137 111 203 178 134 164 68 167 143 176 164 131 128 110 180 95 140 105 168 112 81 75 118 138 79 138 131 100 121 99 120 142 130 97 176 104 148 102 43 186 117 206 143 200 171 186 172 167 39 89 127 195 151 126 98 85 208 111 163 110 179 57 128 154 187 97 56 73 166 156 170 117 137 143 115 113 62 144 107 134 119 172 179 176 159 
28 152 128 104 169 125 22 194 108 124 159 171 182 144 116 150 153 235 129 47 188 146 153 149 123 114 82 135 104 167 91 138 93 96 95 142 170 125 134 63 70 183 129 113 142 170 133 157 108 104 169 111 123 121 82 199 87 132 64 104 96 124 222 101 132 174 32 58 148 153 147 119 155 140 104 194 121 111 89 181 182 165 43 168 45 129 170 101 129 146 168 149 171 90 126 112 131 149 128 92 
164 104 130 114 96 86 135 166 186 134 153 97 211 116 123 187 100 106 210 96 130 101 112 172 70 128 94 91 122 201 140 38 118 191 67 170 107 147 109 57 194 183 227 98 165 105 241 61 169 99 125 162 96 194 176 133 110 72 144 141 213 78 174 138 113 129 141 142 64 121 169 144 121 91 184 149 223 181 137 95 98 141 104 130 130 179 120 125 101 70 143 105 111 239 114 58 109 64 160 130 
167 98 40 136 169 104 110 143 113 123 117 157 105 147 118 144 104 141 85 210 210 108 155 94 201 122 83 178 105 101 156 109 163 164 60 204 118 155 127 142 167 87 60 83 174 179 144 188 75 121 82 76 92 147 115 92 124 74 162 152 165 137 144 144 167 122 46 224 118 122 132 122 179 151 178 71 158 84 176 158 67 86 138 164 41 135 19 91 134 60 83 149 155 112 110 167 106 139 183 189 
154 44 27 153 77 99 118 92 164 111 127 59 83 135 68 178 120 152 177 188 124 157 55 60 119 225 159 137 87 117 106 94 126 134 209 135 108 37 154 77 121 167 113 100 127 87 94 143 35 145 122 75 159 84 55 99 167 178 76 137 181 140 184 202 106 115 59 78 166 118 144 83 184 195 140 141 155 120 148 147 92 121 153 102 54 46 83 172 33 147 154 162 239 183 179 113 108 164 59 77 
154 97 170 105 151 122 70 166 97 79 107 128 203 125 158 140 102 91 36 179 107 91 106 148 121 160 55 134 92 140 119 74 157 112 104 115 96 83 161 149 56 162 142 185 162 24 81 92 53 118 105 185 102 79 158 111 198 117 101 145 184 39 133 91 195 134 132 80 164 87 103 35 168 65 196 145 159 78 125 136 128 167 103 141 86 107 169 166 152 117 63 94 161 96 149 219 209 114 155 174 
48 141 132 165 125 132 171 152 104 74 188 141 120 47 204 176 97 202 103 103 162 89 173 179 114 125 155 41 170 195 65 156 139 115 79 143 94 51 125 135 174 116 181 128 154 100 131 147 154 68 155 109 135 160 70 30 71 163 107 124 184 126 124 109 195 155 111 159 131 142 82 153 82 144 143 95 80 53 88 151 54 41 199 218 66 165 128 114 84 95 127 139 137 213 114 152 113 37 184 119 
103 85 70 174 146 175 160 126 139 149 132 102 130 179 120 153 111 128 109 98 114 110 74 125 57 87 163 139 202 150 34 17 198 113 111 119 121 208 196 118 47 100 120 169 79 172 173 62 185 145 117 173 153 115 151 109 97 194 60 154 128 183 146 122 107 160 88 118 138 126 110 158 45 126 161 81 176 102 141 92 121 100 86 74 60 104 217 15 95 107 164 53 177 31 146 106 199 106 158 123 
132 121 92 74 95 112 65 46 117 88 117 190 195 77 40 138 167 178 134 42 81 118 101 194 125 172 164 117 182 126 126 126 108 171 125 150 165 126 125 135 73 57 95 142 153 117 87 225 111 138 168 152 133 83 137 78 197 164 80 73 51 183 151 142 137 117 50 163 107 98 104 82 171 182 153 133 81 111 110 147 136 107 149 171 112 167 68 151 78 144 103 104 55 128 92 76 83 165 148 150 
174 188 190 94 79 131 78 163 167 143 81 134 136 118 103 183 136 137 121 43 197 58 130 104 141 18 91 125 177 43 161 142 138 135 58 105 127 143 122 165 178 162 178 118 160 109 186 54 126 86 103 159 86 71 62 60 86 106 194 67 107 206 172 99 97 135 129 49 103 187 172 87 179 120 154 94 160 79 62 128 91 154 114 131 88 139 109 153 108 69 90 188 106 55 168 138 173 104 61 120 
124 133 100 165 133 156 181 121 132 135 45 169 182 84 183 117 129 163 72 67 88 64 141 146 124 144 172 103 156 54 195 129 180 138 138 193 110 165 141 125 61 51 149 113 93 139 158 112 146 100 132 144 148 128 164 118 182 95 152 166 107 151 45 120 110 130 143 143 58 121 70 125 68 93 140 115 118 117 154 89 186 131 78 147 107 147 120 212 93 89 130 102 143 94 204 114 133 125 85 159 
127 55 134 128 218 51 124 153 113 104 45 104 118 103 64 106 205 191 161 117 106 196 155 158 169 170 158 148 84 147 108 117 119 154 130 202 157 149 48 45 120 142 91 211 109 149 44 174 157 140 141 55 180 133 121 68 216 100 150 67 141 46 115 159 55 112 179 69 34 80 145 171 74 132 98 134 72 146 136 135 86 149 129 197 164 80 164 174 85 102 102 106 100 180 158 150 92 173 57 149 
82 42 38 52 151 115 157 143 142 94 46 105 111 126 136 36 92 115 129 154 44 131 112 176 101 137 88 152 171 171 76 185 102 121 170 151 231 208 127 120 135 90 187 148 86 71 67 80 144 83 138 165 229 137 148 121 96 206 150 161 93 102 142 95 130 169 128 90 172 128 141 197 210 155 157 73 182 214 186 138 112 147 145 170 126 201 183 47 73 104 98 194 146 99 127 109 182 123 150 185 
71 113 161 208 41 142 124 147 117 167 217 134 75 43 169 202 72 145 110 98 156 118 151 132 75 54 108 67 84 205 191 86 142 123 98 198 112 199 105 64 72 118 105 142 93 117 166 142 87 186 126 163 128 91 200 114 132 211 54 119 137 123 165 186 217 67 139 92 165 208 180 131 88 125 186 178 116 99 155 114 69 158 198 94 127 72 143 141 106 78 83 159 121 130 178 62 118 85 70 123 
66 130 159 57 84 81 152 144 150 53 68 129 71 139 114 227 118 137 150 121 208 23 212 202 88 101 81 114 142 116 158 146 154 160 159 132 118 70 142 131 149 144 152 133 164 122 193 124 107 115 140 156 188 163 171 183 184 113 187 121 156 115 123 90 99 99 64 101 112 128 157 179 130 132 143 77 109 149 239 152 182 199 82 115 76 156 92 114 180 215 147 91 202 128 86 78 75 77 48 87 
161 107 154 128 108 96 167 159 152 34 143 92 133 58 100 87 129 103 35 83 140 134 224 158 143 221 213 77 40 145 158 199 161 138 119 99 160 113 89 192 145 113 130 57 76 149 107 91 137 150 132 106 177 141 66 206 131 82 78 119 179 70 191 123 169 126 190 134 149 66 121 58 30 107 61 79 108 122 123 126 131 132 61 107 109 149 182 191 145 204 126 171 130 240 165 167 135 118 145 131 
90 85 67 89 111 171 131 116 136 207 117 154 85 164 110 83 135 195 111 135 93 114 156 122 84 182 98 144 127 122 63 165 75 184 123 80 74 148 109 181 139 51 128 196 218 198 36 132 109 109 137 122 78 166 107 76 103 71 217 208 102 178 170 92 183 147 165 182 130 128 100 75 173 98 222 146 96 80 56 99 100 213 99 157 113 112 93 61 60 163 98 107 137 96 81 143 198 110 132 114 
96 97 195 92 58 129 111 174 193 75 180 100 113 177 140 98 84 129 78 164 118 170 229 210 170 132 115 115 101 103 143 73 164 113 96 92 85 112 87 137 138 152 170 52 136 103 89 80 98 172 135 151 129 108 133 146 175 93 18 141 73 144 69 111 165 104 91 194 98 86 132 157 162 130 57 159 144 56 127 126 107 137 102 16 50 172 104 119 140 100 152 211 196 139 110 42 76 80 207 31 
88 112 94 62 143 79 136 99 118 186 208 141 122 50 103 42 113 78 158 145 171 121 141 126 55 90 104 110 177 119 100 104 54 131 115 94 188 206 65 67 86 144 117 62 87 160 130 72 83 129 135 121 188 85 193 154 155 125 136 97 184 115 90 40 117 80 140 133 106 145 101 156 145 173 80 78 73 147 116 169 96 121 171 50 169 161 144 99 161 135 119 144 72 181 81 137 141 138 166 97 
226 92 136 119 90 147 169 146 76 152 123 118 149 134 136 21 166 116 112 161 163 147 111 181 102 182 157 91 42 147 190 162 100 112 150 208 151 104 130 120 155 150 81 196 157 146 182 97 148 162 125 59 250 130 170 103 106 187 149 142 56 131 151 136 234 150 75 88 115 132 172 141 124 157 76 102 84 82 138 66 96 156 183 89 122 123 142 215 131 93 134 110 92 142 120 96 85 146 88 98 
108 104 191 197 122 171 56 176 114 118 147 51 119 196 90 90 140 71 84 195 199 129 127 151 120 204 221 50 55 98 150 126 103 123 99 130 140 56 108 103 57 88 204 113 66 104 173 107 128 134 212 97 102 130 116 121 228 116 206 203 108 189 181 130 127 141 133 142 152 117 133 135 204 142 115 150 99 106 175 94 67 211 139 166 100 145 99 159 137 136 74 157 186 175 138 217 32 151 204 196 
159 126 116 140 120 103 95 228 109 98 116 122 76 141 134 168 104 165 176 92 185 172 150 112 41 176 191 123 171 86 121 164 173 153 135 83 132 163 122 121 186 169 141 153 178 132 142 84 66 68 128 146 124 78 144 133 106 149 136 151 33 151 134 97 200 127 94 96 113 112 174 134 115 119 163 79 96 86 76 183 86 114 57 127 99 170 186 120 156 56 217 146 53 146 78 118 162 40 123 137 
101 190 104 168 156 125 127 114 154 54 110 173 168 194 74 67 108 190 126 104 90 220 139 71 154 146 179 138 128 58 145 98 147 93 133 177 176 133 102 96 86 141 141 121 133 105 123 176 151 91 132 225 65 107 101 42 33 92 85 105 173 68 92 85 140 93 105 147 130 79 50 123 51 93 104 116 94 127 153 150 164 110 83 146 162 152 133 108 92 187 149 75 77 172 86 133 160 184 157 129 
144 86 110 85 173 141 109 138 93 127 50 195 92 126 176 175 143 123 115 78 200 125 182 84 167 195 95 174 73 85 80 115 98 145 223 97 153 44 152 102 111 46 136 184 140 106 53 173 87 112 166 106 149 137 124 163 136 159 53 126 128 105 161 159 123 118 130 170 118 219 77 170 88 98 47 52 45 124 169 104 119 129 152 181 55 202 158 135 139 172 184 113 137 136 161 122 103 139 90 97 
175 148 192 158 120 168 164 218 199 72 105 131 112 139 198 163 167 122 206 53 121 112 55 191 151 126 131 157 105 130 92 124 124 152 110 209 146 122 140 126 123 134 106 224 174 193 57 66 111 144 158 105 73 114 90 158 104 66 105 130 78 195 91 208 100 164 122 136 126 91 126 115 185 101 170 123 212 193 127 161 195 106 173 145 126 195 199 102 176 146 137 144 147 161 174 116 194 126 193 76 
109 49 170 166 159 78 156 187 90 177 116 130 139 208 93 159 174 151 75 76 75 157 130 121 143 38 196 160 140 138 96 182 187 123 199 101 85 204 179 144 100 128 194 115 93 122 107 82 89 117 203 84 140 67 191 105 207 234 113 134 200 102 148 109 99 190 85 134 21 131 207 128 150 97 165 63 130 90 157 95 180 110 145 146 241 96 137 146 137 103 162 151 124 139 163 150 166 169 95 139 
106 115 156 123 117 138 194 133 147 170 68 101 105 140 175 138 134 95 128 127 141 144 49 194 132 187 133 154 135 153 157 161 70 125 129 139 169 111 127 137 168 138 150 95 151 149 200 128 132 100 160 141 122 168 136 132 170 169 155 97 112 109 66 107 73 179 109 76 144 169 138 118 99 116 77 87 94 119 81 155 77 80 149 151 69 174 37 198 236 80 74 142 137 69 117 125 165 99 183 190 
183 135 151 133 170 90 142 177 180 106 116 171 74 144 126 142 116 165 189 84 116 118 147 47 44 126 89 146 134 93 113 91 128 118 69 205 228 160 208 52 195 173 176 165 145 72 114 162 98 183 108 158 107 120 213 118 122 60 149 143 123 144 168 164 128 74 173 153 157 84 116 207 95 173 152 121 146 143 60 155 153 83 122 228 126 49 126 133 187 69 72 80 183 103 146 162 142 123 89 78 
77 139 173 119 168 110 89 151 151 140 216 137 180 64 81 177 131 181 138 157 71 210 198 157 175 74 98 81 98 137 121 129 124 105 77 175 89 70 203 101 133 167 111 188 183 160 128 97 90 73 119 113 164 102 149 177 160 105 56 88 88 181 117 140 147 193 118 130 220 123 132 114 32 154 106 127 156 61 205 143 198 123 106 113 206 114 60 110 79 92 180 127 88 84 91 106 91 43 80 118 
104 140 127 100 126 179 116 151 241 120 157 85 102 82 198 115 130 62 166 176 142 110 169 115 154 87 136 76 169 16 94 131 138 110 96 142 219 156 114 108 166 94 139 94 121 142 145 187 114 199 83 89 176 88 92 81 101 64 156 115 162 9 121 141 86 117 146 133 175 145 112 152 145 214 71 143 169 131 124 145 127 74 94 185 228 146 142 119 159 91 121 129 129 73 159 150 64 120 118 116 
128 61 223 176 79 138 110 63 137 134 149 23 131 107 158 142 117 84 70 127 140 200 104 169 87 154 58 130 86 73 150 70 61 184 160 87 125 155 58 107 24 94 237 109 141 187 102 127 231 107 158 138 142 159 228 122 162 161 113 135 82 83 150 137 105 168 33 184 133 175 36 138 138 109 159 96 136 129 191 117 126 115 140 43 63 144 136 143 82 126 128 93 66 172 178 136 189 153 77 129 
148 136 69 69 94 157 121 59 105 43 162 145 151 119 171 164 201 148 86 110 97 81 98 177 119 80 119 81 123 145 164 126 131 154 178 168 109 126 71 110 80 153 121 104 91 55 117 39 146 192 196 197 112 123 103 179 67 116 182 101 126 77 87 126 169 99 162 139 95 80 97 99 39 86 110 95 120 95 95 161 123 129 134 198 89 216 121 59 124 199 63 206 107 141 127 178 187 110 112 134 
165 89 96 131 131 118 98 137 86 169 41 106 143 195 145 126 143 128 97 135 176 135 152 132 154 139 125 79 147 56 182 110 197 110 96 173 112 100 154 140 226 98 144 97 155 129 93 83 138 158 170 95 140 40 167 133 99 105 201 176 153 172 205 123 149 156 147 81 111 61 101 112 59 173 178 48 170 154 107 227 141 150 189 111 53 73 32 135 143 82 97 167 83 174 34 41 135 125 96 56 
105 164 155 197 92 79 84 135 130 108 154 199 169 72 92 106 153 92 138 148 59 142 153 105 56 133 214 163 106 165 132 142 93 117 144 145 144 121 102 134 96 149 161 155 91 86 147 101 181 126 122 141 167 128 136 100 137 238 125 149 163 114 180 98 92 94 232 119 76 121 194 103 138 141 115 133 183 35 116 116 77 148 128 155 152 147 186 155 143 159 124 97 154 161 110 101 20 97 119 124 
112 96 64 71 44 167 151 200 188 145 107 103 111 53 140 179 191 88 86 140 28 98 149 124 141 150 160 134 73 122 114 101 137 116 73 98 187 87 90 24 225 155 95 149 200 118 97 91 63 132 108 86 87 26 109 122 136 83 155 129 162 185 153 114 130 110 119 148 28 174 126 122 131 206 80 89 119 94 153 131 97 144 123 155 118 123 124 100 65 79 185 112 53 108 108 105 79 130 94 130 
99 134 191 133 149 160 77 88 157 90 31 164 103 64 102 177 77 174 111 102 197 218 87 92 130 184 114 208 169 125 116 138 110 118 157 128 160 110 106 89 64 117 75 109 60 194 142 91 157 19 149 157 135 111 176 140 72 102 91 107 135 33 224 214 137 174 101 155 175 123 197 105 72 95 43 126 161 113 88 124 172 180 108 149 76 43 87 153 113 137 70 78 151 96 110 86 188 100 154 60 
155 184 156 60 28 163 158 169 152 121 104 75 119 147 100 106 46 173 151 160 199 127 171 100 107 58 89 222 141 124 146 118 173 154 169 112 126 178 128 83 143 195 86 42 126 177 142 156 165 163 140 124 46 131 122 173 176 90 106 158 59 37 172 130 97 119 146 136 87 55 117 84 238 180 112 88 117 165 146 117 150 169 145 169 146 116 31 64 110 187 134 94 125 67 100 203 154 104 156 109 
76 107 141 162 30 109 179 96 99 135 99 80 98 124 101 49 150 91 180 72 94 91 72 99 81 108 87 135 68 156 209 142 174 140 107 100 143 89 139 141 55 208 121 143 175 37 89 64 39 144 173 128 42 141 140 173 117 152 74 178 92 131 157 194 106 118 83 152 82 163 155 144 156 62 107 110 171 92 174 120 169 140 148 44 126 239 145 110 87 106 122 149 153 99 93 154 149 94 232 66 
181 177 81 184 75 102 116 85 74 171 162 148 134 132 96 42 115 122 162 145 116 157 171 40 102 109 41 93 92 174 112 145 163 152 89 129 106 103 119 173 113 159 137 31 205 65 106 85 182 194 121 101 128 108 90 148 121 196 110 100 62 158 209 88 81 51 98 77 98 66 129 99 124 64 98 123 70 107 138 153 124 117 153 159 116 172 119 169 135 118 197 55 102 110 25 116 134 137 152 140 
113 159 102 96 94 56 152 161 209 134 73 148 60 139 180 117 144 96 66 35 104 142 60 37 194 83 80 111 175 124 135 81 81 173 79 68 67 203 232 160 127 56 141 157 157 184 126 112 160 120 172 211 147 165 131 110 138 87 193 170 138 156 104 87 113 77 165 153 139 44 112 42 60 149 148 113 112 130 47 137 97 149 181 143 155 172 66 133 115 92 79 145 69 90 101 93 106 104 126 131 
109 181 127 36 91 133 130 144 147 128 221 109 63 164 215 103 131 92 131 125 224 151 131 82 98 93 162 184 124 189 100 111 81 126 147 145 54 93 74 107 136 154 125 99 102 99 129 89 103 44 81 108 191 111 115 71 109 192 106 105 109 120 140 175 148 93 109 190 147 59 237 120 80 206 63 95 75 41 120 222 148 122 138 108 192 174 82 95 133 225 139 62 97 125 149 158 171 165 121 121 
164 187 187 152 135 193 177 23 138 144 104 62 164 200 126 118 113 126 210 106 43 116 168 73 75 89 125 189 208 183 178 157 152 38 128 66 134 126 47 122 203 82 102 94 106 42 112 117 117 206 87 113 148 167 198 103 231 205 137 124 139 89 178 113 82 83 207 176 155 30 53 100 175 147 124 233 170 110 14 98 112 123 73 114 41 205 100 98 144 112 100 183 189 161 102 105 182 92 133 53 
57 118 151 131 135 117 159 97 78 130 90 68 152 159 169 108 128 163 116 156 154 150 95 127 158 159 120 109 188 124 128 143 176 180 124 118 91 224 159 111 94 101 120 154 161 147 180 111 114 103 173 185 173 190 121 76 83 159 139 90 105 124 96 77 124 97 103 149 84 126 69 179 63 180 110 161 113 110 98 92 86 98 71 147 70 167 95 106 174 133 166 174 83 184 127 172 110 100 150 123 
150 130 138 127 159 63 168 99 133 192 156 68 162 106 81 116 82 107 161 93 126 141 170 169 86 160 149 124 214 166 141 110 145 69 114 172 111 131 119 51 134 48 148 117 172 147 85 86 174 47 129 158 70 112 107 91 128 112 197 105 193 122 132 148 137 187 154 124 176 140 154 136 130 78 215 136 155 102 160 144 172 213 98 71 179 59 126 199 125 74 162 150 83 109 149 154 110 86 133 118 
166 108 172 67 115 225 53 169 91 45 35 24 198 70 147 29 82 122 58 131 116 93 160 104 153 158 121 135 143 183 38 116 156 178 60 194 144 166 164 149 135 114 99 114 190 78 107 141 239 121 134 90 174 156 131 177 129 218 116 114 81 88 124 119 155 163 116 149 128 107 102 122 161 156 116 122 182 121 87 130 148 138 208 130 122 183 183 121 135 132 127 133 177 89 176 140 43 171 86 142 
164 154 194 128 157 56 185 185 164 101 118 70 121 178 171 147 137 200 120 141 90 153 90 90 66 107 105 140 116 38 101 129 84 161 103 103 81 81 119 154 119 131 110 123 83 157 83 83 139 81 114 153 105 108 133 176 138 166 171 98 82 191 128 177 122 199 87 119 132 162 92 168 111 211 114 100 129 106 148 151 84 99 173 157 160 216 125 103 140 129 67 120 225 217 182 96 156 181 185 85 
152 122 98 144 67 131 145 103 188 194 150 203 68 57 135 81 111 175 130 196 99 91 123 99 126 152 100 72 194 136 27 183 129 177 143 169 127 225 177 170 54 182 124 132 47 166 171 46 172 150 140 100 150 108 77 102 90 189 145 49 169 86 69 110 197 112 182 162 191 114 162 117 171 131 45 102 118 166 65 171 123 74 205 179 116 169 71 160 146 125 65 140 134 67 127 149 84 28 194 104 
147 125 72 146 23 144 116 157 151 171 75 132 149 176 103 166 125 124 136 18 119 99 126 141 170 218 97 122 189 168 214 170 45 82 167 156 60 101 157 126 89 123 103 85 112 120 130 139 69 149 130 97 101 88 146 98 116 165 126 126 167 126 141 78 116 114 130 104 113 38 171 79 77 144 161 28 146 93 217 102 193 146 151 198 68 157 129 62 73 138 66 117 98 140 213 146 146 216 95 123 
149 66 113 141 74 137 122 81 185 51 97 127 151 112 124 188 161 140 19 136 155 145 166 138 220 151 168 201 95 80 100 112 208 202 83 175 123 118 77 178 130 98 176 66 126 134 97 76 135 88 77 136 114 159 152 112 117 131 130 181 102 189 158 135 160 74 127 181 120 138 87 30 138 71 92 89 161 184 141 133 115 123 182 43 93 29 194 80 86 146 137 92 67 194 156 153 109 123 84 156 
143 133 197 79 139 40 167 117 145 86 103 200 138 57 189 139 76 128 131 67 135 191 96 200 91 182 117 120 181 113 185 126 108 188 119 117 154 202 108 66 66 129 187 31 107 126 60 159 138 126 87 178 123 93 181 57 142 97 181 129 42 161 140 83 106 80 100 28 105 52 188 150 136 101 109 32 92 147 165 159 178 113 125 128 129 93 125 145 91 74 135 119 91 127 81 55 166 97 186 84 
204 150 118 48 179 132 46 111 98 127 122 92 66 102 154 141 77 66 160 188 66 86 205 121 86 165 97 123 132 184 149 101 172 151 94 106 115 137 69 150 127 74 121 128 119 197 93 133 150 161 94 143 172 157 122 140 176 86 63 124 90 117 117 123 132 80 136 160 167 142 142 161 106 61 163 84 125 149 151 138 85 145 155 197 161 201 58 26 152 78 187 154 125 132 132 88 98 111 89 159 
183 111 66 98 197 107 213 108 79 135 113 117 165 143 175 133 159 124 122 136 92 155 103 118 188 138 103 155 132 73 119 131 143 106 130 188 164 172 140 145 159 156 134 121 102 136 77 31 215 60 197 78 75 116 110 145 113 99 78 125 65 171 88 82 145 150 166 143 141 87 230 176 105 103 225 129 90 219 111 175 76 142 78 83 59 180 118 201 176 69 116 80 85 158 154 129 172 140 116 57 
116 104 130 177 78 144 81 183 111 172 157 118 134 98 212 107 97 126 129 105 90 99 109 155 85 154 84 127 128 161 107 65 193 195 179 133 171 174 149 179 74 228 154 99 176 200 97 130 202 200 183 74 81 147 144 139 159 91 208 173 79 115 109 99 65 165 62 183 123 188 99 102 99 90 204 169 167 161 131 168 172 195 92 142 21 162 108 112 156 125 80 137 131 130 131 76 79 190 83 85 
172 99 131 209 143 164 73 31 119 218 104 161 157 118 75 91 91 184 122 26 160 65 101 177 191 152 109 117 111 131 112 150 144 115 102 99 124 84 107 84 197 139 132 127 143 198 102 141 158 124 118 177 156 96 106 174 117 167 57 106 147 112 67 180 177 142 148 143 150 78 129 173 128 117 186 42 174 166 94 152 95 151 133 167 189 189 165 124 53 103 137 144 140 103 131 104 217 115 124 108 
116 171 153 116 87 118 109 113 195 128 171 101 82 93 135 139 109 100 149 100 100 174 36 119 226 115 95 58 200 72 146 182 178 62 180 85 78 61 153 197 117 115 197 176 127 32 169 214 35 116 84 186 157 101 112 106 87 126 112 81 133 154 171 125 91 70 173 75 147 163 148 135 127 156 114 140 114 121 88 226 93 60 108 86 69 215 144 144 99 137 128 111 206 162 104 145 59 122 128 174 
134 69 148 200 140 123 229 95 133 89 173 121 135 104 125 200 135 30 87 144 142 115 185 179 87 46 84 53 159 69 26 113 90 73 179 118 132 154 176 210 189 202 124 99 139 122 140 105 216 159 122 127 74 111 120 44 104 172 114 111 173 185 129 122 145 129 98 87 107 137 133 57 41 76 105 109 155 202 55 153 162 223 181 165 100 103 118 165 129 100 187 94 135 138 163 105 125 119 128 106 
236 167 54 159 126 169 67 215 78 90 66 77 87 176 160 175 151 157 151 136 222 66 66 99 147 199 142 131 148 163 118 150 122 210 13 128 111 69 52 174 200 134 186 133 108 144 159 105 111 46 112 143 114 111 161 185 172 116 64 127 205 54 74 44 108 110 98 129 99 124 92 123 105 168 87 70 91 216 162 154 113 79 105 92 56 76 149 199 122 134 167 146 107 114 98 141 155 157 108 125 
102 163 163 107 58 107 73 120 223 129 47 61 102 135 141 134 219 117 136 146 123 140 79 156 175 193 89 175 194 205 97 176 163 177 52 125 53 114 78 100 55 112 121 116 25 140 93 87 182 82 165 122 130 108 136 142 172 185 102 183 172 147 63 181 159 100 112 154 134 104 180 139 132 110 133 136 93 79 42 112 170 95 181 173 44 65 134 150 127 68 128 78 120 79 132 114 146 137 158 118 
118 146 135 113 153 143 232 52 93 100 138 56 103 148 115 47 98 140 75 158 137 165 88 122 136 59 122 107 99 101 106 111 123 81 88 118 94 103 150 154 63 103 217 51 93 121 130 152 159 93 96 60 136 184 103 150 79 138 143 118 125 154 183 74 127 151 187 72 143 95 169 114 147 139 87 56 87 152 79 71 108 177 164 125 153 105 75 113 165 53 140 201 85 167 135 134 79 129 111 105 
86 111 81 141 108 74 130 170 82 144 121 105 71 21 118 94 68 156 106 65 179 113 36 195 96 122 122 99 129 165 161 67 185 107 164 178 61 145 95 124 136 120 106 187 155 61 152 80 186 96 158 56 147 155 72 100 188 130 74 91 82 139 92 45 103 134 149 148 93 147 130 92 119 126 175 95 127 4 148 104 83 155 92 75 138 176 80 140 122 153 117 194 155 160 129 128 147 79 150 142 
198 77 102 56 140 144 155 158 108 126 174 200 158 139 201 134 132 90 113 54 74 63 172 185 149 127 158 101 165 106 54 171 151 91 109 85 93 99 98 130 196 136 129 165 196 131 159 90 93 150 163 163 105 127 129 198 123 90 177 204 105 142 51 63 162 127 65 164 101 138 143 79 218 166 178 100 160 59 140 126 110 96 78 128 161 159 102 111 110 84 178 156 175 91 78 190 160 63 137 190 
97 101 104 88 184 115 127 216 124 127 121 50 164 224 133 47 120 127 143 227 180 217 178 74 138 104 138 115 61 137 193 154 163 112 161 118 90 218 217 136 129 167 148 95 169 145 179 116 143 197 159 131 62 102 152 104 74 66 157 119 176 133 172 133 97 130 129 106 87 93 69 124 146 181 53 210 126 113 108 188 199 123 154 215 154 156 122 97 133 152 129 143 137 192 100 170 138 20 77 112 
215 123 95 216 223 51 227 143 78 113 192 207 147 184 204 83 103 118 200 115 99 143 67 177 157 177 73 108 179 171 94 136 165 69 142 161 201 133 123 102 193 99 211 69 151 66 157 126 93 94 150 114 106 67 163 167 89 148 93 159 187 129 99 112 121 49 109 162 196 147 158 129 109 86 67 187 187 179 164 146 69 68 105 156 129 90 114 68 72 115 117 101 57 196 154 130 179 152 97 129 
201 76 138 162 132 122 154 189 153 94 78 56 148 129 153 166 44 194 97 81 166 157 141 166 148 134 120 86 144 100 86 61 107 206 60 75 121 47 114 95 111 144 148 155 194 133 75 162 121 90 142 149 117 62 73 107 141 173 119 102 119 151 144 123 148 149 172 172 160 84 85 126 235 146 159 109 112 136 145 126 140 61 76 214 125 167 59 157 139 132 124 150 93 202 142 194 92 219 144 221 
113 96 143 139 85 54 80 81 143 127 198 107 144 101 157 188 114 106 190 84 199 59 125 134 85 172 82 188 191 156 131 142 54 103 142 153 139 72 144 167 55 114 138 60 141 144 50 149 130 55 152 74 70 145 163 94 95 112 101 155 149 91 206 201 143 135 168 143 189 106 153 152 89 176 196 147 101 145 131 132 149 100 215 174 112 75 129 30 86 101 114 158 138 93 81 121 91 178 134 158 
137 96 213 125 95 142 164 136 204 136 129 163 98 175 110 106 177 74 210 54 107 41 153 120 105 95 122 110 218 94 150 118 110 93 197 130 184 169 153 156 111 146 134 110 114 127 211 92 141 87 194 28 156 118 99 114 82 160 105 108 41 54 56 84 169 69 114 39 130 144 67 175 86 158 107 168 65 92 151 164 65 76 150 50 114 184 95 68 176 183 84 48 62 79 103 131 83 100 160 55 
131 110 140 100 65 187 154 146 86 50 100 169 118 129 125 157 186 79 86 153 182 223 156 46 130 129 119 129 92 109 159 154 184 109 121 142 92 123 88 177 198 158 90 205 125 191 99 68 84 129 103 113 194 179 85 99 20 85 62 108 171 182 185 168 89 170 182 144 164 141 81 234 116 129 143 176 174 155 212 172 135 171 77 109 57 89 158 118 91 76 104 140 84 191 15 88 63 99 127 181 
169 84 157 117 152 123 134 141 112 41 134 144 49 72 157 162 73 102 217 173 174 100 126 67 172 90 156 201 153 136 30 74 108 120 137 218 169 151 172 179 161 206 96 111 91 140 143 82 47 61 87 62 141 87 41 95 68 125 70 215 125 130 67 169 158 131 168 93 122 95 103 78 135 72 180 162 125 139 132 102 154 148 190 126 150 136 88 147 171 131 157 144 119 35 153 148 218 137 152 95 
125 161 179 170 126 90 114 151 114 146 140 128 147 77 116 127 130 85 97 97 219 135 100 118 106 82 152 85 123 216 91 70 76 188 151 163 121 114 202 128 205 149 123 171 129 221 132 147 179 92 99 125 135 124 131 96 198 121 171 68 107 132 125 141 156 101 72 101 74 93 221 67 207 38 194 137 88 185 140 172 152 150 109 120 21 151 137 80 235 167 113 169 98 159 186 90 122 162 120 193 
126 90 95 122 109 169 77 154 155 126 188 118 168 143 112 102 163 117 110 189 177 48 104 152 112 93 110 149 156 146 174 90 150 61 100 107 105 118 105 105 54 116 110 156 85 171 195 205 106 191 143 164 104 88 71 100 116 67 151 105 103 118 112 190 138 143 160 113 126 144 115 141 94 158 202 107 168 94 153 141 120 77 84 124 105 87 112 118 208 52 157 135 101 122 164 128 147 178 75 83 
114 79 107 165 53 174 81 192 129 137 144 165 171 163 125 207 26 109 83 188 103 180 173 101 87 81 232 172 165 126 108 110 187 24 96 134 128 134 40 99 135 70 153 126 198 150 205 133 122 142 145 157 55 134 137 202 78 130 135 152 146 88 144 76 133 144 131 117 184 127 130 110 90 182 170 102 185 128 116 187 86 80 149 181 120 193 133 65 74 117 108 122 121 110 168 134 152 229 139 97 
186 123 126 134 80 129 108 116 110 132 93 151 91 111 81 141 119 59 126 152 102 63 128 73 151 115 135 124 149 153 130 121 141 117 141 115 69 83 155 54 138 50 165 126 110 109 178 121 103 118 97 119 118 102 56 121 208 168 124 192 125 119 157 70 67 179 142 106 161 133 170 114 126 66 126 136 135 67 100 132 94 100 158 125 52 63 127 111 33 170 91 154 201 173 82 29 122 144 39 181 
140 170 38 171 47 227 94 67 68 169 119 77 194 126 178 93 98 69 62 45 127 79 158 148 76 82 176 139 211 25 217 107 62 24 114 106 87 53 176 92 193 109 111 123 112 34 96 127 138 130 187 70 161 149 93 110 180 99 108 80 150 197 131 111 105 84 135 106 152 105 92 167 184 126 177 112 200 158 92 138 105 120 71 66 156 147 76 135 76 185 140 124 176 137 107 178 94 54 101 135 
103 203 116 183 64 90 189 227 137 168 124 195 77 106 120 149 36 168 107 135 136 228 140 127 122 174 135 126 140 98 124 185 127 161 70 72 152 94 96 93 139 116 137 61 161 139 150 183 211 137 165 196 172 174 139 146 101 83 99 123 76 140 103 89 138 210 101 138 70 181 81 107 153 104 161 190 57 45 113 117 150 156 114 86 156 147 94 112 159 99 85 110 60 199 23 155 120 78 215 179 
67 188 98 62 88 152 130 162 160 122 139 146 112 112 110 120 142 112 93 160 164 149 74 97 170 176 104 159 153 144 118 71 114 38 80 179 196 67 58 146 63 76 89 174 225 61 155 68 110 182 72 71 97 131 158 151 191 169 118 153 124 110 115 121 118 167 123 85 164 191 83 208 159 97 140 98 88 122 138 122 80 155 170 123 137 165 151 179 196 217 232 74 153 48 147 193 173 207 143 130 
184 122 143 150 126 174 139 101 112 187 170 155 106 172 183 146 130 160 163 147 177 147 25 115 146 174 146 85 176 106 112 117 103 58 111 166 191 181 155 34 146 127 89 202 97 169 111 173 166 156 93 120 121 88 80 168 137 110 123 187 211 155 76 176 192 181 178 62 134 178 123 167 73 105 107 126 99 100 116 84 160 105 112 74 48 127 157 201 82 109 76 216 118 94 165 129 80 169 145 174 
124 110 138 22 101 152 165 98 146 144 207 48 169 117 156 78 190 117 101 154 146 163 79 62 81 175 123 137 177 86 116 119 176 181 193 25 163 94 126 46 158 146 70 156 54 149 141 166 198 160 188 62 157 27 135 154 139 118 40 204 151 143 85 154 123 202 154 79 198 115 88 164 114 144 108 89 114 129 154 104 155 114 147 116 248 94 155 105 82 146 120 184 143 122 156 84 109 140 132 164 
217 154 100 170 112 129 132 214 155 73 83 110 75 54 122 110 138 155 205 30 147 139 139 138 55 159 111 148 90 109 179 154 90 51 139 147 195 120 200 185 116 160 161 100 103 139 102 103 83 91 70 172 156 58 160 134 68 34 100 163 124 178 217 150 158 125 120 168 154 80 100 174 109 190 124 204 84 41 86 46 129 125 144 179 102 86 96 181 97 175 164 104 114 130 137 110 146 155 104 145 
101 77 107 192 146 186 142 104 98 82 128 127 192 40 168 169 130 188 82 164 164 160 101 149 111 95 142 74 195 57 201 142 113 148 175 130 176 170 121 181 129 132 74 140 80 156 62 193 144 140 129 48 126 63 167 150 165 169 226 125 147 143 112 51 167 152 81 63 87 178 75 146 139 107 61 185 148 110 150 162 101 87 85 138 126 104 123 85 67 122 149 131 153 43 109 75 87 106 52 138 
162 159 138 159 154 114 124 122 111 107 136 90 95 38 82 138 144 117 96 76 139 189 113 90 92 66 153 120 83 84 172 208 107 61 162 176 141 174 128 74 102 149 114 142 139 136 116 102 117 82 138 80 71 147 38 109 130 144 52 132 102 100 161 110 130 169 119 108 120 152 103 50 149 162 121 150 173 174 177 204 162 136 150 151 147 102 122 142 180 154 94 114 124 166 127 163 148 50 134 116 
114 226 201 167 146 179 234 172 101 98 162 105 225 168 217 184 106 104 194 198 134 23 51 105 113 176 166 95 55 181 165 94 107 68 158 154 172 119 109 44 125 89 202 129 137 84 89 105 134 107 119 151 154 154 182 98 178 126 147 141 117 88 196 128 129 90 148 137 192 69 161 160 140 122 216 77 148 122 68 204 152 155 174 180 79 111 115 108 131 188 70 41 152 129 63 120 88 137 27 71 
206 117 38 180 28 170 166 158 78 164 84 91 145 163 190 135 136 141 94 98 191 154 181 121 106 183 131 33 171 195 160 224 165 193 131 134 69 176 54 113 107 41 125 117 104 96 140 193 152 69 212 91 125 160 67 76 178 104 112 80 153 162 141 125 155 150 191 197 89 186 96 161 98 92 179 146 107 121 145 116 126 40 128 159 210 164 176 222 128 203 69 159 126 186 161 94 161 168 175 202 
170 193 141 111 156 144 73 77 129 125 177 77 152 229 143 77 101 122 86 131 176 174 155 170 79 101 110 215 148 149 137 82 35 72 183 148 144 134 136 77 66 152 68 111 87 120 105 175 89 137 189 117 98 141 138 178 110 178 124 120 120 186 75 103 107 146 90 214 106 154 147 75 167 61 167 174 98 128 122 184 133 206 109 188 154 156 110 97 110 125 97 162 165 87 79 149 104 129 110 91 
199 166 169 204 107 132 159 101 128 232 221 104 70 219 111 107 162 38 123 106 123 167 122 83 191 143 52 185 117 81 140 97 141 154 218 99 160 181 159 96 92 63 157 60 145 83 96 111 71 120 199 79 111 90 140 110 137 79 173 117 169 186 100 209 111 117 96 127 168 119 149 214 192 71 153 127 96 153 60 118 121 134 100 104 106 147 172 46 132 147 102 92 140 69 69 110 152 101 102 190 
110 64 164 121 80 170 140 83 30 89 60 83 152 72 170 109 104 169 160 84 121 120 151 79 142 98 128 116 81 162 190 97 135 69 128 156 137 98 75 187 70 82 163 149 167 184 112 126 86 61 147 163 137 191 139 217 117 228 165 141 110 118 130 90 107 185 113 105 100 118 90 112 171 78 161 89 192 101 33 64 52 87 142 144 56 126 159 164 217 119 101 157 136 113 87 94 158 186 146 152 
157 109 150 202 135 95 130 119 132 73 74 182 123 116 147 119 88 159 119 94 131 48 94 226 167 87 94 141 124 148 107 57 204 99 81 146 105 156 89 145 47 90 104 93 184 95 145 104 100 125 90 158 139 100 126 88 97 123 99 63 193 119 101 86 157 192 185 137 52 188 141 155 141 134 138 101 100 173 93 137 191 189 119 126 113 88 131 73 109 111 135 150 83 169 193 139 66 153 156 187 
129 165 130 170 145 93 70 158 109 84 214 132 192 105 122 62 114 92 133 158 114 149 96 183 113 85 166 121 141 155 180 72 77 131 157 102 159 144 68 185 166 115 110 54 66 171 143 154 163 134 75 167 121 129 37 67 238 206 125 145 93 142 113 98 197 124 80 113 91 58 153 156 199 155 146 62 169 112 94 116 137 146 131 213 66 143 88 87 150 128 164 122 150 137 162 104 172 121 127 70 
127 58 112 216 89 117 101 44 98 64 189 126 91 25 95 146 142 180 112 82 143 92 172 173 126 67 211 103 148 173 166 167 129 49 195 145 111 155 208 124 81 104 98 123 109 61 184 144 73 176 135 88 91 212 117 175 150 140 88 193 108 119 105 166 91 72 92 120 131 173 125 108 229 207 137 199 116 183 119 109 166 117 80 112 85 123 75 86 68 106 164 100 57 132 133 146 139 172 151 162 
