P2
100 100
255
140 202 106 152 139 101 196 175 145 85 147 131 158 172 67 125 78 60 105 140 155 139 136 171 146 169 142 154 111 91 163 149 92 87 87 142 152 93 178 138 35 101 156 140 145 158 128 142 168 109 143 215 128 108 90 70 128 223 178 121 105 176 140 40 164 162 142 151 169 50 160 178 151 195 42 90 35 47 165 205 173 125 91 83 163 112 186 149 117 98 101 184 160 132 145 154 138 122 67 94 
86 74 126 16 155 158 97 156 120 88 124 128 183 57 93 74 147 78 118 117 170 100 162 148 113 73 177 123 131 143 102 63 109 95 73 99 76 124 128 75 112 156 181 98 120 82 168 79 89 133 137 146 69 123 97 104 154 155 102 77 120 187 116 77 69 126 118 134 140 82 200 137 162 182 216 196 133 83 105 132 125 152 101 82 155 82 184 110 177 125 154 127 128 153 56 100 118 95 133 150 
203 126 44 74 88 92 141 185 140 60 157 77 59 113 94 121 117 81 128 13 125 195 122 47 104 183 129 97 152 35 155 118 52 64 109 160 126 136 57 165 99 174 53 65 178 129 252 128 185 80 126 105 69 73 133 140 126 173 103 128 154 167 142 120 121 112 205 127 158 195 67 120 111 122 80 220 139 152 140 120 141 195 120 112 148 91 77 154 76 71 157 109 71 73 76 163 130 194 103 89 
104 78 104 161 110 150 176 144 56 88 85 115 112 169 194 202 89 117 98 110 178 174 133 75 120 101 99 163 101 134 161 130 72 132 168 199 206 66 59 166 181 92 126 13 108 144 76 160 214 94 122 123 29 113 147 60 11 123 75 146 148 120 103 92 186 84 86 86 44 204 165 59 122 183 119 228 93 75 215 149 203 146 80 146 77 195 147 56 201 170 115 196 168 156 137 153 117 89 57 141 
215 165 184 164 59 143 149 97 36 102 117 153 96 179 197 142 84 88 158 148 128 52 169 103 177 168 126 73 107 176 140 108 97 98 167 60 138 140 185 90 199 127 160 136 143 184 190 142 161 146 110 120 115 104 120 144 133 167 182 109 24 125 91 128 77 58 56 150 54 122 157 85 117 190 218 153 146 96 109 154 153 148 109 81 163 59 85 96 72 150 106 107 143 55 169 143 65 129 126 119 
79 116 84 159 136 148 115 180 103 166 100 132 114 102 170 117 152 142 85 90 174 157 143 150 159 125 93 116 90 130 174 40 72 70 41 148 156 72 122 193 164 138 134 93 98 61 141 108 121 142 90 89 118 165 148 187 141 56 90 161 127 160 66 165 42 98 186 164 144 71 190 122 196 46 225 152 107 150 90 181 102 85 118 115 116 159 155 139 165 26 73 160 104 70 59 138 111 141 164 145 
85 100 113 125 148 180 78 114 98 122 56 99 105 131 134 48 141 131 104 48 201 204 161 80 99 167 160 159 169 143 132 132 129 130 171 97 128 120 72 190 89 112 37 37 101 25 165 132 135 150 154 218 180 83 106 143 122 180 233 102 144 93 30 28 102 22 184 99 106 148 87 205 73 103 123 101 77 175 57 91 167 187 169 227 88 201 137 42 149 159 123 95 65 157 165 189 106 103 95 179 
184 114 106 174 104 131 28 84 186 159 171 129 171 163 147 177 152 38 73 29 88 108 184 121 136 184 97 82 210 90 118 154 36 188 132 60 114 100 103 122 153 172 138 88 158 136 117 151 112 168 188 114 135 85 182 98 30 208 191 92 88 112 101 136 179 88 119 146 197 196 220 114 174 155 165 135 177 103 139 65 156 152 142 92 140 106 152 113 164 156 94 64 164 64 50 151 146 142 139 159 
190 159 171 150 184 49 139 118 186 150 49 53 46 139 123 136 141 102 120 138 72 118 172 165 183 105 80 114 119 99 201 178 103 120 162 152 70 108 162 130 55 119 133 73 38 117 101 64 130 111 142 139 199 175 201 191 83 152 186 103 115 102 63 108 86 142 57 160 169 101 109 71 233 172 153 128 100 52 175 104 177 137 164 219 128 93 161 167 93 107 184 194 123 153 163 187 83 166 60 149 
157 171 173 181 55 62 114 61 85 131 147 92 180 137 125 164 104 197 124 77 98 59 126 90 76 93 151 62 153 123 188 73 174 170 198 133 174 185 70 141 150 112 160 169 87 158 144 82 182 133 162 55 176 195 63 122 104 159 39 169 63 125 81 195 169 198 158 106 141 160 83 90 62 121 194 125 56 81 143 107 194 138 63 138 161 147 164 99 120 153 137 125 115 135 142 139 173 144 78 80 
124 108 93 92 93 99 127 108 98 149 139 63 65 186 126 144 105 157 56 152 128 144 159 130 152 141 110 169 101 82 95 67 118 211 151 84 145 231 118 115 101 165 178 101 140 118 114 165 188 205 178 127 120 105 139 141 185 152 130 145 74 113 107 113 119 172 128 191 127 168 115 137 125 166 196 141 150 157 196 181 117 160 129 231 180 110 153 151 109 190 181 129 139 110 172 110 125 105 92 60 
129 159 94 73 127 96 129 83 127 167 143 56 138 128 90 130 70 131 128 167 170 172 123 99 219 213 207 146 133 176 182 116 54 127 75 77 187 71 95 231 176 132 171 153 134 148 109 160 81 101 138 90 88 133 97 124 152 117 192 166 163 145 106 89 102 85 88 180 166 108 149 87 142 148 218 118 116 45 203 129 161 139 186 144 90 83 66 65 142 154 198 104 148 111 113 197 141 169 104 66 
205 153 83 123 77 73 100 29 139 91 111 164 195 93 169 114 37 135 199 181 198 170 71 77 106 193 161 154 185 215 111 120 142 77 151 114 123 121 101 179 131 132 152 81 71 200 18 149 111 127 97 156 45 136 137 151 117 181 88 134 62 99 53 64 194 108 115 82 105 81 58 101 67 175 146 139 191 45 138 150 110 175 154 90 68 192 191 79 179 125 20 134 88 132 140 97 139 140 156 114 
124 145 214 162 102 136 97 114 61 91 91 88 147 174 93 191 50 53 170 214 89 112 42 109 126 111 61 125 218 161 159 184 67 98 164 201 85 150 185 117 80 151 111 152 139 93 114 212 111 122 62 138 89 43 155 45 162 107 109 179 132 113 139 12 93 58 223 63 150 178 150 76 149 188 97 227 143 97 88 146 83 137 184 87 88 140 141 157 112 108 214 76 76 77 91 158 100 128 162 188 
148 127 135 30 108 120 142 149 145 166 143 153 120 28 99 120 151 106 204 160 139 83 142 171 112 126 128 120 108 144 138 144 108 204 68 83 165 121 158 99 139 90 200 144 126 195 122 222 108 124 105 141 112 115 64 154 168 95 161 89 179 53 149 78 151 161 103 156 195 81 106 117 100 149 131 150 79 120 53 64 140 39 118 133 155 155 166 121 86 95 58 156 128 115 200 130 138 53 111 140 
72 105 110 78 151 170 142 101 171 108 91 114 99 76 131 86 180 119 168 120 103 168 82 159 117 113 93 62 157 170 118 151 60 159 180 165 94 78 70 196 34 108 161 90 180 198 131 119 135 54 209 86 159 142 22 88 142 179 72 98 103 116 110 207 115 185 184 152 109 145 166 184 144 171 167 224 115 41 130 202 108 163 90 141 120 108 171 88 176 84 71 75 152 193 161 181 138 160 97 149 
154 153 91 114 178 128 127 188 57 182 60 101 113 187 79 235 173 182 105 114 52 55 134 159 167 115 150 153 166 76 134 55 85 170 125 77 190 123 130 104 98 102 127 128 85 151 125 130 111 143 166 123 44 53 167 76 201 57 211 111 177 42 200 108 116 81 69 111 94 192 181 226 86 83 115 53 112 154 131 98 111 139 129 90 95 132 134 117 113 142 129 150 93 85 91 97 98 201 103 130 
193 165 113 115 209 42 131 161 116 35 54 96 117 152 35 189 192 142 69 133 28 94 90 119 184 154 134 115 193 176 171 73 155 106 126 104 164 105 155 181 147 25 85 97 156 128 120 184 141 133 158 63 144 152 33 209 84 102 93 144 155 166 144 166 121 146 170 102 164 102 60 109 82 154 103 192 192 195 134 120 85 99 88 79 148 40 194 143 151 152 161 123 110 143 112 182 125 166 199 107 
112 115 141 183 185 44 128 76 122 181 91 155 106 198 184 89 165 93 111 116 96 66 51 96 93 120 64 88 140 136 137 134 136 159 56 121 59 112 140 190 150 179 195 188 70 63 154 156 190 100 67 184 129 172 111 130 210 108 168 127 64 108 117 139 156 182 189 136 82 122 205 105 92 131 127 138 90 77 70 197 138 221 74 75 117 54 129 180 215 114 120 165 164 87 113 101 179 103 153 83 
96 86 94 54 149 175 205 73 112 135 54 126 90 113 66 128 115 172 94 30 133 103 160 113 155 86 171 83 142 146 81 195 202 119 135 135 167 167 68 42 160 184 168 94 64 160 162 170 36 125 52 92 122 201 183 123 132 139 133 121 98 202 181 98 178 55 129 180 214 90 145 144 153 184 183 143 37 158 122 160 95 63 98 168 85 115 110 190 207 151 186 68 128 129 212 92 111 136 107 164 
182 100 126 106 164 163 108 147 138 60 84 224 113 148 85 106 212 90 140 124 29 166 128 177 212 97 117 129 231 95 77 159 122 94 101 108 181 198 73 132 27 112 203 207 81 41 144 175 52 81 97 121 148 52 119 70 97 146 156 60 85 116 149 170 77 114 202 32 212 75 85 166 93 178 129 146 191 87 206 120 157 161 116 99 83 113 86 138 68 151 152 125 129 58 152 168 179 124 78 124 
126 159 172 77 60 62 172 133 146 83 165 113 149 59 105 102 76 182 153 120 182 103 89 71 136 170 141 226 59 91 134 185 162 121 133 127 191 93 170 122 178 71 155 154 133 124 77 120 164 169 162 46 157 61 58 115 112 143 155 186 174 148 80 107 54 103 158 155 137 63 149 118 144 72 100 195 66 175 98 97 73 169 181 77 117 168 160 108 131 104 79 152 133 129 211 194 108 105 74 109 
98 196 128 132 138 181 113 117 121 93 156 128 98 57 41 91 240 158 124 107 25 165 153 91 141 76 143 44 164 109 178 57 71 70 151 97 25 92 147 77 132 159 182 105 47 55 92 143 116 111 181 115 116 107 70 201 192 94 84 17 55 92 106 216 98 153 140 148 162 146 179 72 99 151 205 164 183 116 92 124 115 118 166 155 139 134 199 129 156 154 142 119 77 191 94 158 156 141 170 169 
51 178 146 62 141 118 73 123 134 152 96 133 132 81 144 94 164 124 71 181 147 190 127 119 113 80 206 180 197 139 158 139 84 175 108 210 104 138 189 100 101 221 95 120 156 124 116 166 53 197 103 41 127 72 132 97 134 68 150 139 68 106 104 162 114 99 73 127 81 121 164 165 163 182 144 151 127 142 181 165 101 137 150 79 135 138 79 87 164 112 108 142 145 98 126 85 187 120 173 117 
149 34 98 121 113 137 46 116 172 114 162 220 130 63 126 55 207 154 209 162 115 120 81 153 182 96 109 87 46 101 187 138 135 28 119 241 175 130 98 139 214 188 115 160 106 84 89 134 193 170 64 179 101 168 152 153 70 180 173 221 168 158 141 155 185 118 56 103 156 81 154 135 185 108 110 111 162 123 81 166 133 64 150 119 152 129 169 86 82 105 91 69 71 178 168 78 80 51 119 211 
144 77 48 132 133 113 75 170 108 154 176 142 127 101 155 85 212 126 147 174 117 127 144 135 119 230 153 156 150 196 107 214 126 113 51 183 91 102 126 163 101 127 185 89 92 140 57 158 160 159 124 138 154 104 160 185 174 24 103 79 177 127 124 154 89 131 141 192 86 146 194 163 224 149 34 161 162 156 128 60 173 181 176 169 156 159 128 211 107 99 119 93 161 99 79 100 46 48 149 196 
38 191 113 50 85 159 164 130 127 172 135 136 204 194 91 135 48 70 136 149 193 106 110 97 147 195 83 110 120 165 159 102 129 187 130 147 125 33 158 24 158 166 161 44 87 172 106 127 167 114 102 160 92 148 138 120 105 192 126 173 149 95 74 78 132 104 141 122 73 121 143 115 181 147 133 128 215 150 102 50 70 75 151 151 147 131 145 70 140 112 105 148 60 119 124 120 92 202 145 89 
107 137 141 148 121 136 66 127 154 57 223 141 159 115 133 142 53 159 145 107 112 122 175 143 105 136 149 140 175 142 146 93 107 66 56 153 73 45 174 89 212 208 127 183 109 161 110 81 199 30 166 212 82 141 137 167 102 116 133 83 102 112 169 114 196 46 139 165 173 140 171 153 108 138 55 145 127 113 105 74 149 114 142 98 190 42 198 52 90 129 110 86 106 122 128 150 35 148 136 110 
191 90 184 196 239 142 114 195 113 160 122 154 88 82 106 131 67 157 148 86 154 82 127 104 139 156 96 192 98 167 106 206 131 123 156 89 88 97 47 68 139 62 222 84 81 84 108 229 60 81 69 164 131 132 190 150 106 143 131 116 142 150 142 87 80 20 175 202 205 106 85 157 140 100 188 196 172 131 144 139 155 109 120 87 83 218 54 156 158 16 101 63 160 64 87 68 99 175 134 97 
170 158 88 128 160 159 133 201 113 170 45 154 172 113 183 28 158 153 175 46 92 142 142 150 132 75 106 169 129 195 114 77 73 90 109 181 91 83 118 125 116 99 77 121 122 125 76 152 180 137 155 140 151 166 121 122 191 53 77 191 161 96 130 150 192 196 147 130 82 86 126 162 163 106 130 105 100 121 168 99 86 194 106 195 120 36 149 141 43 211 89 193 100 131 179 109 178 131 39 132 
171 170 108 171 80 143 172 65 220 169 70 117 78 98 169 146 96 174 115 70 160 204 111 139 143 150 106 166 112 175 170 210 82 163 220 107 141 53 106 57 227 132 155 19 213 89 155 156 75 158 126 75 107 204 153 103 199 93 127 152 153 134 177 111 130 165 123 79 157 120 121 165 41 62 126 129 153 202 166 131 104 68 121 31 211 188 120 191 110 144 155 113 196 50 121 116 113 134 133 187 
129 150 186 127 113 191 160 72 169 115 161 52 105 102 79 173 122 108 103 63 88 124 107 105 125 150 161 114 145 190 101 103 154 156 173 164 107 148 126 96 133 137 90 103 92 192 184 140 122 76 166 122 132 139 123 20 144 128 174 107 173 159 52 80 129 130 65 160 111 82 42 133 113 76 74 171 100 178 188 97 99 169 163 116 146 167 176 118 158 146 43 109 100 138 200 83 62 96 66 98 
202 70 138 125 149 115 71 81 91 167 154 94 166 50 117 97 116 142 142 72 137 130 149 60 123 148 92 147 108 132 84 88 145 149 126 172 133 155 135 82 163 147 133 127 157 60 89 102 93 138 99 92 124 68 160 108 100 206 125 107 206 159 122 121 183 156 33 50 184 64 176 58 48 127 141 95 195 147 193 152 80 172 56 191 83 191 108 102 182 21 67 161 133 129 177 122 103 154 168 81 
108 142 129 164 197 128 82 170 173 113 99 155 171 112 116 184 103 161 123 162 54 117 132 89 147 205 141 110 111 145 164 168 127 167 112 98 104 185 153 153 145 140 217 51 157 188 133 144 183 110 89 170 159 128 87 70 96 96 143 152 191 88 110 158 164 151 59 83 168 37 180 195 187 164 56 122 26 75 130 158 72 150 144 61 197 80 157 144 137 134 155 175 56 65 118 126 84 110 187 115 
95 171 125 52 141 79 79 88 169 149 145 224 149 111 61 157 126 121 56 179 112 126 162 121 77 186 171 117 89 146 133 73 121 109 133 75 159 135 115 126 133 153 215 107 56 150 200 162 136 125 51 116 143 25 140 146 140 101 118 120 102 179 50 109 172 89 68 124 125 166 93 172 169 107 111 117 165 114 114 23 149 126 113 137 124 115 111 134 149 62 49 142 91 212 139 131 135 162 160 105 
129 184 107 97 158 130 197 94 154 125 86 121 81 55 34 121 155 96 80 190 183 101 80 63 105 181 114 106 241 132 77 169 152 140 104 134 87 34 49 46 30 127 76 124 94 143 127 191 164 175 139 100 159 204 117 78 152 50 79 137 144 193 88 133 101 102 84 131 121 79 90 168 61 187 114 57 165 106 49 166 68 150 107 40 191 191 92 165 78 123 169 95 140 82 131 132 221 71 156 183 
83 132 190 179 150 123 147 101 134 201 180 102 171 93 123 111 82 116 78 142 124 177 170 188 118 112 190 118 110 119 193 99 133 88 122 174 110 178 112 182 158 182 124 69 115 116 129 128 126 154 95 124 88 72 156 99 131 102 166 136 129 77 125 141 93 153 179 74 99 172 134 107 70 76 122 165 64 194 100 79 78 98 151 141 156 140 83 125 127 167 96 95 78 163 111 102 185 144 181 164 
131 191 146 225 67 131 188 120 173 66 87 179 136 73 144 58 193 128 68 160 108 185 119 135 50 185 47 118 166 127 39 124 77 138 160 103 185 155 140 165 111 142 105 137 41 71 62 85 77 125 153 126 140 83 184 148 128 86 183 75 111 141 175 22 107 162 185 137 203 110 134 208 146 140 112 110 82 58 149 108 114 143 125 65 152 73 160 103 180 139 135 172 124 127 179 218 167 116 108 144 
89 184 111 178 136 175 146 204 136 232 58 164 135 120 200 131 154 135 172 114 121 126 163 226 179 155 39 170 125 62 89 143 129 77 156 132 167 138 124 152 121 115 95 109 122 40 126 97 97 135 112 89 76 138 99 137 102 108 195 164 131 134 116 135 158 128 193 152 121 96 145 208 125 142 92 199 90 159 72 182 153 131 131 64 210 122 131 68 128 168 127 101 88 115 52 52 151 227 167 152 
121 194 81 70 137 167 103 112 71 130 156 195 156 139 141 88 129 109 104 141 121 62 157 174 185 105 132 113 87 118 127 112 134 83 167 162 172 116 67 73 171 79 167 75 99 118 126 66 103 139 199 102 116 150 115 163 103 135 106 187 156 147 122 126 144 86 223 195 134 136 127 175 156 90 146 71 122 43 190 119 135 134 109 99 168 27 198 145 79 71 73 182 100 68 137 148 65 177 157 123 
129 39 99 54 157 225 119 184 135 128 115 64 113 115 81 47 128 157 132 168 78 90 133 149 63 182 142 77 74 108 150 132 25 75 178 174 134 170 174 95 183 157 119 155 140 117 170 189 146 120 163 147 168 127 95 121 160 86 123 89 132 117 150 189 110 132 88 156 76 205 175 102 76 138 101 148 181 116 156 112 161 146 65 142 135 151 112 149 208 204 147 152 107 130 192 119 123 134 97 124 
200 135 101 144 155 109 123 131 157 89 148 171 25 75 216 178 198 119 26 37 123 33 119 162 100 96 112 42 145 143 99 81 129 65 135 136 143 60 80 154 132 187 113 177 170 75 66 141 157 131 137 119 173 55 145 111 166 148 168 96 129 106 43 135 80 148 60 110 139 120 50 61 173 156 139 80 175 134 51 112 118 62 79 102 159 147 125 92 102 110 114 185 101 133 74 173 123 151 166 145 
90 142 48 141 153 182 102 74 140 86 104 157 119 133 108 137 184 119 105 61 152 120 76 101 114 97 139 172 79 130 118 119 135 171 93 95 70 136 47 91 131 172 183 204 118 181 106 34 225 195 130 109 121 96 81 64 204 121 168 126 43 129 127 157 149 145 102 207 71 120 170 131 168 111 48 171 109 161 135 203 152 188 188 162 110 156 157 112 41 125 116 130 170 110 114 186 100 131 181 163 
85 78 68 19 198 150 81 60 169 104 180 237 191 63 96 120 145 125 94 114 135 97 153 164 79 123 34 138 130 104 79 141 151 101 177 71 101 107 174 97 130 100 202 137 194 99 91 218 78 83 130 41 108 108 87 125 121 125 171 173 142 194 211 148 139 83 108 115 50 169 154 176 140 128 228 152 136 102 95 140 117 111 111 66 142 92 170 115 98 160 146 62 109 64 64 129 129 60 93 133 
153 175 136 119 118 146 140 78 137 128 174 142 120 133 89 87 186 173 91 155 169 121 92 135 158 148 184 121 88 55 123 155 142 116 121 160 105 65 88 129 105 116 128 131 161 83 114 194 163 147 84 75 159 192 93 84 78 166 131 60 176 125 120 139 197 143 103 104 108 138 149 142 31 141 168 80 108 181 146 113 135 98 69 184 106 97 49 145 90 145 119 195 73 139 18 165 102 123 102 141 
187 212 79 88 44 187 183 181 129 89 128 105 156 120 123 111 103 196 92 144 153 113 174 94 137 176 103 125 146 126 69 138 103 151 119 65 102 159 149 216 66 161 179 181 162 119 107 176 183 66 178 93 171 160 147 100 114 154 108 51 173 163 80 141 198 101 96 162 92 121 133 48 70 142 211 177 131 89 107 161 172 71 39 119 163 95 80 130 115 184 95 74 144 97 48 178 142 137 167 72 
123 152 122 210 123 161 159 92 192 126 100 245 195 46 82 226 26 158 101 195 123 69 180 107 136 80 149 162 136 99 84 93 128 174 114 160 201 189 167 72 145 165 109 129 162 169 80 181 177 221 143 155 202 115 37 180 141 183 109 114 79 140 115 118 114 160 36 207 94 129 159 79 167 126 130 91 135 203 164 166 100 187 151 115 138 23 219 149 97 215 99 124 116 76 198 109 151 143 93 155 
155 137 65 55 124 129 54 181 143 138 132 206 129 88 123 140 144 75 103 133 106 180 123 137 147 185 120 108 142 85 136 122 101 147 185 145 145 85 115 168 148 184 99 57 107 162 192 104 191 182 118 111 134 125 119 120 113 117 140 88 129 167 160 155 178 119 122 90 110 159 151 86 230 87 115 179 127 46 123 127 200 118 42 151 188 116 95 193 105 137 199 122 134 109 210 167 91 47 202 115 
119 42 196 191 113 176 192 123 168 85 193 117 168 132 169 228 144 83 78 165 145 75 127 127 121 133 135 130 178 158 194 86 150 95 122 80 208 82 86 47 42 142 121 154 100 120 67 65 148 146 184 146 64 173 103 122 84 195 198 134 180 139 130 152 102 198 194 56 184 152 130 99 135 71 102 95 145 99 83 58 104 132 158 164 188 88 204 111 118 138 145 135 207 93 138 21 84 80 136 61 
142 103 157 122 129 174 86 92 152 82 50 166 176 104 127 124 138 188 148 86 74 86 50 235 129 105 132 118 94 135 107 95 130 166 59 167 131 145 189 77 129 116 124 142 155 86 69 61 146 62 170 111 142 157 167 117 108 162 122 221 174 83 143 78 90 94 136 122 102 120 68 150 50 199 120 49 166 69 143 74 161 236 50 17 124 167 167 62 142 91 159 64 124 156 125 104 108 36 48 104 
96 101 149 117 156 88 137 99 149 86 67 149 101 51 193 196 34 60 121 145 123 139 84 175 108 108 105 80 162 100 126 50 110 103 52 203 64 176 168 84 79 137 79 76 135 127 125 67 130 128 112 130 98 93 182 196 110 124 99 108 156 132 105 97 126 114 111 190 62 87 120 87 139 142 180 64 136 197 59 141 136 155 121 83 86 116 182 88 147 178 241 97 104 111 165 114 130 109 132 65 
173 158 172 150 96 131 191 101 128 126 111 145 170 39 146 105 135 137 109 76 109 101 126 67 118 67 76 184 138 58 88 205 178 188 187 106 72 111 101 47 166 81 147 100 152 224 133 213 101 195 185 155 129 94 159 82 210 59 87 35 46 217 102 59 90 158 147 135 34 143 118 148 193 107 140 111 116 89 120 140 83 90 83 96 88 36 125 138 137 220 176 172 131 147 180 69 110 91 143 88 
121 155 74 107 151 34 63 94 86 145 63 81 126 173 68 112 162 96 74 205 136 107 101 193 32 106 94 81 58 168 129 61 136 223 68 149 127 173 180 99 135 131 67 91 156 155 156 230 144 113 94 89 87 174 71 131 146 87 131 120 137 103 118 188 115 214 93 140 130 105 138 109 115 86 81 231 70 52 173 131 150 145 125 109 164 160 96 85 119 195 139 98 84 139 163 246 198 103 168 54 
196 114 140 133 122 188 128 142 170 119 129 89 83 68 182 192 120 171 115 125 164 113 109 20 98 95 131 156 174 86 195 58 207 140 178 62 159 196 75 88 154 178 99 200 181 121 138 93 92 129 163 145 138 109 195 153 140 76 106 102 138 158 151 141 123 102 157 113 45 108 92 198 124 58 131 131 194 159 123 144 140 78 80 163 110 107 129 152 148 179 97 161 169 102 148 136 119 149 151 113 
131 103 158 169 115 48 143 197 97 195 92 134 200 156 92 93 187 162 146 73 161 37 163 196 109 81 115 33 193 100 99 197 135 40 107 164 152 156 116 118 106 144 164 157 61 221 117 152 192 139 128 222 153 100 109 133 145 150 69 146 186 82 85 150 91 98 182 175 110 198 138 97 110 122 165 114 35 156 150 132 113 96 92 149 107 118 197 202 155 89 112 85 182 103 184 177 108 178 169 171 
139 114 129 132 190 179 54 87 146 185 91 141 153 106 56 121 30 117 208 187 123 212 163 166 141 83 64 101 123 41 100 173 121 223 140 161 137 112 94 105 97 99 173 143 116 167 95 223 71 46 61 151 221 134 142 74 145 217 114 105 169 135 99 73 83 123 107 191 138 102 121 130 187 217 104 128 216 129 137 214 121 164 82 73 58 116 53 167 202 141 180 91 151 148 137 124 83 147 185 166 
209 106 196 111 147 217 113 107 123 118 143 131 82 109 67 125 131 119 184 146 90 196 160 107 135 186 102 150 126 131 204 141 141 155 178 115 45 86 50 68 143 79 143 123 114 81 104 180 166 79 100 124 37 80 150 154 101 103 137 97 137 147 138 82 129 181 168 179 90 168 90 199 177 90 132 209 89 57 158 65 148 156 138 209 19 110 149 88 186 92 60 126 195 102 78 120 212 169 204 73 
190 92 144 53 107 96 84 130 163 118 112 194 52 146 130 130 113 148 100 84 177 116 164 162 169 117 151 164 123 93 57 88 175 101 113 186 119 122 159 163 177 137 86 194 179 192 127 46 79 127 77 107 104 39 112 150 122 103 75 127 136 182 62 150 137 93 157 102 123 170 71 67 165 162 56 109 41 118 150 117 80 72 99 92 98 73 77 152 83 66 164 100 101 140 130 154 186 168 174 174 
79 96 137 113 199 72 104 119 127 142 108 165 88 73 49 94 120 56 73 130 89 167 114 136 150 122 103 148 160 134 74 166 221 125 130 188 190 176 102 194 120 174 80 166 180 105 176 106 91 115 97 180 157 113 141 103 138 140 127 89 80 181 142 63 130 152 72 116 56 145 97 116 128 82 100 125 124 61 57 193 112 134 81 124 99 80 111 155 60 96 196 104 105 134 128 34 117 154 145 131 
95 81 211 86 109 159 108 55 193 208 131 124 155 87 82 169 87 112 126 97 106 199 73 172 80 212 219 78 120 167 116 142 138 47 162 75 114 70 95 171 129 90 156 81 82 99 89 168 163 130 132 117 114 151 165 54 91 154 120 102 182 129 109 54 132 142 129 77 53 76 167 157 168 86 146 133 47 95 145 97 120 87 89 178 128 164 125 107 89 114 137 163 163 116 119 111 143 89 125 146 
114 150 172 161 163 142 106 84 231 114 109 157 138 200 107 188 156 72 131 136 146 47 165 138 55 106 162 148 107 119 168 146 169 149 56 88 157 154 226 202 73 165 77 99 191 145 114 100 223 88 126 53 138 193 137 144 106 91 115 115 116 119 64 139 189 146 117 172 178 169 103 45 103 179 173 34 90 145 91 132 172 136 109 191 134 199 60 57 109 59 175 135 130 207 128 182 117 171 72 92 
112 141 71 132 144 118 162 176 86 136 57 149 193 98 204 121 194 178 178 176 162 148 131 170 93 155 172 188 125 85 154 132 61 157 172 150 190 144 110 173 209 110 102 92 70 108 181 53 149 107 104 104 161 222 130 97 134 170 133 116 84 132 129 103 125 132 118 138 126 94 219 135 147 99 224 219 83 83 150 175 97 199 39 105 120 104 140 74 126 151 140 162 81 88 104 44 156 89 174 81 
96 182 147 172 114 117 69 105 162 101 134 111 103 168 156 76 93 79 136 35 114 161 93 151 104 149 57 158 96 172 177 106 118 170 135 97 200 124 159 112 117 167 153 117 44 99 207 122 135 110 115 107 151 82 142 78 135 178 79 112 134 165 58 164 143 94 170 104 139 107 181 114 178 185 211 160 94 98 124 232 140 133 167 139 92 159 127 92 103 153 105 45 138 151 142 122 170 122 184 95 
126 139 205 175 112 74 175 113 103 113 84 92 83 126 84 99 87 165 84 187 194 194 196 151 141 145 202 112 91 120 150 174 99 129 105 109 76 89 143 127 203 152 80 124 151 108 96 126 63 89 93 62 107 82 101 60 128 71 178 123 119 104 98 133 95 107 142 69 104 162 194 127 117 137 158 178 209 99 123 139 131 140 198 78 160 146 169 132 69 154 108 98 99 144 59 160 197 113 164 202 
200 118 74 88 123 124 119 130 74 128 148 123 100 131 150 147 143 150 72 171 154 84 84 156 191 120 156 179 180 127 124 112 124 147 87 80 101 91 148 106 106 100 72 123 136 118 135 92 89 184 223 106 105 171 200 67 161 131 111 114 159 158 150 170 224 118 86 117 101 136 123 79 182 208 57 90 133 227 170 207 141 106 89 86 95 93 137 151 120 130 67 160 194 157 125 85 127 118 96 71 
177 218 170 117 151 127 113 67 46 34 165 62 219 160 113 164 24 57 51 80 163 165 140 130 134 164 79 147 74 77 123 163 67 167 71 107 143 131 135 149 139 175 108 112 79 116 123 146 105 98 159 153 134 91 81 173 58 89 128 160 145 111 197 167 110 165 139 44 93 62 136 160 72 145 181 184 165 187 44 125 103 132 153 151 133 94 172 149 171 153 128 164 160 100 40 172 117 126 86 91 
221 130 179 149 84 149 93 86 129 58 126 132 106 156 51 155 159 177 141 172 69 206 184 161 120 128 158 116 136 123 52 131 130 61 77 85 190 64 130 92 102 97 91 164 109 132 135 77 87 105 121 88 98 127 182 110 141 97 116 174 147 197 230 92 137 202 98 159 134 75 116 118 93 72 154 126 100 129 104 81 123 142 147 201 66 188 76 55 114 121 107 173 76 160 69 187 147 140 117 102 
83 196 162 125 166 169 157 171 110 73 119 159 107 177 139 138 77 135 213 93 66 99 194 201 194 142 154 176 92 95 155 203 84 149 165 192 136 59 108 113 113 131 59 167 181 178 195 128 95 183 199 154 142 72 156 202 81 157 160 119 142 101 171 77 163 103 148 107 113 135 84 148 149 134 174 52 195 162 221 115 205 144 131 148 153 134 147 125 112 115 124 149 141 97 137 82 144 194 117 39 
77 107 159 108 131 101 77 43 104 143 124 83 159 127 136 160 59 126 124 190 158 233 137 203 118 177 175 194 110 92 176 184 172 123 145 161 183 74 147 99 159 161 148 79 116 210 136 92 121 167 153 66 120 135 125 135 159 145 35 164 172 95 149 113 142 173 185 82 40 147 135 123 185 62 140 90 128 130 118 89 129 133 120 104 41 127 121 184 167 71 170 139 99 182 157 137 219 92 111 111 
69 167 204 118 128 192 166 96 135 159 132 65 140 106 157 157 120 105 56 157 164 124 156 114 97 145 186 160 101 53 129 144 72 85 51 153 114 137 184 137 132 166 164 64 150 213 117 128 113 82 107 110 179 120 99 101 163 155 223 151 102 31 165 134 126 54 98 59 164 188 94 191 94 90 231 140 130 115 72 179 157 186 107 39 110 227 109 139 191 113 179 225 207 97 146 216 164 117 65 75 
188 187 117 111 8 162 108 179 85 58 84 113 78 74 82 132 109 137 131 142 125 101 125 173 163 143 122 92 152 152 65 116 138 192 177 58 102 140 69 133 81 114 165 137 172 130 113 121 168 58 109 190 165 85 156 202 158 92 142 69 60 133 104 169 18 162 93 168 188 181 48 81 170 210 88 79 115 162 183 141 200 159 163 121 71 83 146 126 173 170 147 89 182 149 147 71 63 72 139 148 
102 114 161 140 139 37 125 145 104 110 138 151 162 107 134 117 202 198 156 124 135 153 115 185 145 129 86 82 158 91 102 158 130 99 88 175 82 169 190 198 84 129 122 54 115 164 208 107 182 105 197 181 120 185 50 30 193 86 155 141 122 84 194 207 93 102 218 165 87 103 203 121 33 70 148 144 105 94 38 117 74 150 148 180 111 223 150 143 138 70 121 182 173 114 151 124 141 70 133 81 
143 216 88 173 143 60 110 83 188 170 131 80 121 95 91 121 121 84 153 151 90 88 83 44 153 63 29 157 81 59 44 174 153 159 163 93 152 152 100 120 51 185 127 82 94 80 40 172 128 118 120 105 111 145 115 158 102 169 82 128 184 122 132 188 130 166 128 96 179 84 118 141 173 133 77 193 112 221 100 143 99 121 124 189 167 96 79 201 98 169 232 99 157 167 164 109 127 133 78 50 
35 134 130 165 103 211 119 139 94 185 82 210 129 146 151 149 43 95 153 85 110 126 72 102 159 77 129 171 131 175 185 163 110 168 114 142 121 167 69 230 200 120 60 85 110 71 80 120 158 51 80 148 115 116 169 197 72 155 151 158 143 114 108 134 85 166 159 76 179 199 52 159 70 64 124 64 86 183 145 96 178 140 180 142 123 178 130 108 123 130 156 150 108 118 147 62 172 52 125 145 
109 91 131 116 137 132 194 53 225 177 122 93 171 145 168 109 104 95 64 88 92 193 161 174 135 107 166 97 146 156 95 179 111 111 84 142 115 207 150 100 148 42 169 141 43 106 157 96 81 97 88 88 98 167 91 87 25 188 60 61 173 138 159 105 51 123 87 72 152 38 37 158 135 146 99 85 164 170 80 94 156 208 154 180 118 79 80 75 74 71 207 118 147 89 170 111 128 145 135 103 
78 20 107 145 88 152 52 129 157 131 131 140 197 81 112 95 192 180 66 108 124 178 145 153 99 181 86 163 229 103 100 202 172 160 135 116 106 119 177 162 183 62 190 125 150 138 114 164 157 179 87 188 83 83 81 74 69 150 176 77 137 122 130 167 147 199 96 126 180 82 103 115 145 140 131 46 221 159 68 178 103 121 121 65 156 120 133 150 164 179 87 54 74 106 80 108 108 160 138 78 
135 55 163 151 181 185 166 121 89 95 170 159 200 168 146 170 111 121 108 27 135 107 171 93 115 116 100 139 91 138 169 88 165 94 82 184 137 104 80 166 180 155 88 47 124 212 175 194 152 184 116 84 68 138 143 123 214 153 116 126 144 161 41 95 151 84 109 25 82 62 50 133 103 175 103 156 127 70 148 90 60 157 108 142 67 119 205 158 205 225 93 86 50 82 163 134 147 192 130 187 
168 192 184 67 113 123 224 195 40 132 31 73 73 74 158 53 133 175 104 89 99 161 190 173 139 24 128 123 111 157 39 144 179 50 48 160 107 175 133 155 193 165 155 133 65 126 197 119 92 88 212 101 171 146 142 145 146 122 168 169 122 88 112 143 111 78 109 170 204 73 109 157 108 163 95 128 110 72 105 155 127 71 155 157 198 72 116 107 102 48 103 141 107 94 136 168 140 173 76 148 
129 89 167 66 157 171 98 142 196 139 94 103 29 172 97 94 111 120 166 169 85 111 161 105 39 133 162 163 96 103 186 108 109 134 149 198 124 124 153 183 170 152 201 193 82 178 124 137 110 111 128 71 152 133 75 79 89 96 157 170 146 125 127 98 82 182 131 126 109 93 220 109 226 80 145 150 167 111 121 78 163 128 163 163 83 28 182 141 48 203 86 24 81 179 167 142 82 129 159 79 
90 125 63 132 72 178 158 180 63 62 165 152 123 55 204 102 232 72 99 146 149 105 50 139 81 97 125 97 176 145 118 45 82 124 215 139 119 108 138 42 79 153 108 105 156 85 176 207 126 90 141 98 135 98 107 98 180 112 112 119 149 32 174 150 127 134 166 112 124 72 148 101 170 158 99 171 119 105 168 43 198 126 137 107 115 115 154 140 109 129 131 168 164 128 133 181 85 45 194 72 
90 63 160 116 154 125 104 95 123 144 104 156 173 159 104 117 124 115 118 37 157 90 130 132 166 43 122 95 169 186 102 42 117 91 118 43 93 68 98 44 156 223 113 213 153 108 195 185 73 108 117 76 91 135 204 190 155 140 174 112 125 96 132 167 83 131 95 128 122 93 103 98 135 113 66 196 143 55 139 63 57 131 110 105 116 122 106 155 49 21 132 147 123 186 101 167 87 149 87 178 
118 101 47 130 92 108 117 180 95 143 166 108 62 88 189 146 126 206 149 116 148 60 99 184 177 136 49 69 28 89 30 146 102 113 140 167 39 39 147 125 218 150 80 56 97 158 176 177 132 131 92 128 106 156 186 166 165 73 71 169 186 167 89 59 137 124 111 163 169 134 128 152 171 81 142 119 61 232 101 95 77 138 145 141 184 145 150 111 123 100 136 105 130 80 161 57 90 120 112 110 
135 135 122 125 155 118 120 163 125 219 76 120 66 114 73 180 115 63 142 134 180 186 108 180 138 131 116 139 96 134 145 168 142 105 182 154 116 89 175 100 124 88 27 132 148 152 173 206 134 69 131 148 181 160 200 114 104 127 104 223 109 102 40 196 144 82 181 156 112 100 124 147 103 127 79 154 27 95 211 132 157 70 195 171 93 154 113 219 89 151 93 167 29 63 106 217 101 174 76 117 
164 132 116 23 165 121 87 149 154 128 87 80 109 68 73 48 67 175 185 58 54 52 158 137 159 183 230 156 87 119 103 59 125 173 103 116 106 154 140 160 123 127 83 121 132 98 120 114 144 175 96 193 132 117 145 119 90 140 142 130 208 114 126 138 192 150 107 101 92 162 107 91 124 91 146 160 204 140 134 174 148 91 166 165 202 145 88 71 140 56 141 125 150 124 213 121 36 179 39 42 
113 162 123 142 149 161 145 193 109 148 154 203 96 128 193 175 245 155 108 105 65 110 33 150 185 93 136 212 202 125 87 102 155 102 119 106 193 129 122 186 125 158 120 132 131 101 129 62 133 127 121 166 76 98 133 153 98 78 114 110 204 116 49 191 133 44 52 136 178 99 55 84 192 157 173 42 129 166 105 217 111 79 84 120 170 175 92 207 135 69 183 58 140 151 147 140 126 119 119 133 
64 136 77 15 131 154 77 164 137 147 127 44 192 107 124 115 35 77 111 158 114 139 97 122 51 72 103 103 115 144 193 112 136 138 166 125 219 77 170 109 147 66 116 103 174 140 135 127 176 130 23 120 145 78 234 169 119 78 127 138 133 88 206 110 231 105 111 180 90 161 100 150 170 96 128 179 109 207 98 135 81 154 166 128 92 63 103 145 156 148 148 181 84 73 148 116 122 90 37 163 
117 87 154 237 105 151 153 133 92 49 154 98 100 165 116 103 73 149 82 156 159 163 123 108 167 148 111 134 119 176 13 78 151 161 96 101 96 76 59 148 143 104 67 154 184 198 118 58 45 112 96 187 155 57 119 112 191 184 178 114 180 108 110 85 105 145 97 146 101 173 212 126 52 176 88 201 166 148 175 185 162 116 91 110 85 213 138 115 73 162 124 159 68 88 145 130 162 153 97 124 
94 103 131 67 109 93 124 111 179 132 203 62 78 94 193 228 110 152 201 144 125 146 111 125 131 114 125 107 190 156 139 104 151 129 153 106 108 85 148 158 80 102 99 118 45 75 129 86 91 61 99 110 97 73 146 133 90 79 64 141 109 70 130 191 69 140 122 63 84 118 109 124 154 81 123 169 154 87 52 129 138 91 67 131 148 86 71 172 109 149 119 95 205 75 103 148 131 168 69 110 
193 124 109 147 144 133 154 100 179 136 118 124 208 189 196 130 59 32 96 175 60 159 154 110 174 132 147 83 149 119 97 88 99 175 75 177 125 144 124 24 182 168 150 159 162 62 79 205 153 172 123 185 150 87 55 158 69 69 155 111 126 62 180 102 69 67 154 139 179 116 118 199 159 132 183 54 127 166 209 141 169 93 89 73 152 147 216 26 67 194 52 165 150 57 182 82 37 76 195 138 
177 123 97 87 224 71 50 109 106 104 178 42 173 60 193 214 119 85 130 178 137 232 167 125 95 171 138 184 122 80 102 152 162 169 92 68 114 118 113 76 196 96 97 132 91 101 98 164 73 182 236 153 139 55 93 144 163 118 206 173 155 103 197 125 163 172 106 81 133 144 124 69 131 35 63 78 172 164 74 146 149 144 161 36 145 103 97 168 137 62 111 123 192 119 111 79 144 107 167 87 
141 165 98 106 228 47 83 80 133 110 155 83 114 108 125 193 201 170 44 27 154 35 71 61 168 83 83 42 148 94 142 84 113 65 142 205 55 140 144 113 110 69 84 94 207 194 121 178 89 158 107 128 125 140 171 96 130 177 23 174 118 51 70 155 118 226 77 124 145 94 105 32 245 168 153 115 50 152 161 123 146 149 155 110 102 96 117 94 105 224 161 48 188 90 176 201 177 126 134 125 
102 149 124 161 126 110 160 131 133 129 102 137 163 123 113 175 108 101 87 201 119 152 187 124 90 235 179 141 155 39 152 106 125 237 110 87 96 158 157 132 177 92 79 178 120 113 102 63 166 207 174 113 72 84 150 121 111 167 82 141 168 156 118 162 155 127 148 53 154 185 105 106 154 47 105 95 47 142 85 126 55 128 184 43 54 154 118 132 149 92 155 116 63 137 201 131 145 96 103 107 
135 90 152 112 216 78 171 60 142 162 124 89 107 178 77 146 136 178 95 126 189 137 153 149 160 171 94 169 209 91 144 114 86 189 53 115 173 73 30 108 127 106 210 65 139 153 51 127 94 203 215 104 207 168 139 153 166 74 161 150 123 136 118 160 134 183 206 126 13 150 166 165 136 69 178 128 148 111 201 93 146 123 112 194 28 131 157 144 129 179 170 133 73 150 239 128 155 111 100 151 
149 66 161 135 202 120 116 55 119 87 99 137 92 90 94 157 115 152 77 129 100 122 99 39 168 226 130 74 153 192 185 118 140 157 154 84 57 134 88 223 109 172 60 23 84 171 186 160 69 144 116 84 137 155 132 151 173 37 179 151 117 75 117 101 128 183 179 163 119 117 36 98 105 133 147 139 19 167 168 77 118 192 121 136 145 120 134 136 75 109 181 62 126 201 194 171 94 208 214 85 
206 198 203 181 125 87 166 51 144 80 119 128 128 74 144 99 96 48 93 54 171 161 135 160 95 192 190 93 181 125 86 144 155 42 187 201 135 98 140 148 123 77 91 150 46 135 229 156 128 43 111 104 56 30 112 121 179 184 83 203 158 82 115 74 51 128 128 91 49 173 160 81 61 94 136 107 153 117 109 172 56 194 123 42 107 125 96 131 146 116 101 98 121 170 181 138 108 61 63 177 
104 127 168 120 111 105 207 163 119 180 160 97 75 210 43 90 106 81 116 147 129 196 185 139 201 97 133 32 157 55 154 36 138 60 158 116 245 150 84 126 133 168 99 95 110 111 99 91 83 156 125 91 170 85 169 167 70 87 102 147 171 87 103 189 106 152 72 117 104 189 149 117 156 202 115 189 134 214 118 113 98 142 114 87 112 163 123 88 126 108 107 76 94 120 141 127 123 69 88 93 
96 117 150 66 119 188 87 133 154 145 210 108 177 201 135 165 133 111 165 112 129 89 118 154 148 157 115 107 192 216 116 160 172 146 160 121 116 171 127 124 145 159 149 114 88 167 154 164 156 183 117 67 164 120 164 133 144 53 61 73 194 84 153 175 144 66 161 128 99 187 95 123 183 192 135 107 86 134 86 139 153 76 104 140 152 71 117 111 183 152 122 141 129 131 90 117 85 78 199 107 
149 16 181 62 187 54 127 145 60 53 158 90 190 163 120 72 124 90 145 151 85 87 172 125 211 169 123 86 176 108 185 108 54 168 143 235 183 162 154 112 135 117 118 109 77 209 132 94 142 124 102 94 133 40 116 90 147 104 162 93 122 58 167 163 93 163 63 188 58 174 103 100 150 120 128 98 99 197 96 129 60 89 158 76 115 139 60 104 126 126 205 109 101 97 114 164 151 146 158 132 
83 127 75 123 150 152 105 108 59 154 65 144 45 156 41 136 85 121 160 105 102 38 109 121 161 108 155 114 149 172 163 75 169 160 162 34 163 169 175 79 93 147 180 52 69 169 88 30 103 136 117 58 172 202 134 99 99 48 157 176 144 99 51 141 84 92 87 149 147 157 132 103 112 122 77 160 51 113 105 136 60 168 75 101 143 137 138 39 117 122 77 197 129 69 118 130 179 111 203 79 
169 95 116 151 50 152 109 205 155 105 58 128 144 70 122 176 96 196 136 68 171 96 122 176 163 135 108 197 103 83 146 83 125 138 125 211 121 107 132 91 195 116 161 176 167 102 100 144 120 69 121 175 59 156 190 47 94 128 82 141 130 191 141 161 71 61 235 125 99 142 110 109 78 128 128 86 152 175 119 108 77 112 156 160 113 100 118 82 80 135 103 73 151 44 132 157 58 190 128 191 
