P2
100 100
255
204 184 123 105 94 177 118 169 108 171 58 72 130 110 190 117 190 184 155 166 96 97 138 134 105 107 111 146 121 126 126 107 71 157 156 76 73 150 228 195 168 133 131 85 136 194 156 169 200 76 177 96 107 85 107 100 97 56 157 132 109 150 101 183 77 90 51 161 125 140 135 92 29 213 210 124 69 189 67 150 134 152 136 176 144 179 199 149 56 133 77 85 121 170 81 122 186 123 109 165 
82 135 116 130 116 147 94 91 92 160 115 162 168 124 79 96 148 117 110 102 144 125 127 112 117 151 168 96 63 110 138 168 125 113 82 137 149 164 156 85 92 135 142 116 104 92 150 98 111 76 107 157 120 121 69 82 102 129 174 127 132 202 132 195 162 128 111 106 197 114 119 124 157 71 73 131 182 172 94 160 120 147 211 49 105 111 203 76 173 80 110 142 85 86 128 135 135 150 215 37 
147 69 203 188 133 65 69 135 166 225 75 154 107 59 91 111 124 103 220 126 174 118 159 132 71 109 129 138 164 92 136 110 90 162 145 180 183 172 141 125 145 166 97 132 127 149 126 195 171 178 76 153 78 131 101 125 145 143 135 93 157 155 116 197 127 149 189 229 176 81 160 142 165 84 228 134 102 137 168 99 135 109 101 206 150 120 215 206 165 194 159 167 152 147 132 119 90 103 115 153 
32 167 61 160 75 163 93 94 182 80 76 109 73 211 82 223 136 141 162 92 141 151 49 95 105 93 125 74 132 131 88 158 92 174 132 78 146 84 200 95 158 14 51 87 140 83 133 128 130 153 145 102 187 178 95 78 102 151 76 125 210 44 118 197 142 112 187 117 143 205 133 93 60 135 53 143 179 134 190 129 106 50 145 170 136 93 133 67 229 162 170 132 114 195 109 188 70 78 147 133 
153 128 107 165 151 110 74 111 172 200 75 85 221 107 160 112 126 148 137 70 133 58 135 101 156 71 148 102 105 160 120 11 219 109 145 98 93 151 179 125 140 104 89 179 131 44 129 100 147 139 179 100 147 84 158 111 124 148 49 181 152 165 175 41 117 154 79 126 90 194 106 147 41 190 117 115 110 132 111 161 128 28 150 188 94 142 88 128 162 56 94 128 176 181 94 81 135 59 181 150 
136 147 132 135 133 212 132 154 201 157 100 160 167 177 42 192 145 219 150 101 104 82 96 144 104 108 81 172 127 132 142 179 100 172 39 153 170 90 129 117 73 118 154 160 176 183 108 113 92 154 182 97 116 88 147 166 112 133 77 182 172 59 201 77 120 153 35 133 115 211 125 90 103 173 235 132 110 146 77 69 142 142 107 170 78 133 62 158 19 133 105 107 165 184 101 94 152 134 119 99 
48 74 132 86 47 126 132 176 96 143 149 40 114 114 195 59 90 214 195 107 112 145 92 106 206 135 103 135 127 119 169 84 153 128 113 81 170 148 106 153 60 227 48 93 136 159 168 140 125 137 166 102 77 122 89 168 188 106 205 172 162 172 220 86 58 99 200 56 48 40 144 97 50 216 61 98 103 147 184 152 137 109 82 145 226 117 107 178 196 147 143 76 103 69 191 128 97 173 140 110 
183 162 114 217 106 115 145 143 220 102 126 119 95 137 135 88 152 80 173 209 156 202 142 94 168 160 131 49 105 167 80 145 148 99 179 136 109 149 151 128 171 169 203 175 93 153 127 97 103 202 130 132 89 154 34 44 95 191 125 131 108 68 130 159 139 79 120 123 162 117 142 103 209 101 171 143 87 111 113 104 179 113 147 42 113 70 86 60 105 111 193 121 169 150 211 141 124 128 167 117 
152 181 81 119 129 116 152 190 53 160 162 122 141 59 54 179 134 190 156 138 177 116 174 94 162 167 228 172 92 79 180 107 149 89 116 189 127 202 92 135 123 152 82 129 134 150 107 173 80 178 194 160 74 166 140 168 43 185 95 135 143 126 141 134 117 128 125 136 131 156 152 144 77 124 175 165 105 138 157 180 50 143 197 112 158 137 188 86 128 172 103 120 70 182 144 140 122 106 164 77 
174 113 114 135 176 172 62 170 95 101 155 111 79 178 61 89 120 140 89 154 158 165 192 218 86 30 161 133 63 117 155 90 127 93 118 106 145 114 125 115 115 65 150 139 95 124 208 153 126 115 109 80 131 49 72 226 144 82 197 85 20 98 107 130 86 125 217 104 120 125 62 47 109 173 46 161 93 162 159 239 152 71 128 148 107 141 101 160 137 106 95 176 100 31 64 161 92 109 67 157 
62 134 94 168 120 157 137 131 141 110 67 168 145 125 168 147 96 90 157 141 67 169 187 35 134 96 128 178 115 162 91 156 139 120 178 84 168 171 108 146 135 98 165 108 128 93 60 188 112 128 139 89 192 97 60 119 127 159 223 102 89 151 81 204 54 52 119 84 101 100 100 173 176 138 97 159 68 83 184 188 99 130 155 16 89 135 162 97 108 79 101 224 133 131 224 106 186 93 191 94 
63 77 131 188 115 142 152 31 106 107 126 113 94 133 167 130 190 222 166 156 128 127 73 85 195 133 174 135 154 113 108 168 134 180 131 132 89 125 122 93 116 159 146 163 84 122 119 191 109 174 80 131 130 148 120 96 217 181 129 162 108 121 136 135 91 202 156 138 82 83 121 96 128 111 64 78 157 105 144 91 154 116 109 115 156 128 176 161 193 61 71 115 70 115 35 92 153 174 212 108 
70 152 109 113 157 93 82 39 123 109 199 59 101 110 71 182 160 61 175 102 99 135 171 121 143 118 126 105 25 161 70 102 127 143 35 178 138 151 108 182 65 151 86 90 90 96 162 178 85 174 180 177 128 70 93 103 135 180 159 71 179 120 193 160 152 135 59 32 197 184 114 122 124 131 114 103 73 74 141 107 108 203 195 130 142 140 179 115 80 103 81 105 184 176 49 210 122 155 75 154 
125 82 94 11 51 161 157 86 87 120 95 104 97 137 195 116 138 130 92 152 199 136 109 101 123 105 97 102 106 179 117 85 181 45 94 171 87 98 191 154 141 147 141 53 142 112 180 124 24 67 93 129 35 168 154 170 115 87 88 162 161 79 90 50 68 205 163 111 107 85 154 174 106 105 81 125 137 152 127 88 69 135 181 125 99 110 91 111 128 122 121 130 157 38 174 167 168 84 89 140 
154 114 70 182 59 95 166 115 68 62 81 109 68 185 122 144 125 174 219 76 148 167 76 123 121 234 101 72 147 154 121 172 100 95 181 147 62 73 117 86 168 178 60 200 39 142 77 131 138 81 170 219 124 53 97 79 150 96 64 116 182 179 58 174 52 140 137 190 110 113 99 142 108 194 134 155 81 90 117 120 150 125 190 157 180 198 152 187 133 233 85 135 104 70 164 95 111 112 51 140 
93 118 112 137 164 169 63 112 150 96 146 118 73 168 111 150 63 102 170 131 127 145 169 131 102 52 79 105 127 127 122 143 104 88 123 182 124 152 130 90 77 43 99 128 73 123 176 98 103 178 51 137 111 60 207 204 185 80 132 156 172 31 156 100 147 54 102 141 103 130 173 175 90 134 153 186 136 174 57 52 153 96 108 204 97 138 89 156 109 48 106 111 94 143 112 34 190 55 59 150 
145 80 175 80 136 118 145 124 106 164 173 75 187 75 68 108 146 93 110 169 207 134 40 56 132 145 124 122 87 162 130 110 153 123 121 191 134 136 32 136 155 93 125 234 124 53 119 170 137 170 52 94 70 166 133 130 152 162 102 144 83 140 119 64 78 159 134 133 150 118 191 194 129 134 45 131 175 113 156 153 102 209 138 184 115 129 73 61 182 109 104 95 137 109 129 100 58 111 177 75 
162 168 153 27 105 113 145 68 127 157 75 78 63 86 192 151 58 121 119 94 139 142 189 39 47 149 185 133 108 97 148 192 124 75 146 141 136 100 223 103 117 176 124 98 50 99 123 102 120 99 142 115 92 130 75 101 64 103 117 163 68 61 158 89 85 85 157 109 177 172 144 142 100 127 65 147 113 229 138 167 129 141 175 113 148 62 187 170 70 180 140 86 164 199 89 143 71 121 111 113 
123 125 78 109 165 138 133 203 137 186 197 156 192 214 204 146 225 152 124 128 139 56 80 173 122 152 25 198 109 112 84 143 30 20 159 114 173 233 228 151 81 85 193 71 69 179 198 137 139 155 110 166 144 181 99 65 171 175 89 82 81 174 215 150 53 129 161 158 51 136 140 160 38 68 113 62 120 143 158 167 216 85 122 134 167 119 81 205 147 89 148 165 159 111 62 144 157 61 157 73 
131 148 112 200 172 58 98 22 63 70 157 97 148 139 106 136 78 182 213 117 141 178 148 106 45 127 114 154 11 183 123 113 112 136 66 49 118 118 97 122 125 141 126 104 130 92 135 146 96 144 131 189 81 139 105 142 152 124 107 154 138 90 86 119 83 73 111 121 116 156 150 88 132 210 132 127 204 169 49 74 188 111 80 105 75 203 168 145 66 99 147 107 135 137 37 148 135 114 125 177 
183 147 112 74 167 111 177 107 134 171 206 116 125 176 139 185 153 160 129 126 182 151 159 119 116 142 133 113 165 123 131 126 65 120 170 135 139 168 123 145 170 113 143 110 110 110 111 86 239 211 121 41 102 119 72 142 207 136 172 137 147 218 119 140 102 109 110 222 179 118 179 90 188 194 159 148 166 81 129 80 58 208 120 190 216 83 79 192 137 208 176 74 109 155 39 87 127 134 121 162 
141 126 219 132 193 114 165 154 71 111 170 225 91 180 184 56 124 193 160 152 149 110 161 152 156 179 181 202 120 83 197 120 110 104 114 92 112 162 126 96 58 107 129 83 199 174 137 144 139 163 66 217 70 86 146 94 80 170 80 120 38 103 182 168 146 122 120 174 114 91 128 80 177 176 115 145 88 207 125 84 140 87 80 155 74 133 146 164 209 121 73 152 135 151 109 147 160 97 162 69 
156 150 127 214 141 127 99 33 148 122 125 130 154 157 141 83 224 218 83 116 91 212 178 85 64 53 107 159 90 162 71 149 143 163 87 108 109 127 153 136 177 65 29 161 78 113 169 132 146 145 214 75 156 150 124 117 117 164 48 123 225 200 161 24 76 55 127 120 76 148 182 123 191 173 110 171 52 97 130 61 90 127 44 135 102 177 106 100 179 200 91 100 122 152 159 100 105 128 139 218 
143 126 139 67 162 97 84 88 143 155 172 186 92 100 67 113 131 67 126 125 173 117 52 103 74 150 148 56 131 126 135 171 202 189 149 64 136 107 145 91 24 138 128 221 149 167 135 190 161 65 84 133 167 184 72 166 199 104 180 136 172 163 192 110 87 31 155 113 150 139 135 168 196 127 113 127 139 150 173 144 109 63 98 61 82 46 175 129 88 150 108 168 97 27 200 115 146 39 117 203 
96 145 72 139 124 35 170 176 68 203 169 197 215 126 84 96 96 141 205 137 114 83 125 193 154 122 163 149 99 177 82 137 113 137 111 62 180 79 135 229 169 165 154 74 121 151 120 75 171 87 134 98 113 138 74 194 139 151 111 119 170 105 107 175 215 109 115 109 129 83 156 174 125 125 73 140 87 95 86 114 168 60 101 82 85 104 126 148 202 104 105 152 156 148 156 212 130 119 193 46 
41 100 117 124 118 98 130 155 149 117 74 128 193 124 181 106 120 134 138 150 79 164 224 97 86 152 97 57 99 73 52 142 164 36 198 133 161 73 142 128 159 88 58 119 168 151 168 160 182 170 79 176 127 143 155 81 104 104 120 170 187 48 152 121 83 145 150 60 152 119 130 130 105 74 118 170 131 79 57 160 102 116 194 99 164 53 237 194 143 117 150 100 98 196 191 85 134 59 107 96 
171 80 129 76 203 96 117 153 194 80 212 118 108 155 89 136 160 107 59 117 148 111 141 149 194 117 62 9 112 64 124 108 212 114 147 116 217 146 155 118 115 110 135 138 131 130 153 146 84 91 90 61 244 137 52 153 129 155 122 126 150 239 200 165 122 109 149 78 176 233 112 71 220 70 136 196 59 95 164 29 105 153 99 168 216 213 150 146 201 59 159 105 112 111 122 129 122 121 157 112 
106 31 91 156 97 166 187 181 116 112 166 170 71 139 119 220 83 84 98 111 107 220 148 145 92 152 119 185 137 84 136 83 161 62 154 146 59 185 209 60 155 120 86 147 131 178 191 157 165 128 145 166 52 195 200 170 141 95 171 144 50 156 181 161 123 128 188 135 161 103 77 97 89 116 197 227 84 56 81 174 161 67 133 137 40 107 150 83 199 142 155 153 65 153 204 89 127 192 96 81 
162 200 23 143 159 185 100 153 119 71 88 120 82 76 219 120 82 89 177 79 123 108 188 134 111 149 182 171 162 104 103 88 136 79 85 92 186 147 101 77 107 93 84 187 114 76 95 157 123 68 71 143 90 93 194 164 169 195 203 106 155 107 107 86 138 146 145 66 150 194 134 125 87 110 45 127 105 167 127 100 42 201 111 203 207 96 174 133 151 88 169 165 168 138 161 151 105 196 140 143 
182 227 148 32 159 129 154 154 188 141 145 50 155 135 74 190 184 163 103 155 73 81 100 87 99 166 105 148 107 154 152 144 173 164 178 175 141 154 201 134 156 136 181 99 181 135 31 160 90 129 139 130 191 144 225 80 189 148 102 57 166 146 59 122 167 88 111 125 172 141 64 168 101 109 65 119 73 105 188 43 70 85 170 167 108 146 115 115 141 148 101 114 132 124 101 114 100 179 157 153 
87 172 104 83 60 71 143 61 97 184 64 131 16 157 70 130 127 211 111 82 130 77 151 202 179 118 104 107 145 148 132 86 116 48 161 220 179 95 202 142 46 81 162 107 144 82 156 86 122 175 125 163 163 98 97 141 51 125 93 128 101 131 190 96 71 124 95 175 94 111 152 161 110 149 195 137 97 139 215 159 87 52 96 17 97 158 114 127 93 111 152 111 118 161 184 115 33 23 129 51 
79 122 159 95 147 87 157 129 110 125 81 55 171 112 200 165 70 199 175 95 203 105 173 113 90 177 145 191 51 58 42 68 136 136 143 143 142 125 191 67 110 150 178 137 141 89 208 83 88 159 153 111 122 111 182 100 199 105 157 91 72 161 201 179 50 138 171 74 100 99 124 207 80 93 125 164 108 156 166 56 138 162 120 164 116 103 142 134 53 216 184 153 125 96 109 74 176 167 161 83 
89 80 86 103 123 112 110 128 137 94 103 44 199 149 171 133 34 132 158 82 96 53 132 89 76 90 179 115 152 99 171 176 150 138 150 124 172 134 169 169 176 163 100 134 167 110 70 114 155 213 102 95 159 178 122 94 92 190 162 110 203 118 88 153 61 161 50 155 108 167 83 148 164 67 154 122 141 165 101 213 124 154 113 181 105 165 210 155 110 88 197 137 148 125 67 149 192 164 153 150 
163 195 124 217 98 166 168 135 167 102 66 113 200 200 52 109 118 55 158 97 53 207 160 122 191 134 139 186 114 70 78 70 92 87 105 111 95 148 48 100 148 130 182 153 129 220 110 166 138 98 171 182 148 79 146 112 186 174 163 110 91 110 121 162 117 197 230 160 102 57 171 171 116 144 215 68 150 116 70 140 88 130 130 171 159 132 130 123 101 124 194 129 94 138 75 110 168 208 97 66 
103 59 118 108 140 90 135 142 161 195 142 155 141 178 135 101 109 188 170 210 135 97 133 80 209 170 101 160 47 141 125 206 167 129 101 45 130 70 119 186 144 89 125 110 167 62 184 139 107 62 100 104 101 128 169 120 108 104 191 180 191 181 149 128 124 96 141 165 150 147 125 138 113 86 197 70 107 62 170 201 150 180 98 121 127 158 103 164 228 163 155 129 121 130 119 189 74 209 79 104 
206 85 84 96 129 137 122 100 130 236 115 169 128 43 170 108 102 147 138 191 119 176 42 110 91 125 226 122 93 66 99 115 55 47 194 196 78 123 102 37 200 56 157 120 157 76 214 124 142 107 115 74 196 130 145 63 204 108 42 97 83 91 113 68 156 174 116 94 121 73 160 145 25 88 193 75 160 122 104 198 162 110 112 156 97 109 120 113 128 79 35 176 161 102 86 194 143 120 175 166 
228 126 147 126 126 95 141 163 116 110 176 39 142 151 96 77 104 174 44 97 123 131 178 132 92 137 114 94 74 88 30 141 143 143 115 87 126 128 80 102 160 194 187 149 139 194 181 53 187 90 120 46 92 124 125 157 104 157 144 79 72 155 159 105 106 83 176 70 142 52 79 123 107 158 169 158 144 117 184 100 160 208 100 82 86 121 156 115 106 152 125 131 92 74 99 99 181 113 98 172 
141 140 168 146 135 96 140 181 105 142 156 120 121 91 128 75 68 77 129 101 136 188 82 167 36 140 165 58 138 130 185 116 95 132 179 129 173 190 93 87 90 212 149 139 71 107 125 177 70 116 83 150 162 93 72 124 138 34 140 161 108 110 114 99 179 171 147 71 129 87 96 95 148 103 204 135 151 129 206 191 104 131 123 46 127 151 44 117 228 172 183 133 147 131 148 129 101 70 116 76 
216 145 166 177 139 190 147 117 188 114 220 182 184 132 137 80 135 182 131 119 101 178 135 111 43 162 63 186 224 217 113 177 100 124 122 166 108 112 90 151 123 146 145 113 208 133 136 97 128 130 152 71 124 41 177 93 151 172 153 67 117 88 166 112 150 129 146 132 20 125 140 180 179 155 217 111 13 123 208 141 176 159 164 74 84 63 126 128 150 66 124 91 86 141 111 117 157 85 142 134 
209 195 141 119 159 126 94 157 152 131 150 148 80 32 42 132 207 169 106 161 82 98 157 56 135 176 89 205 169 161 168 137 130 116 144 221 126 145 23 112 136 64 158 126 167 80 153 141 202 172 32 78 78 160 112 139 109 224 135 143 138 148 103 124 94 103 148 142 177 157 142 87 83 107 62 107 172 97 124 145 133 149 160 41 157 148 114 101 199 133 127 154 185 107 212 63 113 122 187 129 
128 85 93 150 84 162 144 64 91 76 172 112 97 48 155 222 108 51 82 72 55 121 185 149 162 185 157 207 186 120 42 146 156 83 138 155 84 180 149 153 132 116 233 151 101 84 79 86 122 107 62 93 13 32 125 182 129 85 155 173 14 68 125 108 35 164 171 82 75 164 154 100 97 104 138 133 70 109 144 150 96 154 118 51 191 158 208 144 131 179 207 189 135 119 217 209 96 106 144 103 
163 127 159 181 99 154 150 163 143 166 167 100 151 77 131 110 157 57 149 139 92 74 137 94 49 185 120 131 174 75 93 223 171 97 149 120 140 76 58 187 246 203 101 122 110 168 155 166 74 94 213 115 118 107 160 142 177 99 136 103 171 113 141 90 134 107 80 134 206 94 156 174 88 59 128 72 82 150 119 178 146 153 121 105 100 113 152 170 145 137 47 52 164 186 192 117 133 178 75 71 
117 140 119 34 97 119 186 186 147 143 104 149 85 110 124 174 99 82 152 194 113 213 126 167 76 73 147 162 70 135 156 199 120 179 171 157 109 66 96 120 149 113 150 70 208 167 100 163 168 126 92 174 108 120 140 163 129 151 167 105 90 160 194 136 56 142 216 176 81 70 145 110 164 146 122 134 73 90 133 121 62 116 97 157 147 207 150 172 90 175 159 67 158 88 146 158 228 91 178 122 
50 164 162 131 144 198 185 143 59 87 127 193 51 47 138 117 127 171 142 132 97 153 139 154 30 193 135 130 129 204 232 166 160 133 121 113 70 123 99 164 83 181 109 142 124 106 127 185 108 231 121 179 116 137 193 121 158 161 58 116 57 160 117 132 94 182 149 154 219 121 84 100 84 157 88 185 162 114 112 94 102 181 18 111 162 112 163 81 156 65 115 147 184 189 162 132 181 97 147 137 
142 125 189 141 113 83 76 184 140 64 111 181 190 116 124 140 45 118 63 172 150 86 115 117 166 183 103 138 136 108 113 139 103 110 80 108 105 174 177 153 186 183 106 102 202 134 152 144 77 95 48 130 133 118 70 109 122 167 205 124 176 142 160 112 87 215 94 39 153 189 201 130 122 142 167 212 166 226 118 169 108 152 182 57 68 164 137 122 137 138 214 131 130 143 135 128 139 46 129 61 
100 47 98 182 81 170 92 81 148 90 123 131 160 173 62 150 112 155 114 160 121 127 173 41 171 161 162 207 159 42 111 222 129 98 186 89 139 75 166 162 169 153 106 139 83 212 146 104 190 163 135 152 104 119 76 94 170 178 146 71 112 84 156 146 205 188 137 156 171 168 194 98 136 127 205 132 156 127 227 186 79 145 113 92 68 184 51 85 194 140 171 109 154 108 171 117 85 162 174 126 
37 65 117 108 172 69 111 116 156 185 168 191 97 92 165 128 191 94 70 185 170 99 156 44 121 91 39 100 90 112 122 175 127 196 76 117 23 181 149 90 125 155 98 179 93 116 137 204 85 112 141 98 217 208 99 160 180 142 120 152 68 215 94 132 140 132 110 116 189 158 117 137 144 85 120 221 125 152 68 109 172 116 156 41 80 76 128 146 120 123 56 158 105 121 171 94 148 60 117 106 
125 107 129 134 67 194 110 157 108 140 151 156 113 79 162 55 107 58 109 65 93 60 157 73 138 107 92 153 55 112 201 141 120 175 92 117 91 122 103 55 105 181 30 118 83 190 179 108 86 187 123 88 99 120 121 110 112 74 68 183 127 80 143 108 180 107 172 143 168 137 97 39 45 145 69 61 138 129 107 117 155 125 104 184 163 120 128 178 137 60 174 176 148 143 212 135 96 176 101 192 
132 198 91 84 169 203 142 118 99 114 142 48 129 119 87 140 100 225 166 84 167 193 155 213 127 83 127 107 149 170 95 152 164 62 116 130 154 137 160 57 48 84 222 100 155 92 147 88 154 168 195 68 204 127 92 179 196 170 125 121 95 129 128 171 60 113 174 150 146 60 170 116 88 134 119 104 84 127 106 130 81 145 181 92 141 41 89 148 188 154 101 102 160 113 179 73 157 130 203 118 
94 88 140 146 40 159 84 148 156 112 167 141 111 180 113 122 167 184 116 75 102 133 30 149 111 192 129 182 97 178 170 104 131 178 139 186 148 148 40 108 162 170 151 101 153 208 143 216 176 88 122 113 114 74 94 146 140 164 58 183 49 72 100 97 142 143 191 33 59 88 124 178 164 140 77 218 75 94 138 112 159 138 204 140 72 189 163 160 83 127 92 116 161 98 38 209 60 155 128 75 
233 178 130 104 136 180 27 96 130 117 133 149 80 164 75 76 110 128 82 136 99 174 149 146 132 142 87 170 133 173 123 104 60 166 217 177 114 134 89 40 108 129 119 78 166 77 127 134 92 85 74 88 113 113 119 191 53 113 135 87 116 141 125 131 112 138 58 147 133 137 147 90 129 141 159 173 118 117 124 79 147 88 21 135 117 92 171 137 182 76 86 73 51 123 65 112 153 154 72 206 
162 146 66 208 185 133 167 61 117 106 95 147 97 129 167 37 71 125 125 155 71 91 106 58 75 67 205 121 96 204 139 94 77 154 64 176 110 134 139 91 132 204 127 113 117 184 162 80 147 124 136 47 45 156 130 118 70 147 183 126 129 120 103 102 97 147 95 127 100 146 72 38 65 101 214 180 106 171 155 162 27 109 72 60 180 137 128 125 155 140 116 154 99 197 105 210 198 89 23 155 
134 144 95 168 166 56 97 72 186 123 186 150 172 146 54 62 187 173 111 157 90 65 99 133 178 147 121 112 155 87 195 189 140 76 173 103 69 121 148 114 100 105 194 192 146 74 130 206 153 155 64 130 95 82 137 73 119 156 120 160 162 110 125 150 35 119 143 230 96 93 68 99 138 108 108 134 131 49 102 122 131 171 112 163 64 80 36 135 147 73 123 231 154 91 142 143 129 71 176 70 
99 157 141 58 114 49 179 127 127 121 97 105 116 131 51 181 117 134 82 78 117 202 167 181 123 128 116 76 181 103 97 91 169 173 143 151 116 126 69 104 92 170 110 121 174 176 106 138 161 142 116 80 188 149 73 120 168 152 95 51 124 92 175 64 176 149 95 78 69 93 156 165 99 174 133 98 182 137 170 117 197 138 123 119 106 90 91 130 207 203 47 207 109 79 136 152 161 123 73 151 
106 97 141 105 147 99 63 131 143 117 80 165 121 147 108 195 120 164 92 110 171 185 100 151 39 143 127 180 59 112 102 169 120 168 135 75 146 170 126 130 139 121 177 162 152 74 154 140 129 133 124 141 180 96 67 130 96 169 111 143 92 159 87 137 144 25 58 60 113 87 131 170 158 51 112 122 107 122 80 94 121 130 164 141 87 167 140 135 97 83 177 99 218 69 203 118 92 193 88 153 
143 142 160 105 165 93 104 136 159 113 124 109 154 157 128 94 76 135 148 110 124 148 189 102 183 25 134 97 144 127 100 127 128 95 121 108 87 192 111 152 59 191 113 134 169 94 93 102 116 114 88 133 106 122 189 75 121 111 144 143 113 69 169 121 145 166 100 120 110 47 148 137 42 88 144 85 89 171 108 170 147 180 109 165 98 140 74 167 129 117 180 102 185 165 142 194 181 116 81 172 
85 77 113 125 195 35 99 143 55 71 189 127 57 89 106 157 70 92 95 163 132 220 131 171 122 179 166 124 114 127 176 108 150 128 105 105 189 30 82 117 90 126 66 126 142 85 146 108 148 78 143 78 153 125 42 117 107 124 130 171 144 140 131 50 166 158 27 116 150 176 180 142 143 109 123 224 102 123 174 15 34 174 109 99 62 102 145 125 127 85 137 97 105 89 156 99 64 78 74 95 
216 72 130 46 85 128 167 103 94 105 156 137 61 77 130 80 147 131 163 154 75 108 197 103 100 108 159 131 145 152 158 128 176 162 85 84 140 129 142 131 103 94 126 176 158 132 100 169 114 98 97 168 107 125 177 185 219 175 149 156 136 131 81 166 160 71 154 110 115 189 91 134 213 140 221 169 144 182 137 133 179 205 146 110 133 126 100 156 87 103 148 160 104 132 120 92 58 100 96 53 
116 112 129 153 74 110 164 220 95 147 132 97 218 172 139 182 131 147 105 95 164 138 76 143 161 200 178 120 61 101 125 144 163 149 120 56 150 157 157 160 117 174 125 111 175 98 187 105 150 198 85 101 188 62 128 117 49 38 120 180 100 62 124 72 142 120 119 144 106 84 108 182 94 139 107 145 109 171 164 92 103 144 76 115 139 109 115 81 80 137 107 155 176 133 63 45 186 54 113 185 
150 38 62 88 50 118 90 127 171 173 215 161 80 112 64 104 160 164 99 129 63 130 108 162 206 173 67 73 135 60 128 94 213 111 115 148 51 96 90 86 161 117 96 62 85 154 84 179 149 126 80 111 142 135 88 73 148 124 120 180 219 104 120 163 140 113 59 134 98 153 130 146 101 87 195 159 98 78 156 144 214 105 121 52 121 165 196 144 84 132 25 119 43 90 123 80 137 144 182 85 
119 132 209 98 157 125 186 95 35 72 160 187 110 124 68 139 49 134 123 186 201 239 139 57 127 130 119 101 168 94 100 164 184 184 116 187 140 66 148 81 189 144 180 83 67 167 91 170 112 134 150 184 82 136 132 141 126 73 134 60 56 153 184 73 119 92 145 208 152 122 147 159 107 99 180 145 48 181 184 157 104 238 173 76 99 99 112 181 83 152 182 94 216 114 113 51 69 157 95 168 
136 209 72 95 92 90 44 146 155 122 108 135 89 187 152 164 112 103 54 214 192 149 146 85 62 161 89 22 120 154 86 140 154 146 13 164 75 136 186 83 170 134 175 179 39 203 211 118 165 175 53 55 104 192 76 182 77 109 204 145 190 179 102 139 192 178 189 130 216 61 128 84 97 104 147 140 195 135 150 190 102 87 6 56 102 112 43 132 91 148 89 169 190 143 135 146 94 92 117 87 
175 68 151 192 178 172 157 126 179 107 147 98 131 150 139 62 132 103 135 143 66 128 71 42 106 152 129 151 138 110 137 102 134 140 64 140 149 166 191 78 177 48 153 124 144 168 159 196 100 101 219 90 78 180 165 88 108 80 187 160 149 127 83 149 118 146 186 131 102 131 85 73 153 98 85 157 156 96 117 132 152 89 133 148 140 116 18 145 176 114 89 58 147 131 107 138 89 115 186 162 
85 69 131 140 159 152 215 181 146 173 116 78 103 147 75 141 139 136 43 155 88 114 80 179 149 127 145 55 156 180 124 153 141 129 148 168 120 131 137 73 113 96 184 173 130 109 137 142 98 121 178 86 179 143 165 143 115 191 210 147 51 83 67 123 185 79 89 48 131 111 121 153 96 96 112 211 142 30 95 89 99 65 117 85 95 143 150 126 87 164 141 94 99 206 135 149 104 189 88 92 
88 150 137 191 158 157 209 207 59 113 96 157 114 140 141 173 157 155 129 141 228 135 156 122 150 155 88 158 102 45 55 104 117 51 137 153 171 91 167 82 78 204 172 98 172 165 173 140 168 70 166 190 109 128 191 48 247 128 131 210 151 141 100 108 148 172 91 113 90 22 140 180 182 195 90 79 114 202 147 101 15 117 42 51 28 136 104 125 36 199 158 168 96 82 92 125 91 79 135 114 
120 216 111 74 88 74 147 144 120 184 46 199 58 156 218 121 123 80 154 161 120 107 117 182 204 169 124 149 43 201 230 131 173 149 154 145 39 95 72 103 109 103 148 95 71 96 33 114 112 132 172 106 133 41 103 53 84 199 79 89 127 44 116 142 186 122 152 142 177 164 159 109 172 168 203 43 96 97 117 151 145 144 94 83 43 154 71 118 219 162 155 148 162 155 140 102 154 89 174 143 
23 157 98 143 119 178 161 80 138 92 115 149 86 88 71 80 124 130 161 149 129 110 171 68 124 220 196 139 208 111 105 107 146 116 191 209 226 138 129 134 61 76 160 171 222 177 169 58 183 169 99 152 126 161 139 109 147 56 99 121 55 196 176 213 64 168 136 93 186 102 94 156 110 130 169 73 94 124 158 150 127 142 171 165 139 166 140 143 116 85 117 169 105 212 121 130 117 62 183 130 
188 220 71 145 155 132 181 146 140 166 130 154 150 103 46 150 70 69 209 160 116 110 109 174 113 149 157 137 191 191 126 116 105 79 42 132 81 113 133 144 110 107 83 123 244 178 51 152 118 110 147 111 134 97 117 96 175 155 48 113 141 205 128 142 143 101 137 158 124 139 153 179 174 161 170 186 27 155 111 220 204 216 85 82 159 216 139 175 189 169 208 185 184 217 127 120 82 148 163 145 
161 144 190 91 125 97 163 192 132 78 178 131 193 234 149 135 36 174 105 164 212 105 227 118 154 211 202 68 59 139 132 81 145 156 73 25 116 174 137 75 161 153 73 152 156 102 180 77 161 155 85 70 23 157 109 68 64 48 179 140 83 182 171 190 179 221 107 218 100 167 132 143 128 192 154 75 133 129 116 133 122 196 179 83 149 43 136 102 104 185 152 144 98 132 91 145 87 113 119 124 
133 169 120 142 142 26 120 53 38 159 112 163 177 160 128 109 194 78 134 136 54 135 205 212 139 136 209 117 110 79 191 84 46 94 157 105 99 107 139 182 92 54 111 158 154 88 66 124 119 83 112 20 79 75 218 114 94 142 166 80 142 155 165 169 160 207 69 133 114 85 120 165 170 100 131 218 111 49 50 152 111 83 66 104 139 171 25 120 142 60 132 161 186 40 54 210 112 77 130 162 
60 135 75 124 61 116 103 136 139 153 160 245 165 165 179 61 130 147 105 61 158 51 93 172 168 192 113 126 118 165 134 116 142 89 172 165 146 128 42 96 98 185 145 98 47 188 186 116 224 153 74 208 83 115 193 158 137 154 94 67 127 94 153 202 159 139 200 82 41 103 107 115 109 134 131 106 71 128 214 73 149 150 116 103 130 141 147 122 107 87 47 94 198 126 113 85 89 111 79 52 
69 64 108 140 177 155 160 118 131 170 147 63 146 93 208 147 191 137 111 160 95 45 218 126 145 138 127 173 143 44 117 147 148 126 119 183 78 158 106 133 91 114 116 50 175 35 181 76 50 142 89 109 90 131 138 168 113 99 27 154 112 70 197 188 194 124 108 103 59 64 100 114 90 148 101 105 197 118 148 110 120 146 161 85 201 47 121 132 151 112 197 120 151 198 127 79 122 133 102 53 
167 163 158 128 126 157 137 158 212 82 74 178 134 93 196 139 197 154 173 43 110 51 89 145 55 153 200 202 195 54 67 226 154 198 173 77 99 152 141 233 134 97 127 145 147 221 194 133 93 115 158 137 91 133 123 165 146 170 120 90 192 198 68 67 88 68 76 164 122 159 172 185 106 88 106 121 73 136 92 54 113 161 187 80 214 105 154 89 101 187 137 102 127 95 80 85 180 116 159 112 
102 64 125 162 194 158 108 73 92 144 145 94 110 185 159 153 73 81 132 205 110 156 207 79 128 153 180 131 164 170 64 91 106 168 142 105 168 143 87 76 179 190 124 110 99 73 238 132 147 123 73 124 104 158 93 68 127 126 157 131 92 118 138 157 187 128 124 195 179 132 104 133 183 115 168 116 130 195 109 139 175 133 126 151 193 137 87 140 152 153 100 88 109 165 57 132 64 73 113 40 
84 200 143 155 102 125 120 101 141 174 131 207 142 140 70 124 158 144 91 71 79 161 150 144 141 104 105 182 28 34 49 80 132 185 20 129 160 180 190 201 185 148 25 96 144 114 136 59 144 171 184 135 100 107 48 177 106 120 174 183 37 81 35 128 71 62 138 114 177 116 143 113 223 25 93 137 170 146 116 206 132 156 79 114 121 155 96 201 155 153 184 120 83 128 97 146 184 190 128 161 
23 132 116 103 230 142 34 147 155 92 68 101 135 124 138 191 71 121 155 105 108 87 153 57 134 197 118 70 225 167 122 196 127 134 49 155 73 153 98 103 119 195 118 95 143 161 125 74 124 46 67 115 122 26 139 156 167 67 55 145 41 107 188 186 112 158 145 116 141 126 172 82 103 230 101 175 183 87 91 88 55 46 178 202 65 120 195 104 173 172 179 73 109 52 54 144 131 157 92 115 
143 63 114 123 98 47 45 188 88 152 112 117 91 93 147 147 105 131 58 86 148 208 113 99 116 133 117 122 143 121 167 115 159 150 143 190 147 96 101 106 109 171 96 96 172 129 136 108 230 149 146 157 76 125 123 112 102 118 94 105 95 177 195 117 141 206 205 133 81 143 87 64 184 97 108 176 130 143 156 160 184 135 70 75 165 134 178 139 114 65 126 169 134 143 205 121 141 115 140 131 
91 31 129 99 123 186 130 195 156 115 190 92 123 53 148 97 57 106 53 189 212 92 158 86 67 205 107 111 79 160 140 197 110 95 62 166 134 102 135 143 132 51 68 115 153 206 127 169 179 128 143 132 60 116 115 106 114 154 99 96 135 122 120 82 94 150 164 126 89 109 128 140 27 87 167 155 173 164 133 146 107 83 118 80 135 133 216 132 87 84 176 154 69 37 134 152 56 103 175 104 
104 110 129 112 100 72 132 85 86 73 150 137 78 108 178 126 132 123 94 72 91 123 102 193 168 129 232 154 102 202 163 84 140 143 137 149 99 117 25 165 80 185 160 98 133 199 147 55 128 149 104 50 73 113 130 48 134 57 160 114 112 103 99 117 78 142 114 109 148 166 162 94 106 161 119 129 130 136 96 122 114 159 48 101 148 112 99 91 184 121 153 161 183 156 155 93 195 143 201 176 
151 83 108 121 90 73 136 34 121 143 151 110 165 130 88 162 180 176 74 70 89 116 157 144 76 67 241 151 40 115 54 133 132 77 142 180 207 177 187 121 51 173 76 145 107 41 187 137 117 109 109 54 60 73 45 222 156 90 84 137 134 59 153 195 128 112 117 145 178 126 44 149 74 80 140 55 149 81 152 35 52 49 119 98 106 97 111 148 88 127 169 217 48 92 58 35 178 115 117 84 
113 113 146 162 106 167 123 109 92 84 148 108 177 84 196 136 179 143 111 138 154 164 135 125 172 39 103 164 110 126 108 169 176 164 36 83 92 172 68 124 110 81 139 154 170 152 123 71 183 125 57 132 111 162 101 85 124 78 72 34 115 146 99 141 99 160 81 54 80 131 70 155 81 167 153 113 155 81 84 86 116 185 49 125 124 102 160 124 125 117 107 34 157 151 98 104 164 19 187 120 
87 155 160 124 118 98 59 132 215 119 201 185 160 122 146 64 51 152 140 103 165 154 144 81 68 185 158 107 85 119 166 163 172 63 169 203 82 106 98 129 153 137 147 126 168 128 73 93 166 91 139 62 66 54 120 172 118 195 200 184 138 75 89 116 83 34 134 164 148 135 109 72 106 119 215 45 120 160 174 182 140 125 139 198 130 106 199 67 91 123 184 179 127 100 96 110 119 75 181 96 
106 108 179 171 118 120 86 140 167 100 88 159 131 151 74 65 80 122 191 109 123 105 169 216 111 187 49 82 199 146 201 221 126 126 158 79 151 152 123 70 183 115 187 121 97 150 116 159 141 168 94 137 134 138 216 71 84 168 128 180 156 159 155 141 116 165 29 107 152 93 166 167 126 176 201 147 154 70 154 137 114 124 100 90 172 111 110 104 91 125 96 111 175 71 206 67 156 100 155 119 
149 171 74 93 98 159 81 119 74 154 79 151 133 176 90 99 104 86 161 77 124 128 126 70 86 79 172 123 170 167 30 141 172 150 153 132 139 165 144 96 104 117 118 125 78 169 95 148 98 115 155 119 142 106 202 168 140 106 168 100 204 124 148 102 84 142 151 189 216 130 81 136 109 86 145 165 120 156 175 44 140 104 99 105 90 117 203 120 147 171 78 137 157 147 170 111 77 152 92 92 
103 126 157 70 158 110 125 107 72 108 148 128 119 129 70 180 113 207 94 112 111 97 133 182 126 120 159 36 102 122 21 116 132 172 164 181 206 168 162 147 89 73 135 169 96 154 99 203 153 145 47 138 80 196 125 128 103 163 184 112 103 190 190 84 81 130 70 173 97 90 101 88 118 84 78 96 216 107 96 108 155 43 168 47 129 76 68 180 133 177 111 175 83 146 106 153 147 174 87 113 
99 162 145 77 30 156 128 142 70 65 165 93 236 109 165 187 112 117 122 108 95 184 153 150 139 136 121 88 129 92 154 202 140 156 175 124 224 156 161 83 110 135 146 105 131 143 89 131 163 163 120 129 153 176 129 120 148 100 54 121 175 132 89 100 165 149 83 181 217 129 132 187 84 134 133 188 236 205 92 127 51 154 151 104 122 100 177 134 134 60 115 180 140 66 232 156 133 105 211 111 
39 49 87 97 145 130 197 170 100 142 91 108 51 152 165 95 177 125 190 67 70 153 106 74 62 93 182 131 122 134 105 172 105 179 90 180 39 123 82 139 98 156 107 65 138 129 90 119 52 189 157 191 97 161 185 144 177 117 96 164 123 184 195 180 148 155 123 152 107 106 149 93 189 72 208 64 190 166 122 82 179 138 204 147 88 125 127 135 150 113 121 203 118 77 73 109 132 120 169 119 
163 134 39 205 144 145 159 63 146 110 149 125 80 183 173 67 122 154 164 114 212 115 80 108 91 198 143 218 62 127 170 196 153 115 65 136 157 101 139 104 138 133 107 94 220 131 172 214 184 106 168 171 71 137 171 108 126 165 115 141 86 123 160 67 132 57 138 73 148 185 114 104 122 156 195 148 88 192 128 170 77 187 57 124 133 57 103 128 97 109 171 164 109 131 76 31 104 24 198 189 
59 176 127 114 155 121 193 146 90 160 131 179 133 72 112 45 108 88 150 195 123 135 59 109 148 90 173 54 146 90 174 95 91 167 127 124 82 113 94 129 63 170 132 157 95 95 88 148 55 199 147 201 171 103 49 36 48 186 174 140 199 140 108 86 144 123 195 128 22 85 176 174 169 110 94 91 54 93 178 100 183 106 37 209 137 112 150 118 138 182 156 166 89 131 133 84 191 136 141 118 
129 163 78 196 118 173 104 154 97 43 124 142 175 122 157 33 132 121 134 111 143 107 100 101 76 114 78 162 93 159 134 124 126 79 183 137 121 116 136 167 183 91 114 109 122 157 122 134 126 90 105 55 170 55 108 71 191 101 202 143 123 52 76 100 30 157 215 129 146 119 128 164 65 115 109 137 202 70 165 145 80 144 131 148 92 80 104 128 151 220 63 46 204 66 114 97 97 102 168 154 
145 214 126 202 118 161 97 80 82 158 201 72 135 138 143 109 104 137 94 186 141 79 143 194 133 192 113 99 33 120 101 115 157 189 107 145 48 144 121 93 142 115 85 129 48 154 179 132 114 170 120 64 118 30 99 121 78 60 16 108 132 94 102 130 159 201 95 138 110 90 80 57 92 100 105 137 144 38 138 176 91 156 26 130 126 160 95 152 161 100 128 80 122 160 112 161 142 93 146 132 
55 117 82 143 172 154 141 152 120 119 124 190 160 116 55 149 102 229 160 114 85 119 48 89 61 162 169 153 174 127 129 112 89 112 93 91 87 152 231 131 90 146 141 87 141 114 174 124 174 36 206 56 130 219 159 91 119 64 148 179 52 154 125 149 78 159 128 33 146 153 144 122 162 133 54 103 70 169 102 166 69 49 141 140 107 106 107 107 121 84 78 178 82 117 115 95 89 110 54 218 
72 128 128 207 92 124 100 127 88 95 97 173 203 112 192 157 206 116 160 158 86 122 135 61 138 86 88 144 141 82 80 98 86 54 95 198 129 76 103 145 233 124 233 142 171 78 160 115 138 170 171 164 112 115 118 125 160 68 143 121 124 116 210 116 111 126 196 63 109 160 181 179 213 152 140 182 125 91 156 107 145 151 125 220 127 101 89 129 124 79 95 219 130 139 124 119 115 168 92 164 
128 167 149 178 102 43 107 140 139 151 134 121 150 186 147 88 159 107 147 130 129 217 93 142 64 79 117 177 164 137 96 128 139 155 145 170 143 38 112 132 33 156 168 182 160 72 121 124 173 179 44 107 172 135 166 43 132 102 151 108 98 170 174 194 122 156 142 181 135 151 128 211 153 183 181 61 63 91 153 133 104 159 173 60 106 115 163 153 76 68 137 76 102 84 101 198 63 107 80 187 
213 181 143 153 140 95 120 111 140 77 153 137 152 183 96 156 148 66 162 96 120 110 114 191 98 74 144 199 199 153 130 111 57 103 67 150 128 97 115 126 127 176 155 104 174 127 68 143 137 86 198 109 69 140 76 149 108 66 60 126 148 94 193 155 162 93 26 142 138 77 132 78 76 137 74 145 86 82 90 91 115 111 115 165 95 101 103 106 182 126 142 160 167 119 82 160 72 172 166 190 
119 95 147 115 145 133 55 49 105 170 64 168 156 136 38 58 161 132 116 97 137 106 98 108 163 81 149 181 135 121 120 120 149 123 159 224 93 142 118 92 149 50 61 113 175 200 115 169 92 140 53 119 169 119 200 124 138 137 106 120 173 174 108 106 165 126 100 211 119 97 137 245 151 109 157 175 127 162 72 171 105 163 41 95 107 155 167 146 118 138 153 55 59 131 134 144 175 107 192 64 
133 63 35 100 98 149 127 62 170 75 187 90 139 177 147 122 127 105 103 106 169 162 88 108 65 164 200 153 101 116 50 235 115 174 93 68 158 108 114 125 218 90 154 118 113 108 154 199 131 59 185 135 197 152 161 163 119 108 135 151 108 136 112 100 70 52 106 113 74 130 217 154 147 97 76 144 141 156 131 82 144 94 117 143 136 206 109 140 189 99 68 79 122 111 151 155 130 109 131 75 
133 134 169 174 105 102 183 102 124 103 138 121 161 166 126 138 216 22 55 95 220 47 116 100 112 133 182 139 147 68 145 144 163 188 49 70 91 36 75 213 160 120 100 221 38 164 123 45 109 115 155 176 144 43 148 135 111 154 205 112 70 135 231 190 152 186 65 131 171 97 36 89 190 129 152 181 148 152 145 80 103 180 141 209 180 131 88 88 112 176 86 159 121 111 150 182 108 64 167 87 
155 151 68 90 167 92 73 183 48 111 147 77 103 222 98 97 152 130 131 117 171 108 185 190 145 138 94 94 127 147 102 185 131 122 121 115 103 108 190 81 76 160 166 104 115 117 137 153 155 130 150 80 114 117 212 103 108 164 137 159 114 127 120 120 105 128 129 78 59 123 84 124 142 191 162 63 139 138 163 163 68 96 99 111 144 78 172 142 132 192 35 163 115 130 80 109 194 148 69 147 
147 162 138 138 82 117 170 76 26 130 117 184 136 160 92 175 86 117 122 135 188 214 99 104 142 67 186 132 82 151 127 140 80 154 127 143 107 82 186 132 155 215 206 91 114 108 203 108 148 119 147 168 210 131 70 157 107 80 148 181 106 199 98 109 9 118 34 135 155 151 147 157 24 124 126 75 56 47 116 179 89 96 124 169 104 160 162 88 112 108 79 147 123 68 136 127 153 96 48 119 
