P2
100 100
255
99 101 196 39 147 72 145 137 98 104 149 197 181 79 158 115 48 164 93 151 215 181 16 129 91 170 162 149 108 130 114 158 124 145 143 115 143 213 136 59 131 187 105 161 198 84 220 208 149 124 105 221 27 116 190 176 171 141 71 201 206 161 91 128 87 96 102 125 170 71 126 168 137 92 242 112 138 132 216 152 180 148 154 110 148 83 173 65 192 127 127 173 98 82 161 181 200 205 177 24 
66 170 158 151 136 135 85 158 181 147 150 126 116 176 122 139 218 92 106 193 143 97 206 218 173 117 118 118 128 109 223 202 95 93 98 174 146 218 179 160 97 88 114 55 139 175 146 80 136 117 202 180 126 54 199 127 57 143 76 137 181 199 116 105 52 111 197 171 120 103 124 91 53 134 164 75 98 174 86 11 153 103 201 52 146 121 84 81 131 80 43 194 119 172 172 153 72 67 84 130 
140 48 128 133 96 96 156 57 109 217 104 235 111 183 99 197 115 189 171 132 166 157 139 111 133 149 189 176 202 184 148 182 130 111 137 74 203 132 180 167 90 163 214 204 122 165 31 168 76 90 198 45 181 88 107 85 92 122 139 148 81 100 74 163 157 71 82 161 157 68 98 225 147 167 196 136 61 124 144 125 141 167 121 213 145 19 169 142 129 66 144 140 102 161 149 48 137 124 77 93 
101 125 129 120 131 159 129 77 203 167 118 97 57 107 113 163 153 156 133 45 124 76 83 190 42 98 125 106 139 150 93 118 65 124 158 72 107 215 110 166 179 128 194 75 143 122 80 108 123 117 176 215 121 143 142 198 189 75 49 101 97 145 168 114 125 141 64 80 166 133 133 126 185 120 70 122 60 96 115 76 82 146 90 125 126 153 160 92 162 126 119 100 116 175 91 188 123 199 82 105 
148 202 143 189 110 120 99 98 179 123 96 60 156 155 189 92 133 139 141 195 100 94 75 85 152 117 130 76 125 217 154 80 179 122 94 155 57 114 52 81 112 129 62 124 104 111 105 137 199 94 70 122 143 133 68 110 107 133 71 155 160 114 88 143 168 125 113 33 190 169 180 156 136 160 138 120 99 144 75 130 173 116 155 160 132 149 116 91 116 80 96 95 161 167 127 112 178 183 94 85 
111 127 129 177 51 181 75 60 171 113 69 157 70 137 142 153 60 119 166 136 135 134 105 127 105 158 112 108 90 117 221 140 143 134 103 134 111 150 151 184 184 165 94 173 105 217 163 207 163 121 148 119 54 199 130 134 160 80 87 134 96 116 67 46 11 160 113 149 157 47 115 129 109 144 111 157 103 204 97 143 159 167 141 93 129 130 140 157 125 83 112 143 145 147 81 209 100 177 101 147 
153 128 115 148 32 76 122 129 84 128 127 158 27 123 89 58 99 162 152 81 129 165 134 93 141 58 41 135 127 107 86 87 118 147 210 115 157 137 144 122 150 139 58 63 119 122 25 111 184 95 192 88 118 135 215 143 105 120 112 137 167 127 84 142 158 104 147 105 210 73 114 147 80 190 176 103 175 142 152 149 189 122 73 129 171 135 36 212 116 145 117 124 127 181 76 168 118 173 104 121 
95 86 113 151 136 148 159 70 146 144 187 228 151 119 67 188 135 167 41 173 144 85 134 168 56 177 112 126 186 165 84 153 206 52 83 116 83 215 132 146 168 196 132 193 128 166 83 128 163 54 124 123 74 161 76 91 191 155 76 63 115 115 120 75 156 130 126 112 173 128 127 113 94 88 64 150 101 95 117 53 92 102 203 142 79 55 127 111 146 122 113 170 145 78 130 166 112 121 79 193 
207 91 136 101 149 113 94 151 55 118 145 76 83 113 157 116 133 77 148 125 95 137 154 72 125 60 167 187 144 79 231 88 93 98 81 150 84 190 128 125 149 150 149 54 103 175 86 78 111 124 159 99 136 90 151 110 147 112 97 185 161 116 86 179 92 115 134 125 158 114 153 109 140 108 115 167 106 155 103 96 92 74 91 90 99 217 119 112 222 137 113 13 46 127 157 180 134 130 88 198 
150 64 159 196 141 69 172 158 125 103 129 83 88 108 145 113 128 120 120 104 112 108 71 78 91 164 151 146 162 63 112 166 161 205 207 29 71 179 139 141 120 71 73 193 124 45 86 125 125 173 112 162 212 96 144 157 129 156 128 96 120 64 145 213 145 74 82 83 160 92 98 135 160 146 161 153 171 75 92 140 158 123 34 151 82 142 151 129 52 157 84 223 121 129 68 149 135 209 126 162 
95 176 95 156 48 87 112 135 128 93 116 126 138 158 62 146 203 30 196 131 104 142 133 93 149 38 117 112 123 92 152 191 113 116 46 159 129 110 111 115 52 141 72 96 193 119 112 157 20 109 174 61 34 147 67 121 89 123 168 71 116 109 228 94 161 102 110 124 104 135 93 105 48 134 178 62 144 163 45 85 66 135 106 143 152 212 118 55 34 168 136 114 112 120 105 166 118 138 103 154 
159 108 105 93 112 131 97 182 61 90 69 101 160 102 149 107 180 137 104 143 102 113 121 82 47 53 132 136 99 162 45 84 135 227 113 174 137 54 88 105 70 82 144 101 179 121 175 157 84 148 186 127 128 140 135 147 189 126 120 118 74 74 180 178 93 196 93 144 76 90 178 180 87 76 148 71 102 131 128 99 192 95 132 169 147 122 76 89 128 69 158 141 86 82 142 85 175 129 180 176 
145 97 11 123 219 156 144 125 163 193 149 117 131 141 126 136 88 121 143 48 171 190 105 156 121 88 84 149 105 187 139 131 124 78 161 198 41 106 178 57 112 87 199 166 152 12 151 167 119 27 237 148 71 165 135 120 117 191 137 103 71 113 108 61 144 89 155 116 123 158 122 122 109 88 130 149 82 136 93 99 119 151 116 176 174 110 60 107 148 162 91 136 137 145 85 86 100 103 131 126 
111 145 160 141 103 139 147 75 81 112 162 172 144 134 176 179 130 139 68 82 142 133 194 149 86 127 122 176 161 134 111 187 175 136 131 163 176 147 130 62 177 171 36 75 120 159 101 81 167 105 110 136 146 124 141 206 117 98 87 68 57 218 94 137 169 132 169 151 73 91 89 111 181 200 116 93 116 121 188 174 167 164 147 47 145 92 127 121 141 76 82 77 143 66 104 104 41 134 147 202 
210 69 127 98 186 136 104 103 140 126 157 129 87 83 190 119 57 140 154 52 112 131 82 114 94 167 200 88 71 139 164 182 176 55 104 142 126 164 184 97 73 232 96 121 73 129 147 157 35 125 207 109 71 80 133 100 81 145 135 138 136 135 63 155 46 158 161 74 135 101 139 155 163 199 102 98 98 113 119 82 86 189 40 115 161 149 203 108 80 147 85 107 211 110 144 173 149 111 114 177 
31 112 185 69 173 109 145 119 123 170 194 161 93 183 134 151 133 175 196 163 110 70 63 195 152 131 124 166 174 41 124 171 85 145 153 169 111 136 81 116 223 97 88 70 117 190 153 108 140 179 147 69 74 197 142 93 144 145 136 167 124 52 194 57 121 182 115 66 118 142 143 122 126 81 120 116 120 134 168 43 115 169 118 133 109 134 94 145 75 202 71 72 82 120 93 213 123 124 97 61 
106 146 64 141 161 127 108 160 112 68 168 127 162 133 62 183 137 127 121 109 148 107 158 80 126 117 215 54 187 58 128 92 185 158 132 62 125 40 117 72 107 152 184 113 89 104 67 152 118 109 110 106 158 104 128 80 150 156 75 144 134 55 88 40 167 126 163 106 199 80 85 119 182 161 91 115 168 62 120 188 62 88 154 130 104 215 175 242 158 139 195 59 139 52 171 182 133 168 37 129 
203 200 174 86 181 171 121 127 167 107 167 124 66 172 115 99 165 73 195 91 90 189 169 123 77 68 99 138 82 119 82 146 72 147 46 50 140 72 180 129 13 63 165 156 116 174 119 160 163 109 120 85 166 123 108 120 89 130 203 111 126 131 166 202 144 128 73 102 90 101 13 146 102 160 46 135 127 127 94 96 161 73 150 109 148 92 94 138 112 97 210 88 188 126 123 171 86 105 145 201 
215 159 161 128 59 66 136 105 120 133 197 40 25 151 206 202 109 173 135 104 115 135 87 167 126 142 191 184 92 68 117 81 159 55 168 107 103 124 140 80 180 66 134 57 180 115 123 154 195 103 110 109 228 141 134 173 161 134 161 37 129 128 173 110 122 153 184 102 226 178 103 159 95 94 168 100 126 129 121 87 197 85 108 199 56 173 167 119 187 123 149 105 115 139 103 113 111 162 39 204 
160 119 87 160 115 138 40 163 85 125 133 88 91 122 50 90 44 144 123 116 100 107 99 128 145 70 124 111 135 128 107 113 237 29 224 73 170 145 124 146 78 137 233 49 70 132 79 205 131 90 88 79 137 153 79 124 168 177 118 226 171 129 185 144 195 77 86 64 32 155 121 104 156 157 127 71 191 187 157 216 219 169 97 142 127 95 63 126 92 160 155 103 54 108 120 187 157 152 107 226 
122 98 99 166 138 139 142 110 57 126 96 110 145 107 150 131 30 159 136 50 94 81 83 115 125 110 162 146 92 182 191 86 203 165 123 97 89 150 104 81 190 106 111 116 131 119 114 140 104 101 47 61 65 130 134 169 48 162 135 142 131 108 212 90 188 116 124 120 89 157 111 166 107 122 63 78 77 126 142 170 129 110 109 163 136 63 104 109 124 63 62 15 142 133 107 122 123 86 83 148 
156 201 102 95 140 121 108 173 192 173 116 74 156 210 131 115 96 96 128 63 128 27 141 151 148 136 176 107 169 67 136 96 190 62 52 78 93 69 184 104 76 171 97 80 205 117 64 197 197 111 108 95 99 155 112 86 136 231 206 42 183 46 147 127 169 151 109 155 161 99 126 109 94 143 117 138 103 114 122 155 131 94 159 120 154 161 158 135 88 107 72 113 78 70 86 155 97 147 145 142 
117 194 139 128 114 214 161 143 154 128 72 103 89 182 183 101 196 79 130 174 104 176 56 66 98 134 125 116 132 121 129 46 132 100 145 151 146 77 103 75 163 112 134 131 93 190 154 205 38 101 100 137 158 92 134 45 91 83 109 118 99 124 67 134 175 127 67 158 46 73 141 68 102 102 170 122 47 124 141 142 232 154 133 178 119 138 38 103 121 119 118 75 72 98 147 132 73 150 135 210 
117 160 160 109 125 27 160 74 139 190 167 111 216 103 84 109 98 52 119 101 62 74 120 167 68 97 131 148 185 122 73 155 70 135 114 176 122 187 102 113 142 149 54 150 156 179 119 165 91 117 144 145 161 161 144 144 98 195 120 141 169 169 124 59 90 52 151 101 178 90 105 97 122 78 51 140 124 102 158 185 164 161 102 136 124 141 100 84 149 134 55 158 91 139 98 167 159 147 186 145 
146 121 114 126 114 130 114 118 127 171 182 183 144 44 147 116 228 159 113 134 116 61 94 176 166 164 122 98 200 195 91 57 138 125 65 182 121 154 75 108 141 89 166 88 153 176 123 150 62 159 155 224 108 150 147 78 140 144 135 81 71 175 68 31 78 125 140 65 169 56 130 125 179 95 118 169 128 154 199 134 93 62 137 91 147 181 171 156 130 102 101 136 68 21 189 172 117 158 134 95 
195 190 153 147 145 162 71 209 121 191 195 127 171 184 140 140 202 192 137 149 75 123 128 36 193 95 89 160 137 102 124 192 97 144 180 98 88 118 77 153 98 149 90 150 166 108 189 75 128 180 120 131 59 152 124 166 27 161 142 151 152 62 180 145 104 136 165 144 100 50 138 32 110 166 88 97 100 196 83 64 115 152 89 101 144 111 119 193 175 180 111 125 178 67 81 158 58 24 123 165 
39 128 163 165 110 197 200 91 126 132 201 173 141 121 116 171 52 26 168 108 97 106 165 104 167 63 110 85 161 140 161 137 78 153 117 101 168 145 142 116 126 139 153 131 91 166 102 125 102 192 97 92 91 115 219 134 193 142 188 167 157 47 70 101 180 176 130 97 97 100 141 144 142 39 113 170 189 160 59 93 101 151 190 60 103 223 104 170 95 79 82 99 179 124 96 152 124 161 51 157 
87 61 152 150 164 70 115 91 104 100 131 229 71 117 114 59 145 168 153 143 122 119 151 111 133 143 123 106 92 217 131 125 108 36 227 115 127 192 223 179 123 119 90 152 66 109 165 147 81 79 52 119 176 98 125 177 131 149 28 129 139 172 125 154 67 158 125 111 147 170 133 161 135 169 119 165 99 124 100 165 131 128 200 184 115 60 115 114 86 114 180 64 156 121 88 31 117 163 177 45 
144 125 94 114 243 90 105 155 137 182 135 99 150 130 136 121 93 89 120 207 118 170 102 143 144 110 147 153 75 156 136 144 53 216 42 237 147 151 184 113 114 54 157 63 78 131 22 77 104 45 203 92 94 115 122 177 64 76 77 164 107 93 175 75 73 81 148 161 189 68 100 70 171 151 100 173 127 90 167 148 141 95 104 155 164 153 136 91 136 115 161 184 169 165 93 141 56 134 172 191 
115 38 102 188 185 87 67 106 150 141 48 92 100 156 113 172 112 137 73 139 111 200 106 173 105 174 148 146 122 127 98 188 157 88 138 127 102 140 184 177 80 129 196 144 31 224 204 94 200 175 131 114 128 129 103 134 112 130 123 175 171 43 155 41 152 163 161 143 131 82 157 144 127 167 131 105 100 126 201 96 174 50 225 138 121 71 182 104 119 100 51 109 123 55 146 173 135 107 97 154 
94 95 106 184 80 50 67 148 131 222 134 184 50 174 70 48 68 175 63 42 155 80 192 88 98 146 136 136 75 72 198 137 136 98 193 88 136 184 187 96 144 91 100 95 119 119 188 76 154 95 127 66 110 62 159 86 82 119 112 139 149 173 79 144 151 133 133 54 152 100 127 164 157 171 44 152 133 112 157 200 84 131 33 76 212 125 140 106 109 63 153 159 120 191 127 126 99 17 194 163 
214 187 231 52 142 85 165 186 182 115 120 166 222 104 92 85 193 116 136 141 77 160 165 150 74 147 80 126 142 173 213 104 196 101 159 61 98 105 93 109 79 146 48 107 146 92 145 151 158 128 119 216 138 78 93 175 68 92 119 141 136 89 127 163 202 82 226 104 194 211 111 102 78 153 29 72 94 127 128 143 93 58 168 105 162 155 119 90 58 144 111 166 135 129 143 196 138 202 76 186 
76 143 108 144 102 96 113 156 115 146 132 142 148 139 159 165 121 102 142 129 112 109 112 168 166 120 126 153 78 90 137 103 90 165 155 184 19 150 104 126 116 149 93 160 105 80 102 126 116 74 176 161 155 163 91 56 205 210 157 117 81 109 124 112 173 159 168 34 179 147 167 121 93 142 133 141 186 133 131 182 86 146 146 223 37 53 151 100 121 126 89 137 169 125 171 145 89 197 68 109 
131 122 168 131 67 121 117 72 126 103 122 95 186 157 136 79 99 58 130 110 146 73 134 85 111 96 182 144 96 126 90 183 93 66 148 80 69 107 85 144 185 93 166 131 99 94 122 80 134 161 102 167 175 94 137 66 179 127 160 102 157 131 51 93 105 102 222 197 139 210 180 53 70 160 94 148 159 78 148 96 153 194 199 112 109 104 125 168 246 61 154 109 97 176 107 121 98 97 125 134 
142 34 115 144 131 144 73 140 120 102 95 87 76 159 112 173 130 142 158 181 136 81 80 66 205 170 134 198 50 61 127 125 109 43 67 132 178 87 162 127 152 192 125 129 65 104 90 189 127 55 194 130 140 131 156 163 159 98 132 167 75 139 129 52 72 115 172 70 193 95 106 149 17 82 150 143 79 226 73 38 139 154 106 161 120 72 173 85 25 125 123 101 174 182 104 147 67 105 119 70 
107 179 97 110 159 122 51 121 122 56 127 131 76 37 113 116 74 49 206 155 103 169 121 146 64 84 91 47 129 112 173 23 200 235 189 120 110 76 111 118 82 141 139 85 146 108 154 85 70 103 162 82 99 152 123 172 59 166 90 75 127 140 115 228 105 64 92 178 87 48 132 135 76 115 154 133 78 134 122 138 149 91 91 136 38 109 224 177 123 130 122 146 101 55 193 107 75 137 56 199 
120 128 176 21 174 101 56 122 77 169 138 90 192 138 77 93 182 116 185 131 110 210 100 151 58 67 179 83 104 140 75 86 186 189 72 98 181 55 207 107 172 181 115 84 108 188 150 117 148 63 140 70 55 69 156 76 200 122 102 135 173 117 79 206 137 125 158 179 89 86 131 132 122 83 142 218 119 69 168 58 106 120 143 178 68 137 139 121 172 90 228 127 177 97 82 132 104 113 133 175 
81 115 78 147 133 167 91 134 107 81 155 212 122 81 98 87 159 131 100 12 106 145 142 150 130 121 104 193 161 96 168 182 195 66 111 146 126 135 161 61 86 189 82 119 136 148 142 138 159 86 68 154 135 122 166 104 63 137 196 178 162 112 48 117 76 83 103 106 159 90 145 114 146 108 128 158 95 76 161 174 130 122 174 103 126 158 158 137 104 72 144 146 136 104 94 129 152 131 196 117 
86 104 183 149 198 155 118 95 109 112 182 151 203 117 85 79 165 137 82 122 158 135 166 100 127 106 95 134 33 123 134 105 100 157 107 160 104 156 168 110 230 164 79 111 93 147 202 82 69 82 83 162 186 124 206 105 160 89 62 181 86 61 155 115 48 118 230 151 106 183 193 43 171 102 89 57 75 156 131 149 39 92 89 131 159 25 216 162 93 60 118 104 144 152 166 162 162 71 110 79 
118 148 138 134 89 88 70 144 83 104 133 183 202 130 88 132 211 166 148 90 151 60 140 57 144 106 64 137 65 92 31 77 145 87 151 91 168 105 194 127 23 52 175 193 71 152 101 124 148 101 95 119 153 84 149 98 187 193 126 165 89 155 64 62 218 119 179 144 90 82 144 166 157 132 148 104 147 106 112 121 66 112 90 167 149 144 74 93 186 157 108 204 210 52 53 116 150 124 41 167 
110 85 73 52 147 177 134 157 164 85 138 183 176 89 62 90 170 73 171 148 105 181 142 97 139 119 92 98 87 96 171 137 105 58 179 136 74 164 165 147 147 142 42 117 101 165 174 57 121 165 142 164 66 132 103 76 66 53 123 149 148 89 94 160 96 159 71 154 109 105 151 145 141 152 83 152 119 154 133 106 149 167 135 122 136 103 143 113 238 121 52 151 17 66 70 138 106 70 142 138 
126 204 78 165 147 113 135 106 57 102 188 57 97 177 129 139 73 156 98 182 171 99 115 81 124 109 86 119 34 124 49 189 183 133 129 126 127 119 103 84 88 193 116 135 127 174 158 99 160 133 133 108 123 101 150 157 119 159 145 238 63 149 86 144 144 147 80 166 46 151 123 135 82 107 83 139 98 145 142 107 144 112 90 93 94 128 60 203 110 107 162 125 109 105 136 83 157 78 222 134 
78 127 100 106 101 134 167 160 203 81 119 124 176 160 151 192 118 67 30 110 176 63 93 125 176 99 121 107 54 102 124 124 90 121 155 91 165 129 168 119 123 115 161 39 104 110 133 60 151 77 112 94 123 146 124 182 127 73 192 101 170 249 179 154 195 140 89 89 75 64 119 112 119 94 102 124 93 180 143 126 66 220 71 182 90 127 146 135 104 100 138 169 121 143 172 144 97 123 141 143 
167 138 157 194 154 99 119 231 139 92 110 91 184 148 175 87 204 149 204 69 186 118 190 148 168 187 102 112 112 160 101 87 174 129 157 104 114 57 91 195 65 162 62 228 111 168 44 126 161 96 149 99 76 178 143 195 162 195 130 175 113 118 212 141 117 87 184 119 118 177 156 69 115 104 155 132 142 134 146 117 82 149 109 130 156 90 96 85 105 157 80 101 201 37 170 152 30 131 92 86 
133 140 103 162 106 126 110 76 156 154 71 162 121 151 86 132 64 63 136 81 128 97 144 134 44 188 172 152 86 129 98 148 74 152 96 113 92 168 126 78 163 142 124 130 150 188 212 58 99 100 200 153 122 138 159 39 122 120 123 166 117 163 94 101 225 157 193 117 75 113 85 87 61 85 134 97 99 174 127 134 158 124 95 112 163 145 190 88 84 93 161 151 97 192 77 56 70 136 102 119 
77 190 112 69 201 118 121 113 107 95 101 109 112 112 95 129 64 124 154 152 110 132 106 131 105 108 174 125 54 189 153 147 106 99 131 124 124 144 211 117 81 169 131 171 117 60 131 106 129 141 184 96 165 173 160 100 112 41 167 87 191 158 163 193 70 152 174 34 123 114 158 136 41 115 146 108 168 201 115 84 153 64 40 121 154 190 115 120 195 100 103 140 83 184 126 124 107 100 106 123 
160 153 72 122 129 219 93 73 174 231 208 106 141 114 112 81 136 212 77 136 222 131 56 88 239 46 152 92 171 93 165 124 141 107 158 99 168 122 109 129 124 194 81 112 212 79 192 125 85 195 145 111 87 97 173 136 134 101 143 156 123 88 57 140 128 144 111 204 118 139 146 79 100 146 165 173 150 151 163 126 189 167 62 168 172 86 67 112 91 52 152 66 98 113 155 133 92 147 149 148 
136 173 48 138 149 202 31 173 174 168 151 105 169 141 201 110 182 177 69 89 131 110 90 153 143 94 181 173 156 161 123 178 112 119 150 55 140 172 160 51 72 104 125 43 75 131 172 151 113 114 155 97 144 147 165 80 104 158 62 162 109 130 169 145 112 136 52 138 108 173 54 144 176 209 130 180 124 164 188 113 143 119 125 100 177 211 120 159 162 102 123 63 111 189 129 155 199 127 131 214 
80 61 49 66 149 145 120 157 156 141 99 190 105 104 180 169 148 144 167 167 103 135 65 76 66 183 126 77 70 200 75 118 148 131 90 134 157 115 129 109 187 187 89 103 113 177 78 74 81 152 109 161 95 132 39 199 149 139 135 137 110 152 221 154 108 75 146 89 136 147 159 138 155 162 110 159 148 124 154 230 22 155 38 103 126 49 142 162 168 138 75 151 58 164 189 88 162 115 172 91 
126 113 153 113 114 121 116 87 136 147 141 154 115 150 164 172 107 158 50 94 190 147 83 166 165 72 144 176 120 128 216 173 251 156 117 99 94 186 152 101 146 152 69 188 96 118 112 179 188 79 151 202 179 164 158 81 180 151 109 30 153 148 53 125 197 100 185 77 118 151 69 100 115 92 120 153 202 111 132 146 93 166 137 139 159 162 157 113 55 50 115 102 85 134 74 122 126 93 57 87 
74 136 85 126 168 136 122 175 112 134 143 188 237 49 96 55 100 198 153 127 183 86 173 100 135 89 101 147 91 113 113 119 69 108 123 204 96 109 114 155 177 83 141 171 37 147 102 140 136 155 196 69 163 162 133 173 93 138 96 132 160 187 112 82 115 154 179 150 100 125 21 187 155 137 150 166 168 180 179 96 193 202 134 125 104 188 181 183 162 105 130 97 115 104 179 171 153 117 132 162 
105 115 155 174 75 109 89 150 151 172 134 119 76 165 176 80 100 183 51 184 187 143 102 111 119 197 127 155 103 191 165 115 98 103 50 130 163 105 136 100 103 92 129 36 141 78 163 170 120 59 82 125 92 158 43 186 204 119 128 173 64 112 230 39 117 151 87 68 146 147 54 136 133 115 190 112 142 109 170 95 75 195 142 141 129 95 177 88 81 94 246 181 168 159 136 91 144 137 26 92 
192 148 138 178 158 137 131 142 205 97 165 137 136 106 166 85 43 148 205 122 171 104 89 133 96 208 100 171 105 109 150 177 94 156 20 123 100 148 57 78 180 118 135 20 141 143 47 82 109 128 176 203 135 125 112 185 113 146 139 156 35 87 131 123 183 193 38 186 135 140 163 141 111 115 125 152 170 145 103 59 131 43 216 172 160 220 141 127 130 136 141 156 49 83 116 181 144 127 175 49 
86 158 86 154 78 129 159 124 125 132 144 130 126 86 106 188 64 186 139 113 224 80 82 208 121 228 92 55 91 100 46 139 156 156 33 141 96 68 185 146 108 40 77 128 87 65 193 144 179 89 98 130 143 104 182 202 148 106 135 193 158 164 192 111 66 196 176 104 178 156 127 131 65 78 73 132 50 82 117 119 133 150 100 115 129 138 144 186 49 92 136 65 133 126 195 118 137 139 149 117 
154 135 97 119 148 175 115 170 160 113 132 120 29 175 45 130 218 121 52 102 159 149 156 179 173 71 134 119 103 92 138 119 62 43 145 204 109 49 144 147 132 128 108 219 125 109 195 75 46 164 178 125 127 134 153 77 219 68 111 30 150 146 94 81 107 131 146 135 165 203 125 83 114 105 182 153 153 157 78 121 77 81 137 106 78 161 119 127 98 118 101 137 145 105 114 135 152 99 141 64 
204 68 154 205 160 116 84 84 134 102 110 195 132 89 189 96 72 148 144 193 166 177 169 100 52 116 74 177 65 106 102 120 66 218 117 93 200 141 121 57 97 87 84 136 127 161 76 94 98 41 181 153 79 102 193 168 18 97 114 159 64 217 173 169 100 70 117 166 48 119 100 188 126 204 170 185 56 122 69 116 97 133 167 127 101 141 170 161 213 137 185 121 151 128 73 136 166 147 153 97 
60 126 110 203 119 180 111 97 112 83 125 42 69 77 123 52 101 95 154 87 130 148 75 177 119 159 115 29 78 153 201 164 42 89 106 103 120 151 104 107 209 146 90 76 189 74 86 55 135 182 97 171 172 163 187 182 82 129 132 191 156 152 204 230 145 132 142 142 75 121 36 95 85 153 161 215 91 142 126 210 101 191 63 122 111 190 146 120 119 187 172 166 157 93 153 139 210 75 158 164 
73 201 223 161 126 123 199 95 68 209 129 97 178 131 192 40 158 125 109 112 87 79 151 111 171 124 144 122 177 146 158 113 206 88 146 53 101 154 110 104 198 60 118 149 43 176 178 152 129 59 74 77 8 170 104 107 137 96 151 107 155 120 102 119 156 89 164 140 137 82 63 99 144 98 159 111 138 105 70 176 103 137 160 176 190 135 144 139 165 108 56 75 153 170 180 165 166 132 120 58 
148 177 162 120 50 90 68 114 111 121 145 239 186 80 53 137 93 127 151 106 77 90 131 117 140 110 140 140 167 183 114 79 29 126 159 124 44 90 213 97 140 125 107 165 89 154 98 77 175 145 167 172 189 83 148 70 95 156 77 207 194 153 94 57 122 99 170 87 167 89 167 108 104 137 75 185 85 110 121 69 101 40 105 150 75 105 62 111 112 149 153 104 95 167 144 153 89 189 125 131 
112 49 171 162 193 160 113 182 129 132 125 78 97 99 98 170 52 140 109 159 136 155 97 69 87 206 184 61 170 193 117 138 68 190 67 154 131 56 146 102 160 184 167 93 74 181 102 155 171 137 158 132 57 96 124 114 139 47 157 150 151 85 137 151 99 126 135 48 195 173 119 40 94 131 229 109 39 52 156 67 162 171 107 135 203 105 134 113 106 117 101 140 148 105 109 141 159 143 136 239 
140 138 174 71 56 127 139 111 100 187 147 210 151 141 108 61 124 137 168 96 126 138 100 115 68 59 117 122 159 191 108 52 158 58 153 76 152 54 71 96 111 132 135 111 147 114 109 126 166 125 145 132 104 128 86 102 81 132 131 162 64 140 184 226 68 248 35 119 130 145 97 163 166 68 102 69 116 159 171 38 199 128 116 59 149 85 90 132 116 150 135 136 135 120 99 39 125 162 65 136 
162 90 43 132 87 93 113 169 122 123 122 79 180 109 26 96 207 172 41 92 132 67 116 122 99 224 142 92 148 201 127 127 67 84 164 78 115 87 56 143 127 139 105 181 165 130 151 111 164 126 115 72 159 75 99 183 78 115 185 227 117 55 111 110 169 91 80 181 132 163 191 113 201 111 127 77 41 122 166 82 107 174 106 160 193 39 34 96 157 70 114 103 124 109 187 83 81 129 56 146 
96 94 111 146 191 232 91 230 134 195 158 151 93 135 162 136 202 90 89 118 176 136 165 34 87 130 79 76 176 110 156 135 176 217 188 23 205 83 126 150 54 209 76 188 18 171 145 110 120 156 149 154 123 162 71 130 72 106 101 127 130 134 131 38 136 52 149 136 63 133 126 142 121 78 107 111 181 98 79 112 104 128 155 142 157 95 57 105 153 195 137 124 193 161 168 77 128 120 168 38 
166 161 177 32 130 134 65 97 87 51 171 55 83 180 178 116 109 126 143 236 170 88 80 71 199 50 140 123 122 99 122 68 125 73 155 131 170 75 57 174 138 88 218 167 85 98 129 156 144 110 121 106 145 184 27 230 143 118 35 112 71 168 112 125 110 189 141 148 164 66 109 149 109 102 70 115 164 196 60 121 49 95 71 112 140 87 174 156 126 132 109 97 162 163 171 88 132 158 190 134 
66 121 122 152 151 82 130 126 136 124 156 133 189 223 111 116 138 115 122 91 136 143 182 141 133 150 81 147 118 168 122 159 49 220 118 89 144 91 207 57 145 124 174 79 104 73 123 66 84 91 141 110 167 131 160 122 205 114 152 178 130 112 178 187 155 120 69 89 75 173 205 102 110 138 100 126 62 72 180 132 101 135 141 80 29 179 157 133 108 163 165 164 151 77 118 75 108 119 118 178 
103 169 87 180 128 107 203 92 65 137 116 150 97 80 137 154 128 171 190 42 122 159 158 131 120 142 51 103 94 137 205 102 170 148 191 117 200 146 107 134 79 141 222 145 142 126 113 97 151 96 178 156 166 111 111 124 208 71 105 94 212 137 104 104 169 123 147 31 80 134 111 202 213 96 163 126 71 134 134 93 171 130 215 161 124 93 195 88 155 162 85 183 66 141 153 142 163 108 108 87 
30 83 161 91 192 78 147 125 170 143 59 187 135 75 158 172 108 101 152 100 228 132 119 64 197 27 155 173 153 153 97 96 93 146 101 70 148 86 143 197 210 100 221 16 172 90 91 94 83 192 192 102 118 98 153 65 194 60 121 116 176 126 88 108 61 149 149 196 153 117 124 125 160 142 232 163 105 133 125 109 100 84 148 95 152 121 68 105 149 57 123 178 123 121 119 131 78 151 119 211 
129 148 183 116 117 131 36 45 67 125 185 140 108 161 140 132 112 193 42 77 123 102 88 90 117 134 121 98 189 100 113 124 50 149 61 132 89 77 117 135 182 181 94 128 152 148 176 124 161 164 134 205 208 134 105 80 89 101 121 135 115 134 182 180 83 93 90 155 124 90 128 124 116 172 148 137 47 106 72 63 95 81 93 170 146 146 136 110 128 169 132 185 97 196 80 239 102 161 134 96 
166 181 170 60 136 75 118 183 176 209 106 135 169 199 179 134 161 73 121 166 124 79 85 129 121 96 84 221 131 171 134 143 106 128 194 113 120 222 126 176 136 138 107 150 126 78 83 147 106 135 119 100 44 158 73 160 206 141 184 167 129 179 180 190 107 94 140 108 81 69 132 187 125 62 193 134 176 147 150 154 118 142 137 121 154 105 142 110 133 180 178 198 138 202 55 160 187 79 139 135 
85 149 118 132 207 182 110 110 111 79 63 88 127 149 83 91 44 143 70 190 158 89 171 78 143 109 167 90 135 87 153 138 75 155 180 115 35 154 134 113 94 121 143 22 140 81 65 206 149 153 180 128 87 79 85 118 159 150 62 110 75 138 134 108 172 55 143 182 116 120 65 63 136 92 146 194 108 164 90 204 46 128 172 162 203 172 49 127 85 119 24 106 102 99 111 103 140 142 167 104 
137 141 172 169 108 95 175 160 146 132 181 194 101 186 153 169 106 173 135 219 151 171 101 181 128 115 123 94 112 82 112 135 113 161 172 158 79 173 132 187 145 129 215 139 149 53 54 123 160 99 106 107 123 95 117 176 132 75 119 148 220 114 106 111 75 131 82 194 68 156 141 124 165 86 143 109 147 109 120 123 147 198 146 157 136 85 156 76 150 205 123 227 87 190 153 147 37 48 140 129 
102 93 110 139 112 91 120 194 86 120 15 136 129 157 144 200 81 105 177 177 117 184 179 87 182 119 126 117 136 168 113 117 114 126 44 100 83 85 85 163 54 140 56 69 101 147 175 131 149 107 138 144 34 169 140 163 136 96 111 153 116 157 204 158 151 174 84 129 158 149 139 152 189 114 106 145 103 164 25 146 108 134 123 148 162 119 141 175 113 90 115 147 158 122 145 130 72 121 104 115 
87 152 133 198 121 101 147 91 123 117 85 148 150 148 52 101 159 132 166 173 92 186 135 127 124 136 135 109 131 219 167 163 135 164 189 158 206 124 132 99 106 185 136 113 133 150 133 160 87 63 112 176 130 124 153 136 71 144 156 139 46 105 132 123 9 162 146 132 174 97 104 49 74 108 118 141 121 49 174 125 48 128 133 42 164 187 98 163 139 118 148 122 190 156 127 191 145 136 137 160 
129 126 87 118 87 129 157 150 121 158 123 87 174 82 91 120 51 121 138 84 49 125 87 123 166 153 156 109 140 148 107 97 168 224 165 86 78 78 169 199 98 106 76 144 110 123 145 153 201 168 181 130 204 114 125 156 69 109 100 87 114 197 150 116 155 39 209 167 158 166 77 89 87 130 96 63 151 49 148 113 40 55 126 184 91 174 134 97 178 109 128 122 68 182 178 175 122 164 163 137 
117 87 127 186 111 119 101 70 111 121 148 94 146 146 66 122 121 143 203 121 210 132 123 123 79 143 209 114 96 178 127 49 135 127 87 121 171 219 113 199 92 171 119 77 123 93 105 43 106 107 80 155 108 155 138 212 96 211 149 186 174 159 104 96 67 126 171 119 116 156 89 158 155 162 110 138 138 105 132 203 112 154 164 75 168 104 137 65 84 122 55 70 130 98 159 79 114 145 141 147 
105 176 174 85 150 66 152 185 130 190 151 105 104 119 108 100 152 107 131 211 125 205 180 83 110 225 219 207 186 94 76 124 64 158 63 75 167 132 121 204 150 117 114 183 120 164 157 107 68 40 110 149 61 167 37 188 81 186 122 114 195 124 118 113 105 38 150 171 160 132 94 80 132 168 170 154 154 54 163 140 57 109 145 124 153 160 26 45 12 149 142 144 136 209 133 89 166 213 111 109 
110 170 127 150 107 188 133 99 134 144 133 187 117 173 166 89 82 74 158 144 111 181 196 162 71 141 96 121 98 153 95 163 163 11 124 70 188 151 159 138 79 203 73 90 163 149 182 105 80 70 135 76 134 119 138 68 139 180 149 152 116 83 68 122 132 170 211 159 114 195 197 152 185 124 141 116 53 116 19 179 88 53 144 148 47 142 135 140 154 61 185 129 189 70 135 192 82 77 120 93 
102 153 216 92 96 122 152 178 95 128 147 88 97 76 123 147 51 107 148 143 49 199 188 136 176 105 181 226 149 160 171 190 173 214 184 94 70 152 182 167 145 122 95 128 110 159 132 146 174 127 168 137 195 176 120 117 147 108 105 84 34 172 179 25 109 113 140 147 131 152 85 76 132 82 121 135 72 36 80 174 109 90 176 122 127 99 72 77 99 143 144 221 115 131 104 200 118 109 159 141 
99 51 160 155 153 146 167 106 67 136 62 162 116 77 62 150 155 108 77 196 128 91 120 92 150 147 138 133 93 166 128 131 183 185 173 94 61 126 66 149 119 110 106 139 39 81 182 182 196 150 148 60 134 164 134 91 199 186 109 61 109 99 112 151 153 207 154 212 107 146 159 221 183 161 25 186 159 62 129 168 94 75 197 89 91 60 111 149 130 175 125 156 179 146 129 164 130 93 202 99 
137 149 217 99 191 186 163 74 125 176 93 117 170 82 120 155 137 189 81 225 184 191 52 208 158 127 92 187 116 78 135 73 79 225 96 180 127 149 131 118 124 112 179 210 138 68 69 172 139 112 112 29 154 102 177 74 124 117 142 171 62 87 138 99 135 141 59 155 91 136 165 133 103 167 92 143 121 119 63 134 147 135 92 153 158 131 45 143 49 147 68 137 150 118 107 131 69 183 85 142 
200 143 111 94 136 165 84 99 121 69 51 128 90 200 127 133 94 163 36 172 150 22 29 37 163 138 145 188 147 113 192 162 60 84 146 81 125 194 158 148 111 125 173 125 131 100 170 57 116 104 70 122 199 114 177 124 108 89 135 44 139 64 78 78 72 111 147 107 60 123 156 64 84 203 83 140 59 150 122 94 81 131 121 142 110 171 114 145 76 196 119 127 129 16 60 138 154 141 199 101 
140 135 155 109 161 168 160 131 105 201 116 177 154 120 191 109 53 215 98 32 96 194 167 53 153 138 113 97 153 173 62 61 127 132 177 111 165 137 145 117 146 95 105 93 166 90 167 63 107 167 169 157 214 142 87 75 107 93 106 119 103 144 156 121 190 142 141 142 193 208 75 179 98 152 127 74 81 160 97 160 134 100 40 136 57 117 146 57 107 64 69 89 215 147 89 189 133 166 155 91 
41 120 111 224 93 129 88 82 97 151 149 122 152 155 129 181 165 99 103 87 154 106 172 157 168 183 63 103 93 162 179 143 78 79 40 115 211 112 179 62 124 159 76 68 146 179 196 222 94 204 138 149 132 59 77 106 139 165 170 61 83 138 170 164 136 208 172 187 60 87 119 125 110 123 199 53 142 88 138 48 64 60 146 109 66 140 116 112 166 49 96 129 123 82 130 69 157 94 223 172 
145 53 162 97 56 125 82 153 203 62 132 129 144 107 210 142 188 139 162 173 126 34 117 139 127 153 117 100 138 122 168 85 136 63 118 171 204 210 94 149 90 126 115 125 178 32 168 177 141 111 120 125 84 81 164 140 122 142 143 140 82 34 117 223 196 70 170 194 93 90 147 146 127 69 92 203 214 137 65 131 192 224 209 144 152 215 60 143 132 126 98 195 38 114 135 225 172 109 83 119 
206 150 70 149 134 153 162 82 119 134 129 96 111 200 170 119 163 135 50 184 106 159 89 122 157 192 88 156 242 36 145 165 58 176 160 77 84 166 94 108 183 63 161 71 168 77 146 55 133 110 123 96 158 165 159 102 136 105 97 114 88 79 123 180 98 55 142 154 162 143 224 152 100 167 137 192 144 100 54 77 83 91 110 204 123 128 65 147 174 182 129 205 140 98 80 101 183 80 96 160 
59 68 52 104 140 139 115 59 225 106 82 121 107 153 118 98 82 156 42 53 106 115 115 116 135 124 100 82 96 177 186 237 131 122 131 118 208 178 67 138 106 131 65 109 46 132 88 22 102 141 145 74 129 114 151 106 133 144 173 133 190 145 123 108 128 183 52 171 119 98 125 146 214 131 199 103 137 99 128 78 186 185 122 93 45 157 219 76 171 168 114 31 103 123 166 85 135 152 87 127 
164 100 72 174 201 102 84 164 109 182 121 59 173 112 113 176 146 112 149 63 180 185 163 91 117 161 115 132 154 174 86 123 181 222 70 72 138 158 107 171 115 90 138 126 183 153 101 170 249 143 142 122 75 118 121 138 114 153 144 99 111 137 139 168 174 128 125 196 64 201 124 192 127 75 160 147 96 188 158 138 89 108 63 40 71 132 100 145 222 147 137 174 102 142 218 97 150 112 115 108 
147 126 113 147 168 130 187 165 178 94 82 65 67 132 195 144 118 189 211 173 176 181 83 133 167 181 191 95 194 104 124 159 106 145 144 156 102 145 143 92 67 126 191 89 170 107 94 94 81 143 106 131 139 66 115 138 114 182 175 127 86 130 84 126 152 131 80 114 101 122 95 55 67 156 165 73 176 181 66 171 123 103 157 124 107 130 147 96 179 134 66 215 171 188 142 101 119 81 164 118 
121 208 143 134 127 167 39 111 119 195 130 104 201 135 33 152 157 106 151 166 97 148 130 174 97 85 100 108 117 122 182 163 197 149 159 104 116 234 150 186 133 84 130 164 127 133 122 77 107 184 171 152 133 162 65 84 93 134 110 144 217 122 207 125 170 133 159 63 122 64 162 211 143 180 144 112 180 129 89 100 93 81 153 130 87 155 161 117 146 53 105 98 68 141 163 178 143 111 165 136 
96 154 139 100 110 156 205 125 201 69 212 88 76 74 101 143 109 126 106 226 110 122 195 123 62 60 127 116 106 135 69 202 104 86 232 92 188 179 172 166 58 108 95 134 156 129 112 202 122 134 124 169 101 191 98 139 140 107 133 191 105 142 114 179 105 163 167 184 133 206 186 130 226 133 163 114 134 77 168 183 165 93 212 114 141 142 127 161 103 151 153 134 215 185 107 186 100 82 126 170 
123 88 123 185 189 194 180 142 195 161 119 159 147 76 109 158 97 105 180 160 97 184 133 56 125 61 166 118 149 98 187 146 48 184 159 180 118 58 188 150 207 144 145 119 152 143 70 150 128 127 118 90 97 164 97 124 91 154 202 82 95 163 112 101 118 109 166 81 163 193 106 113 142 119 101 158 73 168 144 42 105 168 163 97 101 138 210 120 50 167 106 141 126 141 44 152 162 138 162 89 
218 206 174 113 161 123 104 81 151 96 74 112 137 122 83 52 79 122 117 126 103 193 169 183 106 94 242 142 101 77 143 103 36 109 108 119 69 90 124 146 113 161 128 128 29 119 83 193 116 101 159 109 110 109 158 144 75 108 155 115 171 103 179 157 160 82 182 126 125 161 79 131 178 73 112 180 139 149 86 142 199 162 143 206 155 149 66 183 131 61 103 108 140 54 109 142 106 103 194 107 
113 128 214 105 99 169 118 180 150 160 165 159 201 121 117 55 86 178 169 72 136 57 139 111 65 166 99 128 34 63 168 73 68 120 96 194 118 117 137 102 159 155 69 122 179 152 185 136 168 66 157 159 211 206 136 78 160 67 168 157 110 86 130 97 198 125 151 99 165 62 102 66 175 130 134 149 93 175 110 85 229 83 115 164 175 179 110 180 105 150 167 197 70 133 151 98 191 91 122 56 
110 105 179 159 100 128 87 91 132 139 166 207 186 176 110 125 88 172 150 137 121 95 126 52 173 53 137 102 174 75 133 188 199 115 118 127 126 78 87 131 161 111 172 109 175 144 198 102 121 97 120 163 148 148 133 107 117 133 148 66 122 178 202 176 131 85 132 66 99 122 152 138 195 196 191 144 107 186 165 159 77 108 180 174 151 178 138 54 115 121 155 119 149 93 148 190 102 87 120 181 
218 113 72 116 89 59 124 178 137 158 209 103 80 172 155 114 153 152 74 135 143 151 144 213 147 173 105 141 192 180 89 116 216 139 218 62 85 108 187 149 164 95 130 110 159 86 125 148 118 126 188 119 156 107 117 109 83 35 76 124 128 194 48 113 175 145 116 117 180 156 216 108 100 168 150 181 129 104 193 84 160 100 150 156 107 135 94 101 128 86 181 32 138 140 184 147 93 204 55 95 
172 169 111 116 67 136 112 80 67 154 204 174 142 120 131 150 71 151 145 154 75 135 147 56 52 151 109 81 97 146 146 115 160 191 171 40 75 145 138 148 88 122 136 48 186 90 145 116 127 162 99 84 121 103 84 171 75 105 193 159 166 166 77 123 127 104 126 171 148 164 159 142 142 181 167 193 114 192 53 74 106 134 157 240 75 136 139 70 135 85 116 176 146 31 75 176 112 24 133 109 
214 166 159 124 77 169 202 175 152 103 158 47 137 202 172 178 171 18 164 137 202 120 142 71 145 124 71 197 118 155 138 103 139 136 91 102 200 91 194 159 88 151 121 182 122 99 98 64 108 124 97 155 49 190 73 211 30 116 130 119 154 116 164 145 166 128 210 161 113 149 98 172 167 150 85 167 165 131 115 59 162 153 128 179 128 90 94 163 141 168 115 123 95 138 82 125 64 84 136 152 
169 97 204 53 147 79 116 115 167 104 113 127 66 135 127 171 129 71 184 156 32 178 73 92 167 162 125 157 73 85 156 138 198 90 121 153 192 115 100 64 108 146 115 120 50 150 164 169 164 160 109 135 188 171 45 222 149 108 141 201 81 135 70 126 109 59 214 145 105 160 211 137 109 167 130 165 137 100 130 173 122 130 95 195 74 63 191 120 174 194 183 159 166 93 108 135 32 61 95 197 
150 87 219 154 196 148 138 139 141 98 210 71 104 167 101 143 147 108 44 195 156 140 96 138 198 156 216 122 149 12 149 132 90 154 222 135 156 57 172 60 184 68 112 104 87 70 166 147 108 162 85 168 92 141 97 185 148 153 150 179 165 165 222 48 75 83 106 178 82 154 131 137 196 185 124 152 138 62 166 148 87 64 148 91 146 186 125 141 80 140 109 124 46 152 115 85 110 96 181 53 
140 168 106 124 103 152 165 152 95 164 134 129 168 145 157 83 75 145 114 88 175 169 99 134 33 188 139 97 95 154 66 185 83 205 116 114 102 145 132 103 171 103 213 135 68 149 98 171 182 77 109 160 38 116 154 163 95 156 192 167 63 125 183 139 83 118 79 131 43 127 142 71 140 40 154 135 174 197 69 75 105 174 190 219 121 167 59 67 159 239 100 69 169 116 178 185 30 149 169 177 
