P3
100 100
255
37 208 30 38 36 3 121 52 113 33 44 140 180 28 161 181 185 16 249 80 170 105 162 125 0 66 46 176 162 181 200 74 193 198 171 180 16 126 163 237 142 82 240 61 30 40 42 125 218 123 64 4 107 126 204 234 68 128 20 79 8 236 206 13 224 39 53 103 184 123 9 186 10 121 229 253 232 30 23 11 171 60 20 227 110 109 80 14 144 72 185 169 33 117 187 243 117 51 70 216 166 205 110 156 172 64 81 242 70 193 2 202 84 166 108 15 43 199 206 119 135 211 54 239 115 40 44 223 100 228 123 50 126 173 72 4 144 226 206 175 174 38 227 147 245 131 127 162 31 233 222 75 169 160 148 92 26 182 167 180 249 134 189 55 92 183 121 49 112 138 229 10 41 121 116 35 125 101 228 206 233 104 74 158 59 96 209 253 157 40 137 188 112 182 171 94 181 147 198 239 87 171 150 108 64 136 123 41 32 31 92 145 79 16 91 119 209 26 75 149 110 3 100 154 125 6 198 203 119 189 36 207 168 126 0 117 44 13 185 132 125 231 82 132 58 226 200 179 234 84 105 124 253 105 182 195 248 12 203 181 191 20 126 245 141 242 231 53 100 25 171 53 246 153 12 201 56 152 45 180 45 0 128 186 201 235 23 243 130 220 242 144 4 41 5 66 21 122 125 220
3 64 65 123 19 96 31 204 26 157 37 121 219 8 154 247 251 121 60 140 127 161 59 187 225 241 35 168 165 198 254 216 115 72 155 13 39 78 172 6 5 29 225 136 37 37 147 172 233 88 217 207 83 190 89 194 230 131 87 195 22 226 7 175 116 221 49 114 50 183 192 111 227 199 10 38 5 87 26 53 109 149 148 94 122 156 95 203 184 29 16 148 168 124 252 213 69 122 218 99 221 124 90 133 173 191 67 36 158 224 220 144 224 126 162 62 157 139 185 96 119 36 242 86 171 212 30 110 176 129 190 7 83 121 245 6 117 154 135 172 92 23 84 95 21 21 89 218 167 30 183 167 128 79 148 205 172 34 248 208 226 202 108 192 79 129 140 33 1 37 244 181 131 219 136 175 247 244 86 122 141 35 7 70 129 209 46 67 226 248 37 70 44 173 50 255 71 205 168 56 189 10 146 115 198 235 76 157 153 233 208 65 66 243 76 243 193 20 55 178 213 122 33 176 106 14 243 125 114 39 198 26 157 219 167 222 218 141 118 28 172 33 62 116 154 91 216 78 148 162 250 56 221 102 28 93 77 245 251 73 124 136 161 200 81 159 93 116 34 148 103 212 18 146 65 98 27 23 146 201 230 99 27 203 208 177 216 82 104 185 106 238 199 48 127 170 166 12 67 93
80 73 249 198 101 238 195 93 156 142 110 150 236 83 176 59 252 53 127 57 224 248 230 178 96 92 193 175 43 55 47 157 56 74 129 71 92 140 149 39 152 150 12 246 137 7 172 131 249 86 123 7 92 91 35 223 171 107 37 52 109 174 75 109 195 190 110 60 111 112 113 51 239 190 225 6 220 44 110 150 212 227 47 19 3 244 231 244 7 118 168 34 170 72 27 246 34 254 77 5 7 148 249 178 59 26 248 72 159 160 26 92 164 202 15 184 76 114 14 9 12 88 252 9 74 190 170 147 26 56 42 121 181 214 128 79 221 10 219 57 236 191 65 87 85 39 36 66 144 177 209 53 122 129 76 221 70 79 33 244 80 147 10 35 146 27 172 222 164 49 193 41 68 25 117 24 44 233 67 159 86 21 22 118 17 202 43 89 199 205 234 16 160 37 165 234 42 160 217 210 6 162 85 207 91 245 138 181 16 160 114 138 53 96 132 149 39 209 81 192 93 242 202 29 234 135 10 226 250 183 47 112 106 178 189 77 152 225 213 203 156 211 215 125 243 178 9 134 124 87 76 141 36 104 134 137 97 119 86 211 76 30 157 232 48 87 198 7 20 148 99 203 224 164 95 140 139 171 222 150 149 72 83 156 251 209 130 30 170 103 143 180 84 40 22 202 180 239 134 117
107 214 193 98 75 145 219 31 174 48 243 213 4 184 218 124 16 162 47 121 122 158 229 167 18 118 17 56 88 234 42 174 152 143 69 158 189 161 144 148 209 26 35 244 216 119 237 58 19 49 121 253 137 167 29 4 251 30 119 36 192 50 163 230 228 3 249 167 94 67 102 173 155 215 162 196 135 39 15 114 138 15 216 55 148 87 82 223 186 165 78 177 234 105 121 59 237 145 104 210 13 53 159 85 52 167 90 72 155 12 21 34 171 161 35 54 167 212 226 36 179 236 69 240 201 158 166 55 43 65 37 91 20 5 254 135 190 10 177 109 248 71 98 34 131 255 25 110 0 12 209 15 31 218 253 123 23 155 101 149 219 153 62 93 115 155 99 51 162 106 221 49 3 146 158 100 154 231 100 65 150 57 2 182 182 232 26 19 223 203 212 126 247 26 27 146 180 126 8 233 182 19 8 188 185 86 4 141 134 216 218 183 242 4 145 91 174 27 86 52 213 131 15 250 10 62 146 188 178 215 229 25 100 114 137 220 194 232 68 201 109 71 84 195 217 57 235 246 199 227 12 154 177 244 26 47 140 60 70 71 33 184 170 58 172 4 116 108 18 44 59 105 184 120 103 128 195 168 79 70 115 11 70 76 73 80 181 19 191 81 129 171 33 186 253 219 24 154 157 252
47 201 56 89 45 236 144 169 224 194 156 100 146 130 80 210 199 96 129 20 212 183 50 162 249 119 205 65 162 208 111 137 129 59 116 79 161 176 164 31 168 54 219 192 229 133 29 12 26 166 148 243 39 38 193 105 63 32 157 197 46 57 122 217 97 243 232 8 76 157 51 45 22 191 231 187 240 238 131 184 24 81 179 46 146 188 149 45 155 17 88 135 72 112 204 250 203 14 171 142 221 114 107 146 100 3 46 178 63 15 22 251 74 88 9 71 88 120 200 30 132 245 251 109 199 181 117 56 178 58 146 150 190 58 203 231 139 100 172 126 224 190 143 150 131 31 238 74 5 95 137 104 38 70 240 193 125 45 70 149 159 235 23 193 177 253 24 43 250 133 23 153 250 44 223 205 3 1 25 9 237 156 192 211 18 255 216 134 213 170 68 146 80 41 50 77 109 80 213 64 148 183 250 209 59 60 84 76 130 135 94 63 227 57 3 224 28 241 74 121 70 65 12 34 27 109 1 227 39 62 76 196 173 20 120 138 252 113 123 47 10 22 232 210 194 169 100 255 139 2 209 105 142 231 207 189 75 130 163 248 74 84 5 161 230 155 207 0 110 51 248 13 219 206 112 52 143 53 30 127 88 131 36 114 117 205 92 200 75 119 209 112 244 169 167 129 229 166 233 125
62 248 79 148 242 169 189 54 39 238 134 108 37 124 148 156 117 247 170 47 149 248 1 164 87 8 29 235 18 150 220 79 5 7 162 47 180 203 235 129 140 128 45 209 160 115 73 88 218 55 17 206 206 80 119 202 72 178 214 79 164 114 149 146 212 170 219 36 110 244 201 69 187 250 10 232 23 223 25 27 121 9 229 121 96 238 98 70 202 199 21 68 197 146 8 102 221 188 50 251 118 40 213 191 61 68 23 219 225 69 156 179 110 193 247 168 246 188 188 177 164 237 230 166 107 60 56 17 94 226 122 10 130 221 56 126 0 105 123 21 29 201 226 132 216 205 126 65 153 94 75 87 146 231 231 122 246 130 33 177 70 119 185 122 158 171 38 213 99 184 215 170 136 181 251 215 100 134 71 159 199 158 241 94 149 40 205 4 221 122 123 2 101 66 27 19 106 115 95 109 190 116 45 245 55 77 231 226 193 152 207 249 117 38 81 171 232 46 115 198 111 1 29 255 171 236 69 178 94 226 250 62 114 56 67 162 34 55 184 6 194 244 140 35 51 178 100 185 181 255 6 80 191 248 212 90 98 227 160 118 126 48 142 10 247 225 110 186 127 244 233 15 115 225 192 114 110 102 212 174 111 101 219 212 135 115 202 171 64 10 62 43 219 40 47 32 209 31 102 66
114 45 178 228 49 2 226 59 131 254 216 254 184 250 131 108 235 69 233 240 107 217 56 160 133 103 234 234 124 127 183 236 63 230 85 80 254 34 151 182 204 239 15 238 142 1 163 217 188 39 88 78 206 139 230 95 243 187 88 133 250 254 220 174 140 99 6 203 111 255 198 154 11 57 190 195 175 169 89 46 157 60 106 9 177 224 131 91 4 137 232 57 131 240 150 135 234 58 95 188 13 140 2 86 60 96 192 143 11 147 126 219 63 9 49 107 10 115 83 236 229 66 203 225 178 197 219 50 236 104 214 118 11 105 171 85 211 92 170 50 24 118 143 126 105 125 21 151 113 210 74 124 25 199 186 16 55 137 227 131 197 214 65 18 179 170 167 35 155 97 137 120 225 77 30 211 2 142 230 218 166 40 102 9 220 219 161 254 30 238 146 177 127 103 54 21 73 192 78 225 220 181 228 48 74 200 61 164 14 205 103 224 242 52 29 147 120 173 144 254 48 233 253 3 117 175 79 190 92 28 108 14 54 136 9 154 121 203 206 184 173 191 184 252 62 106 220 251 116 213 198 35 145 190 87 127 255 87 208 172 212 222 133 46 72 156 155 80 33 50 31 99 240 46 120 56 95 99 16 16 169 197 129 221 140 67 115 109 251 61 106 150 49 137 54 99 113 15 38 140
230 20 150 169 20 186 128 7 245 142 57 174 197 234 18 92 225 213 241 176 138 42 223 154 44 216 253 105 249 173 113 47 79 123 239 164 146 54 136 23 42 166 137 90 99 64 98 175 171 17 230 47 215 254 132 33 134 129 93 134 169 43 6 163 41 17 233 226 23 201 173 127 239 148 85 145 92 14 185 64 86 21 249 146 212 74 207 140 187 46 200 241 151 130 137 75 175 211 57 30 244 118 24 170 40 101 127 118 101 146 36 6 37 142 175 241 127 240 7 236 111 93 169 119 108 42 212 193 179 229 56 36 92 148 238 124 59 218 204 24 51 47 157 11 95 7 31 238 89 34 53 27 17 197 92 58 49 219 88 241 153 0 32 224 180 251 195 39 130 127 68 20 235 150 161 129 134 193 176 173 82 196 102 228 11 51 129 125 225 253 73 1 241 193 115 245 5 47 221 77 15 231 55 84 225 207 69 0 96 224 124 249 235 198 147 22 132 155 21 121 75 215 120 14 154 114 175 203 44 197 44 229 200 239 124 229 117 76 52 4 196 210 183 77 3 121 181 82 217 77 191 199 61 216 99 169 232 83 73 189 51 29 110 146 206 186 221 143 133 177 91 134 154 98 177 171 102 117 215 26 233 167 156 241 106 81 145 11 113 142 235 238 251 48 50 73 63 148 83 175
106 178 102 222 105 34 169 65 141 32 118 161 90 249 235 211 80 38 25 33 17 165 106 36 224 111 178 251 100 123 51 123 108 19 11 68 242 178 190 125 247 172 83 213 103 122 50 111 237 4 182 99 232 215 113 104 199 255 151 20 80 8 243 165 56 251 129 77 206 48 189 66 73 229 140 27 140 128 91 56 183 122 197 253 30 200 27 21 44 117 243 99 161 101 4 219 106 198 74 159 207 82 172 221 137 1 8 195 98 207 121 121 90 12 241 223 10 84 10 214 208 73 220 23 105 74 13 207 143 15 107 130 52 205 236 12 143 19 22 188 191 144 16 76 18 124 91 23 210 153 209 207 176 23 54 255 100 13 128 247 145 160 207 234 214 87 170 164 123 201 195 91 219 202 16 178 8 67 124 243 21 233 89 131 216 200 51 226 109 132 110 232 112 240 126 111 31 249 214 254 221 110 176 177 184 137 236 72 176 10 77 24 205 109 36 98 140 187 180 210 19 212 112 180 224 153 249 39 249 41 118 55 158 207 154 51 178 55 211 231 74 73 142 6 14 236 124 92 204 140 124 132 254 226 48 96 233 125 31 32 175 81 133 164 124 201 174 222 242 88 63 239 115 2 224 116 3 25 248 225 138 217 11 206 46 241 76 226 1 21 95 21 21 8 126 76 77 41 69 172
250 24 96 65 79 11 170 91 48 153 98 31 30 73 120 210 210 39 217 213 142 49 20 15 53 17 61 230 73 53 224 223 131 1 161 34 175 22 7 170 109 35 23 79 34 117 232 224 21 155 1 95 61 15 249 64 134 194 136 52 88 159 251 101 125 34 49 128 52 89 132 37 108 70 160 4 187 103 113 71 198 223 60 8 102 236 164 87 232 197 138 133 48 135 164 92 81 51 116 217 7 137 131 87 199 48 42 44 207 171 148 38 234 71 175 218 122 58 95 51 208 250 100 66 67 125 130 101 18 130 251 112 214 79 253 5 19 8 179 22 44 19 191 35 166 148 200 119 251 117 193 139 15 111 233 118 253 120 203 110 202 226 97 241 14 162 230 71 8 63 96 222 38 130 51 209 236 194 245 214 49 202 98 244 245 114 13 240 109 35 71 151 182 67 69 27 94 254 201 207 7 31 216 167 210 148 169 150 32 74 109 178 96 207 184 198 236 65 238 6 98 112 139 34 102 120 136 62 141 189 52 113 149 249 5 184 244 3 200 87 145 98 204 134 217 34 208 187 80 115 59 205 27 164 189 64 75 180 77 227 235 232 158 13 228 190 242 82 14 184 178 144 236 155 227 81 249 11 202 200 120 126 62 40 99 205 3 94 174 240 192 47 135 192 55 168 1 57 25 68
57 18 127 103 100 88 109 65 34 230 163 232 149 7 91 4 168 224 173 134 236 248 11 161 238 201 119 249 28 83 179 118 103 63 231 4 73 39 98 59 46 18 152 90 52 246 195 248 64 172 59 55 123 96 167 0 57 148 234 185 70 201 147 185 37 176 255 73 124 214 237 179 116 243 89 234 183 92 126 228 162 187 96 56 164 155 223 218 95 69 43 93 251 68 234 180 246 180 14 89 57 62 98 166 160 69 249 251 151 74 57 7 48 109 156 109 49 48 202 99 74 163 136 197 12 162 243 95 221 34 72 193 189 140 90 193 121 28 117 110 150 165 115 196 11 87 8 231 121 149 172 202 82 102 207 165 232 126 203 222 0 149 19 30 134 205 106 239 174 59 62 4 61 146 103 114 149 147 213 211 139 22 226 249 8 40 136 92 22 120 127 173 63 145 143 2 253 235 130 122 0 140 142 123 106 234 53 143 70 175 138 240 120 139 62 161 114 154 135 181 108 15 221 98 29 199 138 200 245 61 80 153 120 67 83 168 51 235 226 180 25 88 175 208 129 33 220 5 89 95 238 91 104 250 219 86 216 166 182 30 4 146 70 220 155 196 109 124 131 121 141 196 116 9 240 24 234 155 199 243 87 227 134 224 104 223 11 70 36 77 1 135 102 2 197 236 237 76 234 244
252 230 95 119 59 255 161 17 151 23 142 246 182 241 23 106 209 133 15 207 214 46 153 184 120 45 48 37 200 243 3 58 231 3 56 77 156 197 63 213 31 163 122 2 126 47 244 141 184 191 89 6 155 167 181 16 26 68 112 96 129 56 16 82 130 107 44 201 82 11 43 252 29 30 220 207 152 215 18 19 93 158 94 3 80 194 81 177 223 102 225 201 254 23 83 226 188 82 4 19 40 230 59 214 58 221 94 74 13 86 164 124 39 15 2 214 31 241 97 185 245 185 124 158 130 208 49 186 192 140 119 110 145 226 202 7 3 47 15 117 117 212 119 93 163 90 67 10 130 210 249 76 105 0 101 133 9 89 130 166 205 150 51 15 157 251 208 17 26 186 141 64 223 159 138 250 209 162 48 137 39 95 119 67 51 37 82 71 0 200 65 11 0 73 81 158 64 0 105 35 7 51 46 194 225 233 205 238 212 124 213 177 234 196 76 157 89 123 138 8 171 7 123 40 200 180 117 217 142 215 66 38 11 171 170 97 233 74 34 222 43 246 48 240 136 231 117 49 188 198 214 212 63 31 33 168 194 177 207 228 148 212 60 84 185 85 106 16 70 220 238 0 140 34 38 80 49 43 105 218 15 243 12 84 66 174 41 238 74 251 141 118 23 81 82 17 34 181 143 25
86 113 232 53 84 184 129 127 32 88 94 251 152 110 227 26 103 79 50 138 31 253 129 214 184 83 112 113 222 207 178 0 31 57 85 148 115 57 184 24 253 173 151 152 197 137 227 47 129 24 181 212 193 206 53 230 252 166 51 186 235 172 85 20 167 18 225 173 104 54 221 156 156 228 145 210 141 141 149 109 135 130 253 1 106 134 90 115 207 219 210 63 13 227 181 13 110 197 9 217 207 82 94 218 25 36 121 86 143 35 48 230 78 47 58 252 105 95 8 136 38 237 139 187 127 80 24 70 208 72 73 219 2 85 211 178 12 172 155 144 128 78 225 88 52 98 141 156 124 248 60 64 189 209 234 3 127 113 66 54 40 36 227 240 91 88 17 246 151 250 218 140 78 211 167 206 228 169 210 135 211 153 195 196 92 230 202 139 162 104 0 13 74 92 103 93 109 179 131 206 250 84 150 219 120 90 169 74 126 94 7 10 239 213 176 236 114 133 86 129 250 110 154 62 115 240 209 88 144 25 2 102 80 204 127 96 240 180 131 251 14 161 118 66 67 35 66 77 76 238 202 59 174 219 77 198 142 170 199 115 37 56 221 134 27 255 147 15 166 164 153 53 134 29 89 68 93 208 133 95 171 57 130 200 73 102 105 151 190 149 178 192 208 138 239 76 213 201 230 48
0 74 12 191 242 25 12 237 136 25 225 63 234 215 60 130 49 198 17 16 35 246 159 178 218 28 78 177 124 73 122 236 121 117 175 222 183 147 217 176 110 147 75 185 89 131 76 243 187 92 180 211 241 255 19 250 119 56 8 79 129 196 240 33 211 196 127 191 143 201 64 182 148 84 137 144 90 108 58 38 152 187 141 78 103 29 181 231 86 186 187 41 47 185 158 72 55 76 150 114 118 58 243 25 17 97 136 193 66 229 215 44 173 160 64 97 243 19 150 21 3 96 113 245 107 199 57 214 116 121 47 171 25 159 243 193 196 122 148 29 222 136 253 82 244 15 67 147 101 64 244 213 50 91 58 186 183 11 177 6 217 142 90 57 101 221 137 241 40 31 192 47 135 214 60 38 94 24 90 200 21 205 64 5 219 150 237 201 229 30 175 100 102 49 247 247 70 206 26 38 34 15 87 73 139 110 197 121 203 135 188 183 70 32 175 152 106 212 148 110 69 242 66 57 191 208 135 239 61 209 93 7 110 216 35 188 44 254 43 247 249 93 204 147 117 232 38 9 83 249 199 58 85 46 4 26 133 230 234 206 70 24 223 56 102 175 110 223 169 46 244 105 157 195 53 201 246 153 116 59 95 118 3 246 129 224 79 34 189 124 82 190 224 33 134 110 141 120 25 131
173 77 242 41 146 125 157 208 26 73 180 90 40 224 25 164 65 30 164 218 23 233 153 112 150 233 176 149 21 234 235 206 20 168 66 57 223 222 190 204 8 138 75 135 159 190 214 157 50 157 93 172 25 121 235 230 167 96 7 185 146 50 196 59 135 109 141 91 104 217 192 108 105 78 27 181 57 146 220 28 36 143 78 53 133 178 56 136 215 253 155 91 174 44 64 8 47 69 238 156 203 216 46 6 150 218 81 212 81 119 121 124 86 233 2 118 207 4 81 86 194 210 180 202 146 202 232 219 231 55 135 104 219 27 251 105 166 45 244 234 246 116 30 38 244 69 196 109 40 149 118 140 117 111 222 154 126 159 5 209 164 211 196 149 183 85 125 189 82 63 187 38 77 102 99 105 230 240 83 100 253 188 198 112 47 75 219 154 150 67 238 110 118 47 176 74 90 224 94 111 219 161 120 146 134 57 3 214 25 124 161 247 100 118 210 106 0 147 218 137 67 70 212 211 131 198 248 1 240 228 203 242 146 155 203 60 149 214 33 39 18 216 61 233 108 82 143 130 39 156 27 208 221 104 66 132 236 171 142 19 199 124 240 13 141 30 132 39 83 88 189 104 137 254 0 62 54 46 235 232 242 245 34 132 176 2 31 141 98 100 130 66 47 81 89 246 147 84 254 54
174 229 98 218 38 38 44 8 68 254 39 115 197 118 194 217 75 21 95 145 90 167 193 71 65 142 133 192 158 19 171 64 116 38 197 237 25 144 148 171 173 97 146 168 42 116 146 172 91 209 12 22 233 170 20 191 45 243 214 174 197 211 224 13 137 175 193 38 234 23 170 91 228 170 207 1 178 187 86 141 24 240 153 142 46 160 110 16 135 154 136 119 214 44 83 201 171 190 128 205 117 170 19 50 112 144 216 252 1 176 178 247 157 62 46 89 247 52 140 235 242 87 174 138 99 25 110 37 34 186 18 45 209 112 202 199 237 103 128 69 237 243 157 164 52 88 85 116 60 187 118 12 117 40 152 37 18 86 174 148 130 165 12 255 78 88 33 156 112 150 112 55 146 21 186 107 193 175 194 87 75 194 227 82 185 145 178 12 244 175 129 128 114 207 181 187 66 115 14 20 104 197 222 253 86 26 244 124 14 228 56 131 210 228 44 94 230 64 244 105 242 108 227 163 144 51 14 149 71 239 166 31 33 190 230 242 56 26 225 223 92 61 48 2 44 213 134 204 78 226 235 33 85 16 23 65 159 181 21 14 22 0 44 231 167 167 70 54 65 63 21 207 21 253 2 192 146 150 169 75 228 33 48 240 43 244 210 47 211 67 41 57 132 228 211 225 115 141 189 238
56 218 189 12 65 55 42 8 31 241 137 82 195 16 21 138 26 135 176 15 164 214 53 9 173 93 226 58 68 207 58 149 176 158 5 14 39 48 163 212 153 41 50 66 90 184 204 146 92 46 223 89 243 125 116 195 220 232 115 218 144 17 213 161 221 89 34 118 14 85 3 92 159 151 47 250 187 239 114 227 136 207 91 115 2 183 77 181 96 75 31 176 112 42 81 160 190 149 39 247 24 131 250 124 253 233 22 150 60 10 254 28 3 82 118 102 242 125 84 24 96 32 236 133 238 131 166 119 54 148 139 15 55 146 180 102 82 78 61 90 133 168 219 44 80 22 5 170 133 132 131 208 27 87 61 77 183 200 95 169 51 33 88 38 41 78 187 34 231 237 34 251 53 230 20 209 1 109 113 190 156 252 136 57 125 238 154 169 230 254 204 150 34 125 159 119 215 11 141 14 22 62 55 118 100 211 188 24 87 245 183 84 167 145 35 71 228 134 192 238 240 109 207 134 80 172 17 236 64 226 175 202 146 13 173 240 32 141 124 176 81 51 144 40 138 187 104 206 150 171 54 83 12 24 126 29 16 93 103 54 92 124 251 141 9 57 33 202 240 0 107 239 117 66 183 238 234 249 235 175 207 168 218 193 128 170 98 71 140 185 1 107 168 217 87 85 5 4 119 109
136 210 117 9 70 212 217 225 70 61 202 54 105 201 147 14 223 131 43 85 84 102 210 186 26 245 20 18 125 95 16 224 82 50 160 174 180 225 205 35 235 107 134 116 226 36 139 247 106 87 113 80 33 160 7 92 11 177 135 227 69 1 253 16 56 203 240 51 28 116 205 124 214 70 80 38 219 223 13 119 34 135 72 197 87 145 44 77 230 114 249 83 27 53 3 167 140 103 229 157 95 84 193 27 93 53 205 88 204 78 6 90 143 17 29 237 219 197 35 216 19 129 20 252 19 215 59 143 226 199 171 187 119 137 232 4 66 4 14 150 79 0 229 49 3 124 34 205 28 123 193 83 41 249 155 151 224 37 45 109 4 126 169 62 245 198 102 35 252 251 92 124 183 44 122 107 76 196 91 148 136 177 240 21 2 94 100 187 113 0 19 254 210 184 192 122 230 50 130 154 112 147 61 34 228 70 196 20 41 201 166 88 57 50 52 3 234 182 90 8 188 0 231 114 245 196 109 132 194 248 37 125 75 36 168 52 155 73 168 167 129 91 166 151 241 109 40 167 103 167 20 236 57 109 92 164 74 85 193 149 166 101 145 254 207 155 96 112 2 239 128 5 56 59 23 201 243 197 44 12 231 47 167 70 211 241 167 249 194 206 228 89 4 249 172 78 217 205 97 222
110 18 17 174 211 40 108 160 128 143 109 243 131 122 122 129 124 143 184 178 153 247 32 179 115 41 156 22 169 32 159 209 198 98 151 174 77 148 136 93 47 2 218 144 252 131 149 248 74 76 141 241 123 243 199 3 109 114 72 124 122 190 175 7 108 152 224 197 100 181 134 224 198 63 82 168 204 5 205 91 170 63 19 41 183 96 231 178 225 183 36 120 41 208 27 233 78 160 179 119 123 104 104 127 6 31 193 205 253 22 8 44 7 104 69 180 128 145 201 61 244 82 197 87 184 79 235 93 217 185 124 75 42 174 246 183 104 14 251 83 61 104 153 185 86 201 176 42 148 16 218 60 187 59 129 139 181 146 80 181 78 221 78 82 50 4 86 2 13 169 32 85 246 160 185 70 67 192 171 10 196 113 244 103 119 158 69 94 211 14 210 104 239 93 254 192 92 182 234 54 45 192 138 149 61 229 104 228 27 173 12 166 68 213 104 143 49 1 198 171 54 207 154 241 36 88 41 156 137 91 13 37 84 38 82 39 143 206 58 189 15 93 55 5 113 7 183 228 187 228 185 243 21 18 161 203 130 164 129 7 248 252 59 32 62 37 153 188 89 10 71 112 200 147 137 133 129 210 74 173 248 218 61 108 173 120 97 241 80 167 93 0 6 106 223 165 166 244 25 88
57 48 206 213 40 4 10 53 149 121 209 194 90 228 120 181 101 245 242 32 208 95 123 160 39 128 251 164 162 121 244 72 81 183 15 109 44 218 130 148 243 148 230 2 129 136 75 250 14 229 90 133 193 59 76 199 53 43 11 242 192 148 2 68 237 27 30 164 30 111 17 249 93 7 72 3 169 90 108 135 248 82 145 191 149 222 236 236 68 147 3 37 62 25 8 19 137 237 220 191 35 114 51 150 133 233 33 93 31 181 151 253 236 136 216 224 150 103 68 184 22 2 119 37 136 127 80 247 33 209 199 101 153 73 11 165 115 237 132 161 227 90 37 59 126 243 186 86 250 99 17 236 99 170 254 97 113 232 115 228 24 95 239 165 51 62 144 123 117 29 147 251 211 122 41 40 100 117 160 187 235 17 134 114 200 235 154 171 115 73 223 72 185 50 87 176 100 206 106 154 5 208 98 50 238 46 130 138 76 166 38 225 69 251 145 79 97 11 28 89 139 152 235 2 248 0 19 224 213 161 155 80 14 212 206 128 91 33 211 32 37 249 79 147 112 42 228 6 25 115 48 61 21 88 71 196 91 27 180 249 224 2 42 2 73 147 67 169 73 81 211 204 77 27 54 80 239 40 254 47 34 12 226 41 172 130 154 36 176 221 200 111 201 8 32 225 219 100 183 87
196 125 76 79 47 239 48 185 45 42 179 2 60 129 98 84 91 162 116 42 38 95 18 27 55 114 184 207 18 41 246 9 96 170 203 198 240 214 133 63 92 77 73 45 2 195 10 209 232 120 149 245 241 50 112 179 111 9 7 112 54 88 101 39 150 165 33 117 154 144 240 199 153 1 223 45 241 230 137 140 215 99 100 152 182 128 237 196 116 67 149 93 137 191 147 41 154 75 96 228 122 165 232 9 135 158 248 46 239 65 192 128 150 102 143 186 47 79 80 248 27 127 67 20 15 138 153 95 39 79 235 114 44 197 219 234 28 90 69 91 102 195 235 246 109 181 45 118 147 151 219 47 239 217 153 86 211 181 9 197 23 30 148 16 249 52 42 142 250 153 189 164 189 139 39 56 146 70 109 42 121 22 12 223 188 138 218 54 183 239 37 150 42 140 230 170 176 5 28 2 122 157 165 167 121 98 103 109 56 131 195 25 92 187 6 53 143 201 171 205 204 139 192 96 173 126 113 161 32 137 74 188 68 78 37 81 214 221 70 151 207 193 10 136 43 143 242 112 93 226 64 224 71 235 30 232 112 158 32 171 1 91 120 243 161 8 66 102 157 173 213 79 18 47 59 208 92 5 69 67 161 158 113 71 93 59 129 40 88 42 121 223 176 97 204 71 170 74 236 140
216 73 235 163 236 167 196 219 155 203 1 78 111 5 123 202 86 106 11 76 148 206 94 190 239 222 41 101 205 123 141 18 86 189 114 99 197 115 98 126 35 193 1 225 85 137 197 217 155 195 58 44 144 225 175 97 91 76 9 45 203 137 253 28 26 121 162 40 189 150 29 134 253 112 60 7 5 44 40 15 219 70 182 123 169 236 127 29 30 71 139 191 153 157 137 132 172 125 117 75 90 240 173 1 1 22 69 224 217 30 136 174 252 5 129 36 202 252 229 15 194 182 158 54 239 194 151 237 146 214 21 121 180 210 91 5 111 211 179 158 222 19 73 71 189 137 53 121 44 94 46 94 170 203 119 157 5 238 15 26 84 103 32 154 1 68 8 104 71 172 16 51 235 34 230 186 168 116 9 77 23 83 216 221 167 230 185 125 206 253 37 7 88 144 60 125 252 29 129 12 246 44 69 35 117 69 125 136 249 178 181 163 172 36 18 207 140 248 149 132 38 190 97 167 200 64 135 85 101 194 187 84 55 99 40 133 15 45 194 147 142 38 94 157 53 253 155 74 114 156 228 10 74 113 78 62 127 228 118 13 198 145 74 242 203 104 18 103 27 77 113 22 135 214 140 211 39 195 84 2 145 18 237 218 51 126 147 141 175 181 164 90 180 42 27 151 7 29 203 130
195 69 110 44 244 113 5 85 210 242 21 232 109 235 55 175 129 164 227 94 222 214 73 77 148 87 162 62 191 154 40 29 67 184 249 76 130 195 223 102 81 71 219 103 227 231 89 31 66 240 81 77 242 170 46 36 134 7 24 172 53 17 195 146 15 33 171 46 206 122 140 178 99 226 49 244 165 25 216 139 162 28 234 48 163 133 174 0 99 63 241 113 233 254 72 62 231 111 199 97 202 116 26 148 240 247 209 124 100 26 206 178 153 166 174 179 72 231 125 19 165 8 11 139 1 14 130 150 167 125 100 115 106 138 36 143 66 210 185 65 226 98 19 219 147 218 75 43 35 224 139 154 104 178 57 197 39 178 228 11 119 254 215 67 210 12 98 245 250 246 51 54 175 56 16 247 193 108 216 174 195 75 51 185 101 168 8 116 13 28 164 169 21 79 230 93 70 228 237 130 63 191 181 58 24 115 35 55 143 166 15 97 99 42 239 94 20 134 52 83 124 74 221 92 108 228 46 73 115 45 194 90 226 37 177 145 141 44 42 182 148 192 220 105 111 179 9 25 202 188 163 91 100 0 221 141 100 201 160 9 193 186 213 238 1 47 231 164 83 20 177 150 63 107 167 32 255 90 85 3 105 175 231 225 156 153 169 20 139 177 83 45 127 204 85 81 89 255 107 117
90 166 127 108 3 54 126 90 187 45 101 238 175 244 236 72 15 68 84 158 131 159 165 135 230 22 89 79 138 96 14 108 14 39 113 162 211 12 133 51 245 15 40 119 34 104 147 68 160 211 245 153 223 199 125 175 183 217 43 92 118 47 154 231 196 162 150 136 181 209 95 172 126 175 208 162 164 184 101 247 127 162 149 133 8 75 169 172 200 70 28 194 102 43 146 162 204 43 110 64 171 228 162 187 41 110 249 249 38 244 190 241 200 8 67 44 34 7 33 97 126 127 109 181 147 100 63 157 54 208 216 209 101 35 191 103 240 104 44 54 36 154 248 122 199 61 213 93 193 134 237 165 22 112 45 10 75 216 250 150 25 226 254 23 86 105 38 63 179 236 234 78 168 54 196 101 155 9 159 35 111 208 105 17 12 110 45 121 180 163 140 175 81 58 28 20 189 129 251 179 108 2 154 51 19 46 39 200 38 2 202 27 208 210 247 58 171 24 29 112 115 169 18 185 91 243 103 56 6 48 164 138 67 233 174 55 181 19 146 241 83 99 78 247 56 145 219 24 146 255 249 87 175 204 113 194 22 25 108 133 252 197 113 213 72 177 8 55 149 104 209 45 54 47 120 153 56 52 194 116 188 237 118 128 228 43 157 252 46 60 170 97 235 187 49 104 19 160 38 251
120 102 26 1 81 45 101 8 6 11 136 10 218 92 143 57 133 155 129 105 237 109 243 79 223 17 186 147 124 13 37 47 56 146 112 57 226 40 68 51 204 123 230 5 175 39 1 68 87 77 112 130 123 93 254 39 96 251 34 177 35 18 79 159 206 29 109 55 174 172 104 252 197 7 101 100 158 154 114 109 42 189 31 238 220 153 141 114 203 196 95 14 119 211 232 113 229 36 42 132 141 90 157 213 140 205 109 140 248 235 211 206 192 226 55 214 113 122 64 176 51 139 216 249 23 0 139 234 189 176 220 48 177 38 45 153 51 10 28 50 124 51 140 51 54 179 201 74 140 35 45 244 127 218 206 71 191 247 250 172 17 223 224 133 87 38 234 93 68 83 137 249 143 227 231 169 51 205 46 234 186 71 22 100 24 183 188 25 213 1 85 199 242 66 82 207 168 133 171 14 199 32 114 124 99 173 246 30 124 230 211 159 55 235 109 247 224 157 251 128 205 132 8 220 245 56 59 105 250 204 92 197 219 228 222 199 139 36 216 162 185 141 10 133 199 110 218 12 206 144 186 181 219 142 18 238 194 172 80 216 253 7 113 21 8 91 122 58 43 212 122 22 151 219 230 134 87 170 181 81 207 10 93 42 247 139 94 95 208 142 198 146 80 145 172 111 168 245 201 110
21 33 159 127 185 27 198 163 123 127 251 246 15 43 66 251 138 38 14 220 140 193 62 186 16 244 93 222 100 181 229 217 207 70 236 98 74 137 15 18 56 57 244 168 95 151 250 207 88 97 33 5 218 214 122 47 162 34 98 163 194 126 150 159 177 20 116 105 232 223 109 66 13 189 24 33 1 128 49 44 232 27 85 90 39 111 102 167 199 251 124 217 232 66 37 155 116 178 133 93 238 39 250 40 5 212 170 212 27 147 163 201 254 144 80 163 72 56 107 29 151 18 48 68 93 195 120 134 63 193 156 77 227 49 5 96 87 170 199 70 231 85 103 240 59 83 119 208 131 220 205 166 7 229 222 39 93 187 106 118 78 79 227 136 238 238 16 90 103 205 88 232 190 212 113 22 29 189 108 61 207 194 10 80 167 122 74 179 242 174 162 222 186 236 230 50 5 147 151 193 73 73 4 199 255 156 84 202 224 199 108 218 215 191 176 26 137 30 98 201 134 40 240 72 246 119 189 228 120 221 9 34 144 121 104 131 231 131 117 94 155 36 18 200 148 128 163 244 187 191 86 7 129 176 78 28 99 89 167 93 171 177 176 70 33 75 211 52 25 157 99 129 22 213 70 195 18 182 165 220 134 37 244 189 103 44 86 57 18 161 176 55 3 199 25 136 50 192 151 27
14 95 91 56 145 189 19 240 218 146 16 10 38 200 16 184 43 16 128 116 214 207 203 24 236 81 134 11 149 0 37 48 121 110 197 81 1 95 119 33 158 227 195 93 54 243 249 190 204 11 141 40 222 150 175 234 41 228 6 131 179 227 220 55 1 13 219 204 214 235 208 164 195 43 27 7 150 148 2 160 82 89 129 126 158 73 196 47 204 97 205 68 203 213 186 39 133 171 160 143 123 216 247 99 131 29 231 137 91 167 96 33 31 146 183 176 68 176 108 110 5 253 191 32 222 179 98 214 146 141 111 147 92 200 202 36 154 177 242 253 86 134 88 151 232 60 30 19 208 120 200 184 37 112 163 195 240 142 182 123 209 157 206 118 190 248 210 93 97 247 210 158 38 143 135 231 195 152 186 26 16 247 207 227 22 98 71 228 72 62 81 129 112 69 116 189 1 107 20 169 5 37 155 113 89 23 224 12 148 226 168 194 110 81 228 230 57 223 110 121 236 40 92 167 171 115 48 70 167 72 89 179 108 160 229 237 253 161 240 57 242 117 187 160 237 201 77 30 139 70 220 56 178 35 15 224 136 109 71 2 205 73 122 147 245 250 47 227 201 219 215 210 18 47 156 71 208 206 192 203 24 159 48 72 140 8 42 184 14 57 154 115 102 16 31 12 103 160 19 83
93 246 144 148 125 48 198 138 127 251 132 2 73 27 224 41 202 45 242 242 19 154 83 242 161 195 101 5 33 65 95 97 239 104 158 16 174 86 140 50 51 73 194 51 57 46 208 8 198 67 123 59 122 129 14 27 66 48 190 12 142 181 99 209 126 68 252 172 248 124 170 182 94 202 133 223 230 210 242 233 165 41 96 96 25 12 83 246 24 166 81 193 201 176 183 238 237 227 21 208 61 146 81 232 45 60 206 33 193 149 139 126 109 104 141 81 47 182 208 188 86 161 188 107 201 32 100 107 183 39 25 107 34 16 180 175 106 166 105 201 16 136 46 91 113 251 47 126 94 231 85 206 106 122 91 106 205 99 227 177 11 236 5 194 1 250 129 240 37 184 173 28 170 50 112 113 11 54 180 124 233 188 116 31 152 29 212 144 217 183 56 130 72 240 196 72 113 193 136 181 253 90 117 196 72 120 255 15 88 96 10 255 100 94 3 77 54 4 34 90 21 212 47 123 15 122 42 75 99 84 143 14 191 162 131 72 168 123 231 25 135 117 141 228 14 155 85 99 0 237 84 0 107 141 80 136 115 197 236 57 254 157 169 247 234 36 165 192 237 183 50 145 184 192 136 186 111 234 45 254 217 251 63 238 196 155 151 197 164 199 43 142 209 4 20 243 174 167 32 194
73 134 63 46 82 128 11 53 138 112 150 5 146 21 167 202 133 178 208 152 34 209 105 35 191 73 144 186 229 208 155 77 121 164 76 222 146 56 54 163 210 121 153 83 94 70 29 151 95 141 169 198 143 245 132 55 146 0 218 189 115 112 53 174 93 76 219 61 188 42 223 102 63 102 88 110 252 185 3 166 125 255 170 8 133 142 106 209 81 78 29 28 132 184 150 163 73 64 89 199 154 199 144 83 144 9 164 69 108 70 45 214 47 185 136 1 191 234 211 98 242 133 44 43 0 111 138 44 204 212 255 123 247 221 188 182 230 182 6 24 78 162 150 86 41 90 196 199 128 0 183 15 213 91 169 107 36 12 186 127 123 248 200 17 104 137 69 23 220 76 14 161 0 53 185 228 240 173 242 211 104 177 27 171 114 251 161 173 177 128 30 118 200 248 101 196 185 62 138 236 121 232 210 104 156 209 26 153 47 184 97 112 93 62 9 154 207 135 178 156 74 65 224 237 206 204 118 116 46 223 20 10 61 169 49 11 110 78 103 118 33 184 84 250 197 194 86 56 157 238 39 194 40 191 110 58 156 122 37 97 146 112 51 21 129 52 1 73 201 215 75 120 100 147 50 126 212 60 140 237 19 33 6 231 7 36 240 155 217 234 145 208 107 16 1 218 178 39 64 240
148 33 108 89 45 157 125 227 233 208 66 3 154 2 19 111 31 247 188 17 130 152 130 240 214 226 141 128 61 38 119 215 207 38 251 13 195 97 48 241 250 41 220 162 38 21 74 200 117 94 42 100 56 233 3 28 205 184 156 152 134 195 27 213 54 244 247 194 248 245 139 246 234 49 227 105 208 84 233 64 50 151 79 117 26 106 172 125 155 29 163 139 127 84 39 98 253 208 31 180 14 145 90 165 33 17 105 156 52 99 105 190 57 89 52 70 141 129 35 247 204 75 136 192 49 215 221 233 57 23 39 94 230 146 33 27 55 229 66 62 139 99 80 61 30 109 157 213 155 150 106 98 201 177 157 121 214 29 144 202 59 64 126 21 252 24 174 240 158 208 160 11 112 156 46 2 8 166 173 86 128 6 85 169 110 153 156 33 18 35 192 106 225 30 242 142 54 117 125 37 113 241 186 156 142 60 94 77 167 15 157 153 86 62 247 164 107 217 163 13 230 149 92 8 73 215 186 78 102 89 243 78 30 61 100 65 216 70 204 106 102 4 216 248 33 132 120 27 160 7 36 6 63 79 9 168 190 160 144 165 4 98 183 78 150 168 104 141 157 4 163 42 252 171 210 253 190 244 155 168 145 104 4 137 189 36 80 12 114 73 43 56 137 49 225 252 145 11 30 54
27 44 194 249 60 28 191 66 27 13 93 80 195 45 190 187 38 14 63 212 133 4 94 200 10 122 224 186 150 222 249 125 251 41 132 252 118 53 197 82 27 43 30 96 185 68 23 36 86 60 194 44 0 192 177 163 136 173 89 174 194 114 206 251 33 81 145 140 139 51 102 227 39 49 77 118 149 3 33 207 73 44 129 158 244 223 64 102 38 218 220 62 19 86 125 102 149 4 11 228 136 31 204 27 115 18 99 167 255 159 150 239 207 172 123 5 68 41 131 31 37 86 137 35 187 211 184 110 59 63 71 52 87 9 165 153 216 113 159 196 36 44 126 46 227 11 11 34 250 105 92 203 112 53 165 147 191 196 177 45 196 14 190 242 147 106 200 156 19 217 231 164 201 11 128 247 34 10 81 200 121 251 180 52 231 62 71 173 27 24 96 0 151 51 149 24 28 190 109 188 124 211 88 101 45 123 150 235 36 166 76 212 17 94 243 131 169 185 81 166 198 156 35 106 100 42 18 175 47 79 94 108 132 203 129 219 1 235 17 255 31 39 219 43 132 190 227 123 164 2 93 55 59 215 233 236 76 172 130 98 206 29 99 171 130 126 227 171 179 55 73 136 150 171 92 169 13 16 187 185 143 217 19 114 111 232 49 132 162 82 179 183 39 193 131 239 130 68 69 154
179 250 249 209 46 23 21 215 173 191 128 39 62 93 116 197 76 169 221 205 82 206 82 151 48 132 50 96 178 184 200 158 11 198 101 57 90 200 158 238 45 119 70 230 110 16 14 35 146 161 191 10 135 205 75 126 137 222 69 194 218 37 234 232 87 123 62 70 202 215 138 190 182 101 23 242 121 185 22 226 224 158 1 114 78 10 40 172 246 25 194 135 242 228 210 50 41 45 214 88 84 165 122 190 140 214 251 160 130 222 103 69 138 107 115 206 71 220 30 110 170 228 67 39 213 200 211 4 30 146 247 195 222 204 46 214 185 40 157 200 190 208 50 33 226 105 114 105 172 210 69 132 175 17 86 74 242 255 254 213 91 88 150 227 135 64 25 221 40 162 118 133 235 193 204 204 40 90 109 229 21 110 39 51 113 231 196 59 200 119 93 197 225 228 250 218 53 181 79 81 67 77 109 79 251 75 19 180 71 146 222 81 214 192 37 195 0 138 236 249 82 142 6 144 80 202 45 61 135 19 98 152 9 86 103 113 198 77 90 31 139 79 71 226 63 179 255 196 100 6 109 154 142 0 224 194 136 39 78 159 190 219 255 173 89 238 67 11 130 138 96 142 166 144 132 56 38 152 87 193 213 22 0 183 178 119 142 28 134 80 41 176 50 213 146 94 25 137 7 151
2 71 253 239 55 18 132 254 188 255 216 122 70 196 100 200 175 140 3 43 122 125 226 179 255 57 32 122 44 188 153 85 205 64 22 68 67 228 62 239 166 184 78 147 46 181 84 7 15 208 198 140 67 7 133 120 1 207 207 173 116 240 243 29 185 174 84 54 243 164 59 231 207 129 25 156 242 215 193 254 218 19 1 132 10 143 14 197 46 53 46 153 251 160 218 1 57 42 211 174 7 188 158 9 131 145 43 204 43 191 187 89 73 7 250 41 34 119 81 111 8 123 42 152 39 75 222 211 179 67 79 193 36 104 58 98 45 170 136 222 161 63 92 166 153 30 201 119 113 172 255 203 179 22 177 93 218 66 24 77 193 120 162 108 80 10 229 125 236 206 242 94 172 84 165 252 202 198 175 238 135 127 62 238 95 235 194 191 159 234 117 41 188 30 164 117 227 79 229 38 132 173 147 107 105 116 237 99 117 137 95 136 169 142 14 250 109 252 251 43 144 240 140 175 32 207 60 184 192 53 52 147 39 134 236 164 126 30 205 47 63 127 11 217 242 174 250 109 60 232 140 126 38 67 196 233 64 138 115 137 47 5 228 244 107 112 193 23 235 150 22 127 73 155 255 63 137 220 201 209 182 135 10 178 226 238 166 249 16 9 73 201 84 168 171 187 255 129 226 233
59 188 232 48 122 209 16 133 201 114 246 62 68 61 233 193 75 42 114 75 97 207 244 234 137 37 155 162 13 120 87 130 132 151 106 109 139 55 34 207 117 100 239 129 35 171 93 241 167 78 69 171 157 168 127 207 194 126 15 137 235 191 130 135 133 249 45 178 229 255 51 31 42 16 67 178 119 232 199 252 122 94 237 39 47 216 252 63 85 112 99 166 98 94 201 198 253 77 191 205 85 169 45 152 210 18 28 204 143 105 150 254 59 177 48 68 252 106 240 19 246 162 152 241 93 173 156 87 180 175 140 145 249 74 213 164 136 96 183 23 220 112 127 13 24 34 141 91 33 81 199 119 67 243 194 3 22 153 198 67 97 70 205 111 117 138 53 210 148 97 74 108 156 185 89 64 255 204 245 6 14 2 85 221 196 36 54 190 160 62 31 198 242 244 116 69 83 230 50 63 170 12 137 140 215 32 92 94 114 129 234 239 51 204 103 96 150 160 37 88 136 135 228 28 234 42 50 145 49 8 231 120 38 102 40 164 26 73 224 253 74 161 23 226 6 111 29 139 4 90 139 154 22 217 60 105 158 247 89 251 220 167 63 130 237 145 88 74 43 52 167 248 236 120 169 150 94 17 48 138 236 65 57 61 117 164 56 134 207 86 195 27 8 85 4 227 138 192 34 186
67 111 127 246 147 177 159 85 68 210 229 66 97 249 122 97 70 210 15 181 185 78 214 52 213 247 4 42 60 61 90 198 42 103 211 207 192 148 165 186 172 224 152 39 32 70 124 9 80 114 130 149 243 180 122 218 40 50 76 187 224 39 7 202 225 234 170 54 194 38 89 87 199 146 118 74 130 236 229 246 62 181 188 47 161 166 57 3 12 159 185 97 153 77 179 39 251 120 71 83 69 127 112 217 71 254 48 230 193 160 176 59 110 230 223 82 1 204 36 50 119 6 133 41 216 166 171 177 75 229 119 15 178 161 62 90 109 118 108 242 20 238 230 61 246 95 113 62 7 205 36 134 227 212 240 224 30 80 87 40 126 156 48 48 208 51 30 46 40 49 12 46 178 54 82 96 78 59 179 77 171 97 251 58 21 125 14 81 182 30 225 1 87 100 233 50 40 190 78 90 148 115 180 148 126 243 21 235 1 2 34 72 46 42 254 73 23 54 77 41 214 25 46 151 116 253 16 79 35 165 83 126 198 57 223 5 233 252 144 55 133 157 202 118 41 173 169 7 74 42 222 176 81 200 206 247 2 209 217 122 60 213 89 22 151 8 119 240 92 230 246 102 99 43 125 57 6 213 12 197 185 136 140 33 85 171 171 58 83 182 217 163 173 217 139 201 131 187 90 111
22 230 182 28 91 139 124 161 47 4 12 239 151 236 134 0 236 188 6 81 242 191 101 124 60 211 8 77 151 155 1 75 76 189 178 219 164 95 18 222 133 23 189 87 253 238 110 177 142 55 233 44 230 96 235 15 96 64 22 149 225 217 160 26 197 152 110 204 234 130 111 12 204 55 242 231 255 99 76 168 43 247 146 130 4 11 204 26 140 91 59 31 152 153 192 0 164 123 9 105 79 252 241 248 180 163 42 86 203 200 58 102 11 20 229 162 67 73 12 223 45 98 192 4 19 116 176 42 190 179 215 159 95 160 166 44 192 83 1 107 53 71 230 219 216 44 3 45 172 119 146 127 227 114 187 17 216 177 54 117 189 106 99 192 82 130 131 228 207 153 50 217 28 234 86 4 69 190 179 11 203 47 134 35 143 137 212 153 118 27 212 238 42 123 205 82 28 245 88 185 118 244 56 211 145 99 111 215 232 210 45 126 60 185 167 159 125 19 121 24 171 101 106 26 9 56 50 51 25 52 60 148 35 189 114 172 223 220 12 82 121 77 160 19 118 250 210 192 55 103 237 205 83 62 21 180 206 222 189 213 72 99 249 59 58 154 206 107 255 156 217 118 217 38 220 83 193 164 56 109 118 182 198 67 218 137 67 164 59 239 12 245 151 21 41 87 142 90 21 180
235 137 155 149 210 87 119 225 234 251 198 27 7 242 112 153 111 242 226 204 64 172 246 236 133 227 238 58 26 133 71 2 242 148 235 11 127 142 69 224 95 98 169 201 224 186 93 212 144 127 230 85 246 35 216 208 195 38 81 41 79 255 30 188 58 91 100 5 60 104 216 255 143 64 247 117 22 239 60 197 136 74 233 164 147 69 101 36 177 177 226 30 22 91 174 108 172 73 127 179 37 240 74 166 92 255 246 127 135 212 92 169 109 88 155 62 205 95 186 99 117 209 43 145 15 244 55 70 193 252 187 234 244 80 200 194 222 164 96 14 61 11 34 153 83 16 235 182 205 46 188 131 156 167 118 30 121 69 30 209 41 92 48 83 139 97 149 228 25 68 219 18 144 36 68 20 229 140 8 244 82 120 32 174 166 245 114 119 41 207 202 215 222 62 16 136 213 144 210 110 47 16 203 190 210 13 155 21 231 23 98 116 165 225 114 8 168 133 255 154 140 9 159 105 248 223 114 33 254 199 185 247 111 221 219 89 74 161 237 87 218 151 216 100 17 202 208 121 190 118 96 221 234 63 81 113 254 219 237 142 220 47 195 64 219 254 55 192 160 87 184 198 30 201 43 188 187 244 10 122 203 158 104 214 205 99 105 146 176 157 251 253 35 90 190 216 174 165 31 34
76 13 239 3 22 124 47 210 254 249 134 117 62 227 189 86 50 100 254 8 208 212 187 162 70 189 13 216 224 91 86 83 180 118 173 101 171 212 36 173 235 217 36 181 62 239 119 121 72 213 238 207 37 209 111 13 103 20 101 109 112 31 83 216 248 9 206 170 16 62 177 126 126 250 54 3 82 30 162 184 244 129 137 214 202 72 148 146 71 199 141 55 94 188 225 135 95 250 218 29 92 250 201 169 228 42 120 143 167 34 54 188 187 237 184 239 114 255 45 133 163 23 116 203 79 102 174 212 196 138 127 80 207 52 22 212 81 74 166 3 154 8 45 194 138 12 119 8 129 215 214 181 216 66 35 151 133 121 168 122 9 70 223 246 106 125 126 66 209 231 181 252 211 239 171 136 33 233 134 36 215 199 187 61 185 60 217 154 73 57 133 137 6 250 41 113 229 229 37 27 193 237 161 6 20 40 4 222 18 153 229 253 140 144 13 229 254 147 49 12 124 157 235 172 90 114 31 45 106 112 172 27 238 6 189 117 167 175 110 1 208 226 108 132 162 36 55 128 254 231 50 159 246 245 232 60 25 205 167 18 226 113 224 103 155 168 90 187 1 122 249 44 195 224 184 45 108 89 176 36 244 137 246 148 95 99 252 99 177 148 173 208 187 112 21 89 176 224 59 135
167 108 43 42 71 233 235 7 228 30 138 201 212 101 40 207 104 104 158 217 208 241 100 59 244 119 78 243 230 37 116 70 18 169 23 113 161 19 135 123 52 246 238 239 49 96 71 249 14 138 250 34 100 152 107 31 247 117 162 103 37 252 135 193 111 130 2 123 23 222 221 141 87 239 71 227 253 83 166 218 16 156 113 195 42 233 130 218 94 149 45 223 205 237 159 88 33 98 81 81 90 205 168 2 218 178 46 194 222 102 183 84 33 218 132 75 176 191 62 159 190 162 153 204 20 190 233 173 44 103 181 1 167 166 122 220 168 60 211 230 161 169 96 120 110 168 120 181 110 9 227 94 161 230 19 176 41 224 101 242 167 97 145 88 175 135 166 97 83 250 179 234 73 202 128 110 227 182 81 28 93 155 89 217 98 12 19 170 11 50 94 179 90 70 59 73 251 215 102 117 109 114 69 46 189 49 196 178 235 95 155 207 54 253 64 38 46 75 177 141 150 57 22 68 142 7 36 218 120 155 7 205 145 9 18 152 74 216 164 87 105 52 76 120 39 82 82 245 121 163 98 193 117 9 83 228 127 168 6 52 55 194 221 181 230 250 229 74 76 91 5 153 64 243 1 184 182 195 34 100 34 74 118 116 118 172 80 123 124 156 216 128 135 35 143 203 203 153 181 238
157 218 174 106 82 217 217 20 216 112 203 85 174 176 160 87 112 73 122 172 133 215 89 229 225 199 117 195 120 5 49 65 235 42 236 235 6 0 216 211 168 54 167 26 186 246 156 25 25 196 129 224 70 203 179 153 237 105 79 69 19 232 98 51 59 244 195 25 221 1 40 101 97 20 15 119 214 45 2 122 144 201 156 82 109 232 62 74 108 98 55 144 141 170 33 72 231 105 48 90 78 186 82 72 53 254 158 203 242 215 227 203 150 128 219 179 226 63 83 12 204 231 152 227 84 208 243 203 83 166 214 115 31 225 179 74 114 28 16 95 233 166 147 174 36 35 224 237 126 188 99 102 123 155 222 97 110 161 51 94 145 123 176 220 245 179 54 121 97 50 220 27 124 31 85 186 177 154 117 158 154 124 93 101 242 89 255 153 98 187 131 175 77 77 231 57 62 104 75 231 215 182 128 151 144 175 154 47 25 182 87 152 109 242 165 215 80 43 163 106 172 243 128 213 115 32 212 119 213 66 161 63 207 160 124 22 35 158 97 210 2 223 236 42 8 201 11 244 111 206 244 234 177 75 127 48 64 35 154 37 189 124 162 113 218 245 100 50 72 86 18 2 198 107 62 72 237 247 66 216 74 19 247 99 94 61 238 188 150 63 214 134 159 77 27 219 22 205 27 2
155 0 77 191 194 33 232 247 40 107 53 199 186 223 95 254 77 1 34 205 30 126 250 78 238 41 175 228 122 71 239 206 203 133 150 130 188 146 206 112 28 52 48 188 8 165 128 240 76 137 181 216 202 125 124 228 62 150 194 127 23 98 93 218 176 237 241 202 151 177 144 151 236 104 186 27 151 44 116 155 24 69 162 12 30 72 194 20 160 233 61 182 120 173 16 200 103 170 99 31 140 146 2 56 175 128 248 150 241 1 27 50 37 124 147 226 237 211 28 66 117 251 33 192 140 169 38 160 136 238 124 203 199 142 208 141 155 186 32 113 241 10 251 30 2 27 243 156 31 32 52 234 73 90 68 182 172 166 155 81 133 94 162 37 250 192 136 204 186 206 89 173 141 1 126 31 13 117 113 35 1 26 237 100 248 197 195 33 123 119 242 60 21 178 244 100 255 226 210 80 64 230 46 115 191 222 247 158 94 117 96 162 139 106 233 4 18 15 64 100 124 238 42 111 167 33 113 236 68 192 208 168 9 6 240 219 156 177 223 31 222 124 249 225 139 5 36 186 96 100 53 187 203 195 221 33 251 59 17 121 42 202 101 28 28 42 168 138 103 36 102 212 227 39 252 92 39 204 21 25 151 78 156 89 30 128 143 48 75 197 3 22 78 29 43 3 194 82 243 30
181 78 53 162 251 9 142 118 123 13 201 86 78 157 143 107 215 216 190 22 136 173 73 207 236 240 247 20 152 189 187 207 79 21 188 47 89 1 216 0 201 45 238 197 160 249 88 8 229 38 124 4 74 109 240 198 62 222 213 94 73 236 119 63 161 107 192 62 254 29 190 126 103 194 167 28 81 153 127 99 183 86 76 68 235 22 251 5 39 5 161 100 22 175 70 149 222 57 136 2 211 118 8 48 234 211 145 72 231 248 180 91 231 148 223 76 44 39 30 255 177 147 175 34 17 231 186 71 161 59 50 174 199 144 21 72 118 237 52 226 158 181 154 226 76 179 89 228 243 126 14 98 138 147 115 5 218 86 226 93 31 141 33 68 177 70 118 56 67 201 36 108 10 74 31 205 232 198 29 120 251 79 157 0 6 22 83 33 248 82 215 127 73 86 101 79 160 114 148 248 42 64 87 249 238 87 201 66 219 150 201 84 52 249 133 76 166 153 118 148 244 252 5 45 163 222 155 54 80 175 253 111 49 233 48 176 148 159 153 123 141 238 4 6 100 117 128 130 24 117 243 196 215 245 225 115 71 253 234 188 5 77 253 27 107 253 119 84 128 61 117 129 118 138 243 7 157 184 47 28 70 121 137 167 174 250 80 122 135 19 40 217 136 7 207 15 133 131 180 37
205 152 28 79 51 54 233 194 243 113 187 230 19 155 63 158 63 193 80 181 69 41 145 5 157 218 38 50 253 101 175 83 190 21 16 34 210 23 160 166 8 149 180 166 128 114 164 149 161 46 144 21 48 184 99 76 36 225 77 79 2 209 209 162 227 211 83 184 45 211 192 106 134 79 48 222 139 103 51 77 48 156 100 135 58 180 22 54 46 121 68 241 141 19 30 163 141 9 34 234 154 165 108 145 228 149 66 48 53 232 91 184 28 254 105 17 53 15 207 101 25 17 30 104 27 151 216 252 244 65 219 44 185 122 116 183 199 179 107 29 170 94 155 133 250 192 253 8 210 103 134 163 178 192 44 178 82 225 121 132 159 188 223 249 212 107 38 221 179 226 82 133 245 106 186 82 73 205 6 195 123 62 63 142 78 30 80 242 128 181 216 16 55 153 108 229 215 61 70 12 17 202 253 98 137 99 164 187 199 140 77 9 23 212 78 125 212 123 80 1 110 216 231 204 43 63 25 201 36 153 221 211 141 37 158 184 231 58 108 186 161 130 87 38 240 67 116 253 53 89 4 37 55 69 65 154 190 88 127 219 63 55 179 196 38 40 170 159 115 106 200 44 140 77 123 81 48 38 112 137 128 252 185 227 122 89 134 185 230 152 186 123 117 220 136 47 50 179 44 165
79 234 132 125 111 174 40 152 16 93 69 46 69 52 161 246 216 10 186 18 159 76 25 76 212 34 69 45 41 43 73 202 211 217 115 105 112 244 97 201 71 87 243 228 43 237 20 237 244 228 132 46 234 166 22 190 47 35 220 75 69 153 69 44 113 86 54 17 223 151 250 130 137 193 28 71 4 165 195 142 20 73 77 93 157 18 195 119 75 243 46 216 230 235 16 128 197 194 4 220 237 5 181 143 210 224 37 243 92 143 94 92 78 209 107 51 56 108 67 157 59 29 153 137 113 211 224 79 62 91 220 1 188 65 20 96 20 49 172 17 164 42 67 10 191 15 234 215 114 249 184 204 200 162 193 237 83 14 240 78 92 200 55 17 237 199 108 232 7 148 48 200 75 74 191 255 102 220 60 25 20 249 111 191 14 28 9 94 159 176 17 185 218 227 62 86 160 53 99 216 171 200 36 181 37 135 115 54 105 82 204 64 25 24 170 103 0 62 57 152 46 62 76 151 103 110 45 130 69 188 104 111 160 15 145 93 47 161 147 175 230 96 43 162 152 75 172 117 113 232 234 129 28 51 190 186 233 230 21 171 173 22 69 86 180 8 184 245 167 187 132 44 13 133 248 237 144 151 28 157 191 77 216 102 64 220 189 127 198 216 149 115 157 59 19 180 139 96 207 100
206 111 179 54 174 39 124 6 159 44 221 128 104 252 37 248 32 76 95 146 53 51 230 132 13 204 41 228 224 56 85 36 3 62 3 254 144 187 98 255 186 145 67 123 247 30 96 253 143 132 154 213 25 146 129 104 59 244 91 70 184 133 211 202 53 151 119 224 115 74 93 229 239 71 152 181 184 53 165 92 119 6 211 21 135 210 97 20 125 24 190 159 197 235 48 47 225 143 225 58 189 84 92 148 48 227 62 231 102 74 161 201 26 73 218 87 159 226 126 68 185 252 243 124 5 166 117 101 214 0 48 244 168 143 155 126 48 213 23 80 177 54 53 142 90 136 190 230 46 198 224 87 199 123 114 49 74 175 172 36 17 67 248 72 181 108 52 240 35 243 19 175 11 131 251 139 214 205 118 207 123 128 208 187 173 157 179 252 184 188 57 126 171 238 39 128 114 227 245 26 170 39 205 0 39 198 98 42 27 114 5 130 169 76 221 40 25 146 8 149 198 174 153 127 254 3 121 20 140 130 240 244 161 58 224 57 41 219 229 235 116 155 152 92 150 208 151 208 208 56 135 142 25 45 89 138 11 71 58 13 25 171 125 111 39 199 193 63 51 133 1 37 254 244 113 146 73 65 112 233 163 127 81 10 11 32 0 91 107 216 84 33 90 252 73 195 22 106 43 19
48 103 164 247 81 164 90 192 185 145 198 248 223 22 32 77 156 4 218 30 4 7 156 243 181 106 105 181 19 125 107 153 202 177 193 229 179 209 121 182 1 35 222 48 6 48 52 219 15 216 230 45 107 124 160 23 233 214 168 64 3 92 84 218 188 22 105 219 136 83 92 140 75 77 17 249 108 44 246 228 168 207 146 136 113 133 72 169 77 251 169 65 164 125 142 159 154 100 26 10 145 197 218 49 165 194 128 113 161 49 222 1 197 167 192 89 26 7 230 165 124 56 110 119 115 215 97 164 224 224 5 236 41 53 180 11 172 75 224 202 17 149 56 99 197 155 192 19 114 247 220 78 68 180 182 61 84 195 224 114 201 70 39 233 136 169 85 48 251 97 65 243 235 238 236 113 28 246 120 82 103 195 192 29 232 81 205 246 91 86 201 9 11 49 216 74 149 60 226 244 228 155 95 108 43 75 111 240 21 102 170 206 206 29 212 69 198 8 209 238 162 23 59 95 193 0 249 152 212 160 179 29 33 43 149 6 194 247 65 36 42 150 39 200 224 20 233 67 84 159 123 185 219 169 69 184 24 233 146 213 201 134 189 143 209 115 105 242 150 85 114 12 248 20 103 168 151 142 169 229 13 242 187 115 28 55 23 225 42 14 5 203 8 80 128 30 199 103 183 87
124 92 120 73 45 172 86 58 49 69 83 62 0 13 121 246 248 8 128 168 157 157 254 189 245 244 75 236 56 144 105 120 98 130 95 86 35 137 161 29 59 73 107 223 91 255 89 193 233 234 106 206 41 19 48 148 62 189 189 43 4 71 11 176 80 40 94 245 109 124 208 41 183 8 234 233 165 53 171 237 72 148 147 107 65 79 75 244 80 42 109 67 168 64 70 169 170 193 50 33 84 233 98 56 67 127 12 155 214 208 141 33 153 75 158 43 70 5 23 45 209 254 213 54 197 215 195 86 4 191 169 88 179 250 173 112 176 67 32 248 11 17 89 168 117 37 36 160 53 185 56 154 114 126 37 95 48 59 154 38 19 22 95 232 1 32 101 235 85 128 197 28 202 19 162 234 69 10 225 153 151 101 235 93 252 212 197 122 141 91 201 50 72 248 71 113 133 86 4 113 240 147 45 253 44 5 36 153 134 237 206 62 111 169 178 21 217 43 134 255 226 137 90 3 147 124 60 85 2 196 159 52 130 101 211 99 151 98 169 126 50 31 212 254 152 26 116 207 48 116 104 245 19 117 220 165 53 153 173 143 58 14 239 48 109 72 16 3 62 173 252 209 95 67 52 217 57 17 85 140 138 46 170 81 75 6 146 163 143 9 85 146 115 130 17 194 72 213 102 76
156 137 4 219 156 29 241 218 114 232 90 79 47 211 190 104 124 252 74 114 43 56 111 99 238 53 182 7 145 119 10 84 0 207 160 127 75 198 37 58 35 99 113 111 82 195 188 149 17 22 193 104 202 217 142 164 29 78 32 196 176 237 180 192 215 249 105 122 34 41 147 89 166 49 177 244 199 109 40 84 218 199 194 233 176 169 162 153 52 170 106 55 187 197 198 19 172 72 86 131 101 124 155 184 133 30 252 103 230 227 24 223 43 64 142 64 112 126 116 25 55 111 26 120 123 109 164 7 56 22 118 187 68 26 87 172 231 179 255 82 90 82 181 12 234 16 222 6 49 2 163 58 226 232 144 97 237 70 99 114 111 108 253 156 121 186 49 187 105 36 76 62 54 192 133 77 64 85 126 112 166 159 80 58 12 29 245 251 178 229 203 211 146 151 116 245 183 96 68 200 36 92 197 177 173 189 163 185 39 145 161 232 198 94 168 54 81 25 111 14 107 165 36 90 5 82 169 128 166 71 246 133 175 33 40 39 185 151 89 133 175 119 224 240 191 110 232 81 12 82 232 135 39 73 117 49 51 31 212 7 43 198 147 116 83 123 133 233 35 144 49 132 29 137 88 11 119 239 97 66 151 72 86 44 201 100 143 16 186 154 225 131 157 14 198 243 23 108 70 4
193 254 19 200 219 133 147 242 80 23 37 120 68 3 15 106 240 145 246 154 75 122 243 142 216 64 178 121 19 224 59 149 106 149 74 3 131 207 20 17 235 189 110 80 110 100 213 6 3 43 94 160 149 211 171 85 198 211 236 33 193 221 185 23 193 167 226 157 130 64 180 57 64 35 222 141 5 29 7 201 59 217 227 223 138 168 118 94 209 69 223 169 47 223 2 129 196 161 162 202 47 214 154 212 141 161 34 142 174 53 151 122 216 198 73 246 65 94 85 72 161 30 238 207 137 242 85 65 109 17 98 13 155 171 54 186 158 188 19 206 202 187 163 119 183 92 220 254 47 189 53 252 115 58 134 182 36 44 60 201 179 14 170 172 24 95 171 253 233 209 88 244 18 10 71 29 220 94 191 189 97 79 2 20 85 6 185 179 153 206 112 72 178 87 26 40 74 244 17 235 188 72 176 161 11 13 237 130 26 10 38 176 138 34 126 93 219 242 253 203 121 218 140 148 49 23 23 220 157 6 189 231 151 115 199 143 98 56 109 186 184 35 231 87 255 166 187 161 87 197 176 135 237 188 15 56 255 39 60 1 33 13 17 164 178 122 30 226 204 132 225 34 145 141 73 69 84 75 216 78 34 90 249 2 50 211 186 212 146 152 166 121 81 112 89 204 175 200 108 19
109 21 99 243 6 72 156 103 164 105 201 182 43 14 33 97 78 154 153 159 225 49 226 15 177 34 86 85 149 172 141 137 19 13 167 61 240 22 34 240 89 44 108 98 99 64 78 6 193 25 233 181 52 41 185 158 198 56 26 136 5 171 106 54 0 220 94 123 1 4 146 149 97 116 30 153 77 95 130 38 93 39 115 252 17 42 146 129 180 160 239 174 216 87 245 96 237 90 196 202 96 123 87 30 206 12 111 179 243 13 174 116 140 13 207 128 84 202 77 146 64 56 45 239 154 233 67 120 176 235 92 103 209 83 235 20 21 71 15 30 223 68 61 63 0 64 54 218 124 92 75 234 212 150 79 156 67 46 15 232 30 163 246 126 48 134 194 192 77 52 222 244 162 51 178 10 36 167 187 180 98 160 19 112 130 151 170 143 160 199 138 245 35 140 145 101 67 188 206 15 30 243 188 25 96 40 110 73 242 174 62 224 181 227 132 74 247 167 55 110 72 4 61 155 106 45 112 175 159 232 123 83 35 159 240 83 199 197 77 88 239 97 171 202 157 62 146 104 195 27 83 22 133 164 83 244 223 251 99 106 230 144 33 155 207 39 16 46 239 34 31 210 126 219 58 171 191 151 117 77 117 103 162 33 86 233 181 49 186 177 85 97 112 73 234 249 215 85 66 47
191 112 240 215 134 183 9 21 214 70 241 243 95 123 9 1 171 136 105 241 3 77 113 67 181 3 40 185 230 100 167 192 129 16 182 246 27 158 217 172 36 190 1 76 213 69 11 47 211 105 30 159 149 58 226 181 81 141 150 144 52 117 181 108 236 128 246 177 91 38 58 26 165 137 4 134 78 116 0 96 27 92 9 178 170 51 57 244 50 229 59 238 40 125 215 96 28 207 254 174 123 161 197 22 48 143 180 65 60 22 238 57 243 11 60 247 50 92 207 221 160 160 20 214 78 186 177 86 150 21 19 54 150 245 222 53 52 92 51 22 247 120 87 50 241 230 76 210 240 134 127 212 25 170 30 103 151 26 208 145 169 12 58 16 196 178 108 158 187 151 27 210 170 209 27 173 132 78 207 17 88 32 66 42 215 217 225 238 165 153 8 104 42 58 144 106 14 34 5 131 159 10 76 147 33 255 6 131 39 30 120 138 131 147 90 60 235 7 130 7 150 36 197 3 95 47 179 144 120 9 81 8 116 197 223 130 61 231 45 184 167 63 142 160 150 42 210 218 33 27 214 238 231 103 15 200 245 73 225 118 15 98 173 236 160 49 197 223 94 39 198 202 192 95 60 11 137 26 144 124 54 153 40 28 8 59 227 63 119 241 44 213 181 17 176 158 122 176 167 78
86 133 121 178 138 163 85 208 14 155 84 51 197 7 78 47 114 8 181 67 209 223 81 180 238 141 248 155 162 86 109 69 43 47 214 184 79 95 7 197 104 116 104 189 248 130 38 183 142 36 255 233 18 39 41 139 19 70 28 9 6 195 111 220 134 74 7 149 25 55 14 42 249 186 147 105 86 59 11 98 131 115 188 32 146 166 215 4 149 221 228 35 142 93 7 145 5 84 155 136 233 152 37 55 147 19 29 156 69 94 38 255 113 241 237 227 233 44 248 188 172 97 113 96 37 37 134 56 234 214 226 31 179 84 208 182 246 125 143 29 207 64 111 162 132 220 128 125 212 25 150 224 143 178 240 216 127 91 223 113 132 252 113 209 71 23 111 198 13 237 166 28 21 213 185 182 212 243 188 81 19 179 218 140 188 142 43 220 49 157 101 5 5 227 109 54 102 77 140 108 247 90 214 157 101 89 229 69 7 56 78 193 67 18 11 97 79 29 72 234 89 126 37 237 171 114 155 71 218 39 80 30 189 171 18 65 58 109 100 203 7 82 203 138 66 243 155 179 211 0 187 242 131 207 128 212 216 89 33 32 135 166 94 141 140 26 179 58 200 19 26 196 15 115 142 178 70 137 2 126 15 129 97 160 48 7 119 154 240 28 50 63 111 138 196 126 57 238 35 121
15 149 165 166 218 160 209 137 35 5 74 30 143 60 71 165 22 213 162 18 212 224 102 107 225 102 114 100 182 103 191 239 234 115 213 1 52 104 33 131 191 170 205 240 202 122 127 62 155 209 29 93 33 152 204 117 74 140 101 136 222 224 227 191 51 212 137 133 125 193 33 21 234 25 35 39 201 41 132 179 176 167 183 204 175 81 117 242 188 137 33 87 182 59 101 173 109 107 28 110 25 244 69 139 233 158 201 78 17 51 96 103 124 53 26 138 58 55 47 219 189 157 64 166 157 140 95 212 70 134 113 50 184 28 95 95 151 52 88 86 213 74 41 152 6 204 99 46 34 52 27 24 194 69 18 238 237 165 172 101 146 86 58 191 96 43 39 131 113 176 38 172 200 206 63 160 96 79 80 158 167 111 49 215 135 11 239 33 148 163 114 249 131 173 141 54 107 120 153 53 121 241 99 230 44 219 179 83 22 74 248 216 247 173 144 43 109 80 51 166 235 218 2 11 176 100 143 43 69 134 23 53 17 55 171 49 141 241 241 186 98 149 198 222 12 132 36 152 228 139 2 183 198 186 193 231 66 226 31 169 46 140 43 104 149 198 54 249 224 202 138 179 100 60 62 65 252 14 26 72 97 206 117 94 236 159 170 145 122 164 228 219 104 172 80 49 234 101 58 204
119 145 228 164 183 216 160 184 219 194 199 64 227 99 81 208 152 219 222 70 241 36 28 5 117 160 137 174 21 237 14 98 200 37 118 33 74 169 251 169 221 210 54 255 69 165 31 160 162 77 101 224 137 18 222 193 217 75 22 223 74 57 0 54 82 212 243 109 154 127 45 49 9 34 182 15 202 51 176 15 186 145 240 184 223 166 235 199 136 215 72 253 209 131 119 223 220 140 98 8 46 61 221 139 26 108 34 57 236 33 134 108 129 142 14 64 63 34 110 222 213 231 167 168 77 2 49 33 225 93 19 172 31 77 211 70 11 46 15 170 152 87 175 91 80 32 240 126 241 251 193 60 9 252 23 66 202 116 126 37 217 248 132 223 241 221 74 16 252 213 229 191 193 232 193 101 117 56 226 90 240 135 43 85 34 149 81 227 226 102 111 127 58 55 135 41 34 176 238 236 148 156 177 196 131 145 190 16 51 25 64 62 33 238 18 45 232 42 253 95 182 166 70 236 66 237 247 217 84 216 210 135 105 90 24 6 14 117 111 67 180 82 76 139 40 190 165 14 40 54 179 111 2 85 37 214 180 221 138 34 128 104 83 108 12 233 187 164 171 2 227 70 4 245 49 255 223 233 112 146 237 101 80 48 180 248 61 7 184 252 111 152 77 47 157 137 105 37 60 63
80 22 71 42 215 98 197 247 9 146 180 68 136 77 193 122 137 92 90 160 227 190 10 92 161 23 50 131 91 168 52 85 135 87 53 64 250 43 165 252 52 174 246 7 254 97 205 24 139 175 71 150 209 132 91 185 73 135 189 146 240 152 71 238 116 98 36 199 50 124 162 97 0 232 242 244 110 124 18 251 92 97 229 1 206 137 221 223 85 65 38 178 170 247 171 11 249 41 238 248 136 156 186 109 77 81 64 211 189 18 68 254 242 176 199 231 47 195 99 41 59 220 5 9 250 45 66 154 142 224 46 194 35 229 220 52 208 182 203 158 181 150 110 73 114 196 32 42 70 197 106 198 215 173 252 132 211 210 99 176 220 176 111 34 220 21 95 113 168 7 76 212 70 195 246 73 100 101 107 62 26 129 162 173 46 155 50 186 54 104 124 5 9 149 216 127 158 8 44 205 62 239 55 153 129 77 46 238 0 140 3 22 183 146 168 224 103 55 32 176 120 246 152 85 93 110 212 162 102 5 232 44 82 204 226 15 55 3 58 217 170 37 53 84 56 156 14 133 67 204 141 98 39 119 54 228 222 52 233 45 8 37 186 97 251 251 21 115 168 118 180 249 70 254 179 89 226 7 16 125 240 189 205 80 98 249 240 29 81 67 182 161 39 102 17 179 255 149 210 12
129 204 118 12 182 198 197 182 37 173 38 170 174 120 185 95 10 84 168 197 140 27 162 109 137 210 53 233 249 95 220 190 60 88 71 45 146 192 149 52 106 160 40 82 121 213 97 40 146 2 100 95 135 91 162 83 238 111 80 89 83 214 83 168 5 252 65 199 248 251 84 172 116 29 114 188 52 242 255 48 144 32 159 181 235 226 181 134 167 198 120 219 85 102 13 217 160 239 36 38 95 76 120 20 204 148 211 158 96 66 173 85 63 246 220 108 29 57 19 77 155 204 44 84 15 45 176 191 77 83 176 93 39 238 240 191 183 67 155 50 52 76 101 83 106 239 177 17 113 12 141 194 53 131 176 167 66 126 20 56 28 252 110 108 105 166 96 13 150 8 228 31 122 184 190 243 159 240 27 48 234 141 206 11 117 240 188 45 163 216 62 167 91 137 185 60 252 251 80 165 218 202 78 92 229 59 242 236 109 77 108 147 207 225 32 152 203 98 89 91 49 96 209 249 188 247 145 18 181 221 65 54 57 197 93 237 151 141 108 183 251 61 204 213 248 179 173 50 72 35 106 72 186 148 205 77 90 10 28 121 231 111 255 232 153 134 88 61 154 8 232 251 4 207 160 83 49 5 197 9 204 114 138 60 251 161 103 199 46 40 244 82 13 163 140 137 123 147 151 58
227 80 191 20 74 230 158 214 145 101 51 49 13 246 87 230 213 233 16 1 142 111 219 179 54 63 158 75 19 41 9 10 87 6 50 17 241 136 219 2 125 84 228 129 84 24 58 7 102 129 17 32 172 163 7 23 144 131 86 178 191 8 151 94 139 46 241 151 89 102 52 160 193 36 231 253 113 109 143 36 185 152 233 22 191 21 218 249 253 47 3 53 59 184 28 136 184 193 92 181 209 146 145 12 25 173 224 187 246 154 34 224 116 159 215 71 207 196 152 99 98 110 199 2 121 221 88 125 86 178 17 148 105 249 216 143 51 42 40 226 55 93 232 100 253 227 237 249 107 7 230 38 136 65 157 50 53 221 249 91 123 254 65 144 185 222 69 242 69 164 154 248 250 158 42 192 116 250 77 16 168 26 49 8 250 7 204 125 45 62 208 88 245 130 91 154 239 96 131 164 53 134 173 142 114 134 138 1 249 73 209 24 73 130 25 211 128 242 113 16 235 218 161 117 70 236 22 108 220 108 219 34 192 139 130 56 77 211 48 132 162 206 77 232 0 183 230 150 244 55 98 237 88 66 214 171 251 127 254 115 182 27 130 208 43 154 210 175 141 82 145 10 226 173 20 206 238 179 116 46 11 211 249 93 186 13 238 169 74 36 21 127 143 243 163 30 65 27 252 147
110 170 213 223 156 84 250 155 179 42 240 103 196 179 96 104 18 46 203 154 198 92 215 250 104 221 169 208 17 80 195 20 141 114 19 79 232 14 119 240 122 172 210 155 148 163 89 189 13 164 234 241 115 246 98 211 51 68 240 116 2 28 241 86 185 190 148 52 70 32 86 154 96 82 21 76 215 32 98 148 70 18 194 209 178 7 165 70 25 20 41 29 234 199 10 178 104 95 53 235 72 177 2 67 241 56 253 0 126 61 57 23 82 139 110 82 165 202 108 153 199 58 101 135 209 49 124 175 31 201 154 14 144 87 20 208 59 204 137 27 85 4 136 109 152 157 108 171 18 55 118 137 89 207 133 121 3 254 58 36 222 67 147 115 138 175 203 152 219 154 41 252 221 25 226 51 236 123 107 66 173 37 38 217 234 123 156 120 110 204 73 254 94 129 145 138 245 216 77 168 18 85 185 89 73 74 251 209 255 24 59 211 8 212 144 150 116 66 152 255 193 186 177 70 97 183 103 15 76 249 63 232 32 55 225 26 194 21 185 249 119 95 40 46 245 6 255 191 73 169 211 91 217 217 46 184 232 232 66 110 200 61 44 204 225 40 156 152 153 84 126 35 40 88 180 92 247 216 214 234 218 200 131 211 206 184 82 22 81 194 194 223 207 113 252 128 177 45 14 198
16 205 235 140 154 72 66 149 79 37 149 248 22 129 50 152 108 134 195 138 104 65 229 16 143 234 189 201 228 153 218 98 136 235 167 208 162 26 16 39 94 38 102 134 169 40 67 137 242 38 53 77 222 226 155 4 231 252 184 152 117 161 20 51 218 4 165 103 101 161 69 69 213 134 33 148 196 112 170 127 5 108 12 98 217 245 122 61 201 147 0 15 66 164 150 236 92 203 93 165 237 129 81 141 209 222 97 190 55 164 162 238 188 250 240 243 48 66 241 203 18 41 105 245 47 255 0 209 163 29 134 234 54 42 46 121 222 157 233 219 61 57 27 56 79 235 204 159 54 237 181 217 23 7 116 177 127 177 147 29 80 215 29 202 2 40 188 80 60 18 194 210 157 202 57 230 150 75 56 18 137 169 203 43 199 17 44 112 53 5 206 121 226 228 139 100 36 200 137 194 215 249 38 200 104 228 241 107 150 86 239 43 204 116 84 151 130 180 204 126 243 26 5 43 87 113 37 158 188 140 26 223 111 164 68 34 94 239 99 175 56 120 193 136 32 55 236 209 172 175 185 178 179 34 135 77 230 201 119 80 16 207 30 243 155 78 206 156 121 100 94 35 67 35 209 178 98 189 116 49 93 60 162 81 138 49 199 199 188 35 29 10 27 49 237 218 128 76 62 175
114 225 102 163 98 114 25 5 188 4 254 180 9 48 13 122 158 154 45 144 159 237 176 58 0 235 220 224 206 85 136 83 6 135 253 9 0 207 241 63 245 222 58 248 5 195 151 152 95 104 176 14 186 173 27 246 137 10 10 35 252 83 22 85 181 32 138 7 233 125 94 204 150 202 160 194 239 221 97 180 15 16 148 204 109 238 221 243 219 42 238 218 187 195 196 120 121 2 12 150 84 13 179 225 98 211 129 130 5 64 111 63 130 111 239 220 12 219 108 52 62 74 132 117 127 127 195 63 52 122 107 28 101 159 78 148 39 175 119 63 208 255 45 117 40 169 0 187 252 10 61 108 222 137 114 41 78 137 90 155 82 29 140 69 231 134 128 34 99 248 3 143 178 174 207 99 74 84 244 50 209 204 88 123 163 92 83 138 204 210 3 22 223 5 121 90 20 234 68 86 238 110 108 94 108 117 115 69 1 44 227 218 68 2 33 202 76 20 136 139 42 251 161 105 217 59 22 4 193 236 10 112 123 46 219 246 188 35 209 63 224 165 190 130 235 75 100 243 112 209 178 209 20 65 121 241 174 57 135 190 63 13 163 12 84 11 126 167 17 230 91 60 49 146 95 112 152 61 82 224 145 53 205 216 218 140 197 103 75 169 196 222 190 238 106 100 81 133 26 212
216 209 24 17 13 170 31 104 206 227 12 186 80 71 72 11 183 219 144 222 2 33 203 9 152 194 209 63 34 58 146 91 56 203 141 37 71 209 175 28 117 191 176 144 54 230 198 137 154 105 225 54 191 175 15 23 19 35 201 173 166 250 50 229 191 16 130 203 165 189 222 3 205 253 204 90 220 144 175 151 179 209 190 206 143 14 128 163 63 14 120 131 51 84 164 88 205 181 239 205 215 186 45 104 102 247 243 37 10 114 247 1 222 132 92 19 122 111 178 246 228 123 39 189 80 25 106 197 226 64 119 15 115 192 71 151 202 50 138 97 57 101 41 86 175 51 181 121 112 32 174 36 22 126 239 45 163 20 159 166 190 121 21 196 241 164 43 129 99 111 143 84 249 62 146 15 229 176 125 243 48 250 8 228 152 189 234 117 125 145 116 145 58 233 190 167 44 11 41 194 148 202 170 173 17 190 154 178 173 64 213 1 48 75 10 6 23 218 173 26 34 153 49 44 183 13 241 14 245 123 116 223 225 105 102 171 151 61 130 210 105 5 237 90 182 97 214 196 138 97 22 12 116 16 148 27 51 11 151 251 180 60 84 98 100 134 26 61 238 139 52 231 130 100 77 101 147 28 28 196 229 159 237 121 110 222 23 214 21 187 121 87 235 48 228 12 13 167 58 244
178 95 156 130 211 60 180 203 210 51 128 60 63 170 185 25 71 26 213 144 146 171 102 78 104 103 230 28 103 127 118 187 6 167 182 251 154 55 207 151 12 8 93 253 223 199 171 48 37 179 13 150 102 133 144 149 100 37 164 2 135 51 221 247 178 150 128 141 20 241 151 210 33 138 103 84 220 244 199 85 69 57 220 83 168 139 236 34 132 175 211 100 245 151 130 98 41 211 74 209 155 200 180 63 115 207 134 11 156 186 122 254 220 132 14 86 226 61 8 129 91 69 38 114 34 240 218 191 154 6 17 71 88 212 21 174 177 28 29 152 0 157 72 249 194 57 164 198 180 0 205 14 44 217 94 224 38 168 163 47 80 152 137 185 221 37 29 105 202 182 44 120 7 164 199 181 164 200 72 115 13 53 61 100 130 255 38 212 170 80 134 37 164 115 40 96 128 18 97 166 37 29 15 40 83 7 226 3 143 11 190 202 174 140 199 111 18 224 168 64 232 7 210 101 17 18 78 1 106 116 55 104 172 165 124 189 182 232 162 84 99 189 246 135 35 170 70 146 160 215 23 148 6 127 255 159 32 89 180 35 161 140 195 100 173 29 71 43 93 87 194 35 176 97 150 110 46 53 175 117 217 49 26 52 167 19 25 123 102 153 244 118 17 157 221 214 123 131 29 92
197 186 229 188 126 138 74 220 60 85 4 56 132 215 192 144 142 110 15 64 61 130 201 3 34 129 131 152 43 187 206 60 100 73 42 163 6 39 153 227 46 34 176 181 107 226 26 173 135 23 75 140 21 37 218 52 210 191 244 129 98 34 66 172 43 44 185 208 223 121 176 68 10 148 100 230 42 223 23 48 221 104 182 85 203 30 163 230 226 97 76 219 152 104 110 89 143 215 160 179 209 67 146 37 100 132 8 178 168 36 143 80 220 111 18 141 49 230 149 73 176 93 112 38 66 118 254 65 46 54 216 114 125 175 57 176 200 217 47 129 103 45 100 254 208 78 164 150 204 130 24 171 87 165 217 48 119 224 173 181 255 35 8 230 128 150 209 63 80 231 219 9 104 147 51 19 120 69 215 88 168 60 43 118 124 111 133 18 202 26 114 229 118 240 38 81 0 161 192 153 63 42 219 219 29 240 232 23 159 246 75 235 117 255 142 87 176 77 66 64 17 102 167 216 108 4 217 33 84 86 207 217 19 212 249 31 174 183 78 155 112 121 24 249 46 141 244 164 57 205 251 137 172 245 68 253 97 254 92 9 74 5 3 70 162 198 97 134 15 86 147 228 186 246 115 102 124 131 122 106 158 134 233 127 37 25 219 21 195 12 89 181 114 38 84 39 145 158 251 68
243 171 135 244 21 70 98 10 92 120 132 43 114 246 233 77 177 68 153 247 241 46 174 105 78 76 84 190 46 171 28 139 173 147 25 179 210 175 110 228 126 77 228 66 233 133 189 77 110 222 146 96 156 121 74 223 70 55 133 222 25 73 180 241 96 129 56 232 21 7 199 150 117 242 205 112 81 222 185 88 37 79 203 184 216 11 170 133 24 63 218 132 9 190 201 3 75 141 213 237 13 70 198 191 1 227 95 243 185 155 154 190 182 145 52 181 187 196 34 205 248 163 68 254 110 105 34 222 146 144 92 128 41 230 35 221 93 95 89 72 72 10 1 83 189 203 255 42 72 67 206 185 200 52 38 146 34 177 14 113 139 97 115 167 49 128 196 113 105 218 18 62 143 94 142 27 66 122 241 13 82 92 21 213 153 148 113 90 61 54 70 124 193 139 103 228 5 219 252 244 4 125 90 216 193 139 92 241 20 2 254 187 250 178 131 221 112 53 152 223 20 66 215 255 205 216 13 159 52 132 87 178 253 227 163 76 94 170 231 124 135 58 35 152 93 183 85 86 64 50 95 106 20 21 137 234 75 232 96 197 61 230 139 236 150 190 190 94 6 109 213 64 71 12 221 7 12 27 218 158 61 255 218 221 23 194 149 44 109 172 235 172 222 27 33 125 192 34 28 110
216 18 115 86 18 209 201 171 20 195 118 220 94 109 32 88 177 167 108 47 90 130 228 192 36 230 67 215 117 185 157 198 116 52 225 78 110 120 173 117 74 103 182 204 252 144 12 166 186 61 46 81 255 43 53 188 148 48 152 116 58 156 57 190 54 55 82 181 66 71 150 245 185 58 14 146 219 97 67 15 170 227 78 76 196 90 98 65 211 207 236 13 72 21 131 44 227 106 248 216 253 116 245 244 49 234 145 21 78 228 208 234 203 86 93 215 141 251 60 226 26 71 126 254 176 254 190 99 175 169 103 27 170 226 132 230 131 241 45 108 138 208 84 100 134 230 243 145 219 237 227 100 223 3 204 15 65 115 65 24 229 189 200 28 206 252 165 2 98 214 167 148 3 122 212 243 169 37 248 236 2 65 172 243 103 0 102 219 7 1 122 175 24 83 88 163 142 190 23 98 66 218 107 224 238 25 106 141 196 229 152 60 86 120 101 85 101 69 128 93 114 63 232 175 206 227 77 204 60 233 209 201 201 82 129 130 135 93 234 178 105 157 255 231 180 176 121 45 110 217 159 51 48 9 6 105 131 250 244 37 45 225 99 14 153 150 167 30 191 155 0 208 32 245 51 116 110 214 69 197 193 1 234 91 68 12 22 194 121 18 99 106 223 242 20 197 33 54 89 113
216 230 72 29 188 82 59 100 236 147 250 232 253 17 161 209 80 204 5 113 102 12 10 72 197 58 103 224 237 194 196 84 33 244 152 89 133 194 144 93 138 125 92 39 95 127 86 60 20 167 87 250 126 178 152 118 97 13 3 64 95 223 162 114 66 16 214 57 32 141 206 185 178 234 161 109 250 97 197 53 79 194 77 80 87 140 108 76 145 172 135 18 185 108 202 140 179 21 234 97 166 82 142 91 75 219 55 24 134 187 52 112 59 83 8 73 241 173 23 56 228 214 151 226 79 112 59 212 126 100 143 140 175 117 137 206 135 254 140 55 112 169 89 166 252 89 133 122 149 103 210 87 57 126 163 242 124 155 189 116 151 23 85 230 4 97 178 249 0 102 250 215 181 105 45 65 61 55 253 12 181 81 181 104 103 129 69 46 87 217 102 222 242 89 202 206 91 129 35 176 234 228 183 20 238 24 188 47 35 153 237 33 118 231 73 216 201 164 20 55 219 77 202 219 139 0 47 80 245 211 66 145 201 152 138 27 119 57 184 216 31 110 144 52 231 170 202 105 92 134 180 187 215 242 112 199 115 254 212 50 234 43 161 170 94 19 47 54 249 7 159 90 162 205 134 93 84 143 193 149 27 135 204 50 140 75 182 56 231 251 170 70 109 166 75 250 49 69 190 66
70 52 227 225 120 170 249 31 180 91 161 96 96 56 111 220 121 14 230 22 76 107 172 61 200 165 220 85 184 115 238 140 136 85 133 86 59 46 143 3 204 73 130 86 191 75 179 164 125 131 71 118 63 120 180 75 194 64 104 132 104 150 48 241 118 163 16 9 83 138 139 82 249 244 185 95 204 46 102 48 137 76 69 31 158 235 207 117 70 29 167 204 68 166 174 206 158 225 153 48 89 51 182 158 202 29 111 116 118 92 25 24 122 39 237 132 91 172 254 166 85 124 143 151 153 43 214 126 253 167 237 126 235 50 96 71 1 24 215 126 168 225 254 164 2 33 72 117 18 214 64 29 161 241 121 197 158 170 143 5 127 172 82 179 77 130 27 161 1 56 205 111 33 235 46 181 109 20 185 38 173 155 73 213 84 165 185 147 183 146 180 50 41 198 36 14 53 144 50 254 215 41 145 41 48 166 228 215 75 199 189 182 74 141 212 53 73 95 213 91 183 195 165 60 118 45 203 172 170 80 94 10 196 157 80 171 14 253 198 227 93 152 34 144 17 19 123 156 45 142 91 25 11 25 173 170 245 230 25 152 255 10 198 224 50 100 147 197 107 107 84 119 182 92 48 194 204 238 176 248 224 16 138 123 52 64 224 148 17 139 21 109 4 254 177 107 101 159 206 157
235 61 107 4 113 91 174 217 55 235 201 164 30 178 213 95 124 152 233 253 202 60 109 116 198 173 29 19 92 158 67 253 199 147 93 123 163 49 194 166 55 91 140 185 51 238 199 165 175 54 176 49 7 36 70 120 73 67 171 194 192 103 133 9 185 152 172 173 212 145 198 194 59 35 168 98 15 27 75 127 51 4 13 142 227 13 238 29 138 42 14 50 14 58 59 224 51 2 218 89 52 80 200 248 89 199 96 60 173 27 198 209 67 188 113 165 252 168 226 236 201 168 199 233 162 211 42 110 220 135 20 142 142 227 50 74 104 190 207 146 69 134 160 22 185 254 210 159 193 125 75 218 75 138 123 122 46 0 178 56 135 144 76 43 243 56 20 57 110 186 16 212 200 105 146 58 139 118 94 123 126 187 208 99 214 244 18 198 173 132 138 97 126 172 138 191 92 105 93 69 133 54 17 191 118 63 141 96 169 146 191 95 115 107 27 39 26 6 91 5 158 65 161 81 73 74 226 28 207 166 93 156 248 203 114 23 29 164 64 231 203 99 184 215 244 210 196 127 220 208 164 125 222 28 52 105 91 114 206 142 8 119 210 166 109 28 251 5 116 180 255 84 222 130 36 116 127 60 219 83 217 115 18 251 220 246 36 33 55 69 253 228 115 15 77 176 133 76 224 20
209 246 253 123 237 143 40 53 71 193 173 113 130 166 83 198 105 206 77 61 64 211 192 243 124 95 16 135 94 43 185 7 6 123 44 66 22 1 238 147 196 186 209 40 231 234 215 78 72 175 207 216 20 236 188 16 250 157 52 201 249 175 243 76 33 90 106 29 65 157 97 44 56 245 142 248 158 192 180 135 113 191 180 24 142 225 79 213 168 108 111 159 86 234 84 133 95 183 88 218 218 195 37 4 0 77 175 134 182 38 115 3 172 33 84 14 58 216 121 186 191 228 183 134 213 57 154 248 158 38 198 163 241 38 46 143 57 232 105 243 130 254 23 40 127 68 139 14 57 68 138 119 79 99 184 146 30 199 115 179 79 77 174 202 109 114 227 214 235 150 132 79 25 246 15 119 59 74 176 133 165 197 253 18 140 4 49 89 86 32 34 66 132 48 146 129 12 190 181 68 45 165 36 187 107 95 95 67 163 143 90 107 81 117 194 58 73 7 236 124 157 223 115 97 50 171 15 25 139 29 106 189 225 235 65 228 193 252 34 177 230 84 26 71 8 159 232 56 27 120 11 147 6 30 132 93 106 31 7 210 232 213 129 255 86 195 86 5 182 216 254 2 245 178 228 34 161 84 78 164 79 100 231 34 31 159 45 219 15 252 200 168 175 129 156 111 57 198 11 166
101 91 116 78 212 199 194 218 77 71 212 38 82 81 13 71 185 65 33 29 157 97 243 22 238 238 195 193 163 33 101 1 39 74 107 4 60 182 64 155 33 219 169 115 139 204 3 197 227 236 194 86 146 121 101 191 116 152 72 216 104 226 40 199 164 59 129 28 81 148 203 117 156 234 137 188 200 192 56 172 41 180 118 228 125 244 215 250 194 172 137 40 114 178 253 99 220 222 47 70 206 255 84 61 13 216 24 135 144 0 16 172 159 11 55 57 124 76 141 84 50 22 95 43 115 178 102 196 67 23 246 81 16 50 11 190 201 30 177 48 56 5 3 253 203 148 197 124 34 89 228 213 56 23 223 121 61 255 74 135 149 42 238 50 120 123 67 237 255 92 169 224 224 108 53 180 75 226 97 226 145 120 253 210 100 132 146 12 31 131 180 232 240 43 195 231 51 20 233 13 90 132 185 147 201 81 121 66 44 202 202 232 108 29 151 239 54 200 142 73 173 86 162 234 5 205 6 197 141 61 78 210 23 5 0 55 71 165 48 125 218 56 237 86 48 151 154 207 184 159 129 232 1 56 75 45 3 147 152 200 51 189 114 148 54 205 122 141 59 5 156 67 162 53 158 23 136 206 19 4 131 102 137 31 228 12 145 185 210 39 189 18 255 138 222 201 51 102 165 89
153 190 13 234 171 34 217 66 123 37 62 242 65 235 159 166 160 105 246 224 228 15 30 112 161 35 84 25 117 158 161 136 117 39 32 97 129 89 92 57 168 219 93 155 98 25 60 56 24 235 36 88 255 78 9 64 153 146 205 124 91 152 168 82 252 163 43 40 182 158 206 3 124 97 188 77 66 36 141 82 144 143 35 143 248 8 41 150 91 63 183 64 72 188 13 132 164 61 144 2 104 138 205 47 13 40 235 81 13 18 251 149 123 38 172 140 138 230 99 135 35 94 61 165 97 49 171 241 241 5 115 35 145 43 92 109 64 192 145 15 231 251 125 80 119 153 207 251 27 1 154 41 95 84 89 7 64 243 101 188 158 206 157 84 69 130 182 138 135 92 11 174 130 110 72 123 234 144 186 24 68 108 199 51 162 250 224 247 79 29 44 149 103 68 210 9 209 236 234 166 162 66 96 56 76 131 224 84 150 51 41 218 249 100 175 68 249 170 22 198 48 172 12 87 163 35 12 121 92 11 159 157 118 183 1 39 199 80 119 15 7 169 150 175 133 223 211 113 169 48 113 215 198 128 134 227 18 70 112 1 113 85 244 12 253 122 121 94 53 13 8 253 160 219 144 241 113 127 16 49 204 248 186 198 21 106 184 114 161 30 47 129 64 194 139 75 119 151 36 128
39 39 182 51 254 30 101 113 30 67 206 151 94 191 39 68 108 46 154 3 235 186 154 172 87 121 39 136 237 59 78 95 190 199 61 57 20 106 87 1 59 3 223 1 131 51 11 221 73 27 106 151 151 168 232 4 83 150 5 42 118 248 171 18 179 142 74 15 19 138 253 196 122 87 80 144 52 170 35 143 188 45 250 3 20 239 130 107 189 199 209 156 120 142 54 7 165 166 225 124 189 10 128 207 157 226 89 219 13 88 83 157 252 26 143 126 18 236 104 32 99 94 216 55 92 214 17 126 175 204 134 224 154 219 92 50 72 61 104 231 122 94 34 112 130 184 244 20 50 220 249 173 54 23 42 103 45 164 234 186 63 217 73 127 17 185 46 69 213 229 123 197 43 152 125 43 56 86 118 70 98 25 125 224 79 114 191 79 7 7 55 75 110 148 51 143 18 243 182 178 89 173 119 152 32 157 91 78 198 166 24 219 147 27 14 236 76 81 200 24 228 128 246 120 160 209 41 36 152 208 23 4 1 8 176 144 126 209 93 10 28 169 53 145 88 232 6 242 29 82 33 111 178 85 153 222 96 212 89 69 83 119 152 150 137 148 82 96 176 188 155 93 105 238 157 187 138 249 80 198 224 60 76 191 120 90 244 52 101 250 90 133 25 81 123 134 193 159 119 149
219 140 237 152 37 44 2 251 53 2 150 16 227 133 60 150 92 190 111 139 216 87 185 203 16 157 151 159 103 116 147 134 241 178 169 255 25 223 227 218 185 14 108 242 255 247 139 18 69 222 106 1 117 154 103 34 204 15 13 135 102 52 68 102 88 1 235 159 124 87 239 230 31 253 163 225 46 111 252 44 179 225 32 46 175 243 79 190 45 85 70 73 19 192 251 71 236 210 7 67 165 42 77 189 61 20 62 173 0 186 94 199 34 65 74 93 127 189 177 24 167 241 182 30 228 150 113 144 131 164 253 79 197 197 196 194 187 12 206 208 65 31 232 7 135 72 74 133 124 194 93 212 184 206 86 198 117 147 52 148 123 112 205 61 122 201 250 144 233 14 122 164 62 45 180 152 199 234 202 176 79 166 72 123 93 210 82 33 39 9 71 110 219 159 110 16 124 243 33 83 79 137 122 233 127 34 144 136 53 225 224 19 187 32 185 22 246 227 181 254 162 83 152 245 139 113 155 32 148 114 218 40 109 28 225 82 113 187 28 163 205 22 104 134 101 54 114 29 93 114 77 193 86 212 185 143 158 177 66 109 133 98 153 83 210 111 10 146 44 62 154 219 161 51 201 217 162 232 132 50 138 87 146 44 44 200 116 254 11 242 228 40 53 97 246 117 50 204 196 170
199 64 29 0 56 247 130 171 13 71 64 131 254 56 243 91 218 37 121 14 246 251 215 182 229 57 87 43 115 225 11 231 121 122 25 4 229 210 53 198 240 234 49 135 216 60 51 31 125 53 182 159 90 133 71 144 216 251 196 235 255 224 62 206 229 217 213 186 136 81 120 21 144 242 28 20 94 198 199 140 76 145 12 190 48 125 12 140 134 138 130 198 252 11 211 241 207 191 93 38 114 186 228 194 61 67 189 100 87 27 157 227 253 174 152 253 246 191 170 49 148 102 137 195 247 59 157 71 218 10 247 29 193 68 248 156 104 176 242 57 240 190 155 5 249 130 52 228 143 220 246 95 138 145 245 4 70 87 31 123 5 179 152 58 246 56 47 211 5 30 188 63 97 39 171 189 111 161 107 89 192 187 151 182 214 3 178 143 196 122 42 235 154 52 86 51 129 210 146 0 242 146 67 107 52 107 103 173 27 80 67 94 48 26 125 221 252 48 138 204 111 229 5 153 2 149 255 227 182 59 137 160 14 165 69 161 94 212 101 252 178 232 188 42 218 111 163 215 84 242 180 225 247 172 43 68 201 201 89 98 181 176 107 8 122 158 119 163 170 123 162 189 38 36 192 202 133 206 73 221 235 120 94 113 93 137 120 255 141 183 92 26 12 24 8 72 153 9 89 240
244 153 249 47 236 88 185 25 76 200 232 217 249 239 183 133 7 14 212 241 229 183 14 232 62 140 32 250 19 71 176 152 249 191 228 203 247 196 0 75 237 241 187 195 230 78 170 3 6 214 90 53 54 247 198 222 182 11 100 234 47 245 6 39 143 248 16 114 71 60 255 216 128 224 121 128 158 245 23 176 20 50 194 82 107 213 218 154 220 140 176 92 14 135 142 131 191 86 219 144 16 49 71 196 159 188 48 248 196 229 179 178 8 213 122 242 7 40 152 116 107 235 239 35 24 238 197 188 248 17 117 74 81 241 132 7 65 127 148 148 176 15 172 193 142 30 107 213 30 40 28 232 192 67 146 131 59 145 114 66 89 46 239 109 141 80 246 176 163 77 29 188 165 91 81 109 91 229 76 173 191 152 220 236 132 20 134 3 161 98 13 226 124 235 6 19 97 33 158 128 42 218 216 53 200 169 221 185 243 15 61 253 162 119 241 28 51 82 195 0 103 155 45 147 10 200 108 253 115 228 219 207 162 168 238 171 84 201 129 110 5 91 113 4 17 183 153 158 6 159 132 177 95 107 185 12 51 208 49 51 242 4 158 43 113 45 59 218 31 98 114 115 122 121 7 176 60 35 78 228 232 130 92 191 181 172 165 53 254 245 38 160 253 44 162 114 16 198 27 163
209 215 181 131 76 23 90 217 107 141 215 132 94 208 95 132 13 221 33 190 239 144 247 177 145 220 94 17 87 180 82 131 21 49 25 94 41 240 163 134 124 130 119 251 89 228 49 223 25 98 10 246 193 144 190 49 53 49 172 22 209 232 57 45 186 242 188 77 160 214 134 151 254 30 162 110 65 228 235 79 46 75 135 48 230 19 184 108 40 154 3 127 128 94 7 84 125 20 176 168 237 214 127 10 44 47 102 77 136 55 173 60 37 46 91 158 93 186 13 87 130 177 28 130 65 237 15 226 204 175 48 242 145 182 255 254 70 75 3 47 176 78 254 155 97 182 84 120 66 85 191 154 82 213 35 199 235 76 42 143 12 32 74 82 63 64 161 98 85 103 236 161 151 209 64 104 191 50 187 71 158 162 38 157 143 153 253 75 104 62 80 228 230 60 155 98 183 167 190 126 201 160 232 126 162 91 228 9 243 2 0 180 75 148 198 33 238 244 224 80 120 240 138 236 105 77 105 146 226 58 54 75 196 138 144 86 207 163 22 194 117 161 143 41 68 74 95 4 131 239 172 232 117 105 153 41 253 207 89 36 54 200 68 204 225 11 181 165 34 199 117 166 90 30 232 188 52 89 139 142 220 246 171 47 209 219 120 245 99 155 22 220 213 226 118 205 110 241 199 225
158 61 122 8 202 79 176 49 204 142 109 167 163 86 6 27 29 108 163 42 37 24 96 124 175 221 33 174 183 24 230 195 170 77 163 81 230 163 40 63 4 238 63 224 186 169 167 230 86 106 152 172 40 107 103 231 236 173 51 29 149 244 204 101 30 47 72 249 54 119 92 193 15 64 177 233 136 147 1 217 29 118 205 243 181 165 228 209 56 205 44 233 116 187 29 211 17 64 81 188 0 121 84 228 115 151 115 194 34 240 143 68 132 18 180 215 38 77 225 200 42 13 110 107 56 181 212 103 101 10 159 12 65 220 140 61 229 143 62 85 4 107 112 229 52 113 225 10 154 2 245 67 146 111 36 76 57 102 53 159 39 237 134 226 130 40 74 170 145 102 39 242 43 51 173 10 120 138 135 193 83 203 162 110 95 68 247 180 191 251 198 156 48 158 225 141 113 152 76 173 255 155 229 47 167 226 175 153 162 5 197 96 167 144 254 58 130 79 60 194 199 137 254 171 165 9 240 192 58 87 160 101 163 173 72 215 106 200 160 36 176 235 37 201 81 19 158 245 243 201 140 183 194 139 3 62 58 107 99 52 238 12 12 67 106 26 126 94 54 156 141 121 82 141 233 100 156 31 228 36 178 66 46 48 150 82 33 248 13 70 191 157 146 232 248 107 49 244 59 173
155 192 64 206 1 82 251 195 193 235 98 44 14 62 211 100 239 87 223 225 45 145 194 71 255 162 195 37 225 148 151 158 79 221 236 32 99 17 179 144 224 159 80 232 18 107 39 172 74 217 241 207 7 10 216 245 170 137 9 16 88 219 14 29 14 82 167 242 50 104 255 3 67 240 9 50 217 19 116 228 22 118 156 58 197 221 238 67 47 168 60 172 219 189 45 121 149 156 25 18 206 57 171 208 213 201 147 44 160 168 226 125 241 141 35 216 209 185 213 70 42 191 101 91 110 239 154 145 104 90 17 223 218 1 125 154 132 97 196 249 189 98 180 0 106 184 135 103 49 111 147 201 235 19 22 44 250 78 141 108 68 178 3 169 126 210 89 43 39 49 159 188 140 153 51 57 207 126 195 4 20 96 8 4 40 120 96 61 12 11 17 224 111 207 190 51 142 14 125 194 23 8 17 94 127 163 100 74 211 147 101 12 90 207 197 122 206 9 45 215 229 32 150 14 157 133 119 254 17 75 105 18 255 4 212 216 25 100 164 230 176 16 4 61 103 66 236 2 212 3 41 107 190 33 121 220 172 162 2 226 58 25 118 63 115 198 215 220 129 202 63 68 121 35 73 36 50 70 68 3 41 193 188 74 49 161 192 40 50 137 63 21 78 201 193 183 104 10 35 120
137 250 8 14 106 211 217 165 39 250 18 34 78 30 88 164 158 239 189 62 213 168 65 206 57 12 190 10 33 108 158 109 35 45 208 255 149 19 188 143 87 159 130 236 9 231 46 196 166 189 205 55 43 140 173 68 18 21 189 251 237 178 131 224 215 231 196 144 128 9 105 24 122 185 84 242 85 60 107 122 129 189 188 10 166 67 44 234 41 52 22 202 253 193 98 173 231 245 78 80 208 40 164 81 120 151 71 204 36 100 140 227 123 20 53 185 28 103 252 177 209 188 199 229 140 107 43 159 69 198 178 239 128 199 49 210 140 223 66 12 220 13 97 94 17 60 175 184 136 69 75 177 57 16 140 183 249 218 115 157 216 165 102 135 18 49 232 16 30 19 13 52 85 119 80 27 80 57 203 64 195 243 77 233 115 199 103 241 213 226 172 108 26 164 77 229 191 90 166 150 231 205 51 178 163 79 250 158 74 191 70 33 141 246 239 218 246 33 69 205 168 15 177 210 44 189 122 217 216 188 119 69 204 192 238 212 188 206 137 174 43 237 125 179 252 84 69 126 38 67 110 151 49 122 0 141 69 59 160 115 200 171 52 131 40 30 204 41 29 158 223 88 1 171 230 21 127 7 119 122 251 202 21 11 14 128 53 83 49 101 41 47 45 206 192 103 88 191 173 181
130 213 165 34 143 75 104 145 223 94 73 184 107 234 116 141 148 82 158 40 206 186 72 165 83 117 136 65 24 34 124 195 83 86 141 205 67 76 4 28 177 11 156 62 254 246 93 149 135 23 63 118 165 25 236 214 201 75 213 231 184 108 231 45 19 238 52 99 227 36 11 155 213 158 147 8 238 24 168 129 172 198 174 232 170 107 184 253 19 137 56 19 16 39 125 60 101 74 149 112 239 9 139 66 206 192 210 252 136 158 213 203 229 22 216 224 77 212 75 252 101 244 140 177 190 253 94 196 0 29 238 68 123 107 43 164 226 30 196 231 2 170 11 67 64 31 48 61 105 19 52 83 128 107 59 20 145 75 204 110 116 37 2 114 9 51 138 98 38 128 38 13 249 114 99 25 88 231 166 250 249 104 24 99 205 88 35 69 98 232 193 84 31 212 232 21 146 226 136 170 198 163 116 0 158 62 148 242 2 41 32 234 43 184 12 38 22 202 182 2 184 30 223 195 123 24 208 254 120 140 115 178 41 198 240 116 41 45 163 98 80 231 151 143 68 233 106 252 213 201 46 132 128 114 210 161 181 66 4 34 228 189 250 3 185 155 173 137 33 225 132 120 219 105 162 165 106 205 47 73 14 19 170 162 127 146 75 223 191 215 250 28 170 214 200 62 196 254 16 16
59 92 226 183 211 90 184 198 156 197 91 222 131 54 194 130 28 112 124 123 96 204 108 141 20 129 194 103 151 186 108 63 249 107 117 160 120 249 73 10 220 1 102 213 34 182 186 14 196 80 114 135 55 65 190 84 17 246 19 26 221 254 182 142 51 214 143 127 30 33 218 103 78 147 94 149 70 27 217 129 110 30 141 85 108 221 41 209 198 241 140 24 109 93 92 27 5 9 215 71 242 252 206 3 246 232 245 12 205 142 17 106 206 30 226 245 136 45 242 97 215 226 174 203 245 1 58 195 117 189 228 97 75 126 188 253 206 204 118 50 229 27 243 171 231 81 225 67 191 19 24 247 28 139 16 222 180 155 70 133 9 232 246 140 8 50 52 188 177 177 241 180 171 14 222 85 207 16 97 93 68 218 35 220 67 109 224 48 103 106 118 199 240 136 93 99 88 117 67 98 51 56 145 102 105 73 46 8 203 68 225 184 254 70 65 67 234 225 163 37 24 55 208 246 129 177 63 171 163 13 88 182 119 255 58 244 119 69 223 225 40 248 169 213 60 178 109 193 26 87 37 237 7 32 24 136 144 173 140 108 165 43 56 141 248 222 235 226 137 140 45 247 48 144 208 157 65 159 71 0 235 244 156 203 199 130 97 45 37 99 231 220 106 162 209 18 133 221 223 135
55 159 164 130 106 34 210 28 48 8 243 115 37 178 113 204 129 175 46 74 112 223 63 176 247 1 217 167 102 110 202 182 181 140 103 111 125 181 198 247 107 76 99 63 174 139 35 133 231 77 183 87 63 202 209 48 74 87 255 227 201 124 207 16 43 85 193 96 23 64 245 147 149 42 145 124 139 17 98 175 58 211 135 101 243 72 155 160 77 203 207 252 63 48 181 43 184 75 193 115 21 47 95 69 138 238 22 61 110 66 139 111 85 159 112 68 137 85 157 74 47 6 111 44 238 68 129 25 178 244 61 165 117 78 62 148 169 196 181 218 188 185 219 211 228 88 4 98 238 237 78 243 110 189 106 197 129 137 46 27 108 130 26 50 137 79 79 143 86 134 128 82 90 31 148 175 131 189 57 69 210 66 35 197 34 125 24 63 250 162 166 243 206 6 203 202 25 202 160 251 71 151 32 157 22 122 236 183 57 194 71 105 169 203 29 191 120 82 81 217 7 251 193 167 248 54 90 178 156 121 229 71 86 125 141 87 233 117 110 196 109 170 82 37 21 174 18 184 50 112 90 172 237 36 42 146 21 96 63 29 244 187 83 84 212 177 237 18 84 55 179 47 247 41 156 209 77 85 142 42 146 180 228 26 239 19 242 124 245 79 119 181 204 149 43 91 91 221 6 24
157 7 179 1 189 48 61 57 203 179 138 180 30 10 120 120 215 189 21 85 138 225 235 118 200 18 171 112 183 116 147 208 79 231 128 137 172 183 160 135 212 143 157 216 4 249 236 137 2 5 73 7 251 69 27 5 219 201 224 139 156 115 40 250 173 117 123 236 161 192 68 45 20 151 92 7 99 137 190 255 251 223 148 145 209 124 164 171 1 208 212 33 80 18 143 169 233 168 160 10 27 35 24 64 201 172 186 45 65 76 243 188 128 88 44 9 67 135 106 58 170 22 215 143 65 3 157 184 120 36 118 225 162 211 223 85 144 222 188 197 231 177 88 136 199 92 75 137 193 98 233 135 69 191 202 78 140 21 4 255 7 141 1 218 192 172 181 253 143 82 10 80 123 187 92 129 186 115 191 151 236 146 57 144 29 93 163 59 210 105 102 21 219 139 41 1 195 236 66 219 110 104 114 135 130 249 173 79 163 140 219 161 10 51 210 70 97 101 72 210 158 179 146 152 213 44 200 62 235 198 122 212 78 95 22 235 93 232 115 216 112 89 58 171 64 7 118 205 124 221 168 154 41 251 69 141 245 194 13 181 207 42 67 88 91 115 17 171 70 112 168 119 37 121 37 210 20 127 217 191 36 105 205 98 202 152 1 251 94 202 162 186 253 249 83 231 103 46 88 157
140 186 234 122 80 167 232 27 121 178 51 174 146 19 75 99 210 80 21 103 202 204 69 75 84 168 79 252 33 111 107 161 13 82 179 193 43 114 117 127 80 128 77 84 83 43 253 129 36 220 102 120 27 31 171 159 50 195 174 88 96 89 123 34 145 11 98 199 88 48 50 123 139 162 153 101 115 131 109 60 238 149 35 189 53 166 228 130 192 137 105 83 202 165 197 3 93 197 134 79 84 189 217 140 67 133 44 170 52 76 79 128 75 47 234 203 29 16 17 129 244 37 134 86 42 22 191 89 215 67 185 126 24 133 175 174 96 57 199 153 182 60 253 52 202 18 90 70 171 113 189 45 58 6 144 209 225 84 47 14 115 177 90 25 53 52 111 202 242 228 156 91 239 174 102 185 86 183 175 218 112 57 206 113 38 207 79 220 173 129 25 58 65 121 15 208 222 109 210 208 9 177 9 134 199 197 88 213 34 152 167 156 188 124 197 22 53 200 125 66 93 39 4 146 230 156 243 11 185 8 213 18 19 165 49 105 147 54 104 239 111 127 45 28 203 69 25 199 251 88 98 191 21 43 92 69 104 18 120 102 161 65 207 61 3 5 92 78 179 253 137 22 115 178 79 206 240 231 133 244 111 164 209 11 26 38 17 33 226 7 134 60 160 213 89 15 15 232 209 103
82 237 102 156 229 126 62 49 5 240 166 108 6 24 111 230 215 236 145 4 134 85 43 74 43 133 30 254 197 57 99 250 8 141 82 9 240 160 182 48 114 216 100 255 180 9 225 45 32 220 44 96 9 103 78 106 4 48 34 54 151 148 84 90 114 35 233 208 33 103 163 179 5 137 87 63 14 169 125 223 181 90 238 91 221 213 200 13 7 55 247 158 248 75 23 225 8 123 55 9 64 1 215 123 5 53 164 102 138 6 119 62 8 91 245 142 142 2 129 147 237 232 112 98 191 39 181 43 109 175 32 162 78 8 250 40 46 17 134 59 97 188 156 39 136 169 111 145 80 166 190 238 135 16 150 45 246 120 117 239 144 65 145 78 56 71 90 170 235 110 196 93 130 75 12 147 165 47 130 65 253 167 30 208 130 253 107 165 122 180 66 87 62 3 252 175 21 57 224 169 13 219 31 68 183 42 232 114 33 168 232 5 40 166 126 209 169 249 135 77 108 193 120 212 201 85 49 202 141 218 241 149 120 207 13 49 216 26 225 165 5 211 100 58 114 189 1 141 72 50 24 126 77 251 140 226 42 175 99 129 2 6 192 207 221 2 6 253 60 243 94 155 173 93 64 216 184 212 133 78 120 215 135 99 87 225 151 158 65 148 71 93 52 18 142 82 81 112 251 43
155 11 143 191 181 239 84 169 95 226 150 173 39 23 132 86 150 36 222 99 246 184 244 255 241 37 134 103 248 154 127 233 14 204 175 206 95 27 110 238 14 66 83 171 106 207 212 29 52 27 29 141 224 141 142 123 56 101 162 142 237 82 91 226 253 206 147 143 131 187 128 67 202 123 43 199 130 195 221 33 152 199 71 109 136 97 187 45 51 199 165 179 28 185 217 155 28 228 127 200 134 149 7 154 49 74 36 107 162 161 135 77 178 27 144 66 78 165 52 62 54 149 215 99 157 92 104 128 179 61 101 22 231 71 181 50 240 129 124 117 210 243 214 92 204 233 197 213 118 82 114 248 133 154 191 243 248 145 125 208 230 85 132 112 173 71 133 235 105 154 45 68 59 124 11 238 48 74 242 54 70 138 20 144 122 155 53 186 70 102 67 100 116 57 242 247 173 212 27 184 94 105 88 222 5 192 14 212 184 148 67 57 120 98 196 28 155 183 123 233 65 16 255 184 45 177 197 198 6 124 43 22 27 86 64 196 80 201 140 10 50 168 234 171 191 107 240 62 42 37 111 110 126 150 194 143 241 58 225 48 9 193 53 90 170 101 206 5 150 143 143 89 24 97 224 10 61 47 73 150 200 249 21 11 39 175 83 207 47 223 91 30 12 194 244 194 207 210 151 178
140 16 45 170 188 207 219 65 12 13 118 56 31 68 166 140 219 99 207 16 167 179 235 73 188 140 154 174 24 168 245 20 154 157 231 50 120 146 71 130 150 58 244 52 36 220 74 66 82 188 157 19 193 124 104 121 55 244 132 106 178 195 121 171 215 62 83 70 70 204 70 17 254 27 230 229 49 251 160 32 122 248 6 225 43 207 209 133 89 212 152 35 169 116 16 81 57 228 59 59 17 40 79 148 13 46 240 253 199 138 252 0 129 74 54 63 57 144 111 184 90 101 0 1 40 189 181 34 52 202 215 107 250 191 234 63 61 61 98 183 186 7 4 195 92 96 142 138 221 187 15 134 68 28 174 13 146 135 10 161 109 124 244 31 200 224 190 39 237 122 216 31 244 233 167 170 17 66 165 229 86 88 200 229 99 4 89 157 99 107 113 145 150 24 181 171 153 179 172 13 186 135 113 8 142 206 146 151 221 203 11 146 94 208 174 242 244 138 95 132 47 114 175 203 44 141 120 33 138 40 86 122 202 43 151 93 171 171 97 100 0 60 181 162 223 80 68 199 244 203 5 162 83 114 215 84 191 220 24 194 236 187 107 244 229 177 184 207 223 221 230 250 218 110 22 90 6 222 233 116 12 17 176 187 78 198 200 183 221 63 235 241 248 132 137 241 53 211 133 48
228 211 113 114 83 169 9 213 207 197 13 241 165 23 191 100 221 201 188 194 36 171 23 111 175 8 153 220 99 242 92 198 222 157 172 136 7 92 220 178 125 213 140 162 249 154 195 90 45 192 155 190 127 164 98 159 233 187 153 102 237 96 200 225 21 195 27 2 48 129 18 199 3 190 245 153 115 255 79 142 219 26 74 156 181 134 215 152 100 66 200 8 130 116 51 185 104 65 142 49 29 96 108 36 190 103 168 229 109 239 226 183 249 111 159 216 92 64 0 39 210 115 115 80 111 190 90 108 71 218 153 237 95 146 50 232 198 77 205 100 29 151 247 121 84 168 248 192 56 220 108 100 72 33 146 183 59 77 227 187 37 41 2 179 60 158 243 104 244 156 12 158 116 58 112 247 10 166 238 157 237 176 220 181 222 62 87 53 89 232 136 162 235 97 246 242 249 53 247 236 53 77 55 54 170 169 64 244 67 224 222 135 13 243 168 91 35 19 166 55 113 147 126 66 130 59 90 231 67 155 75 20 232 48 114 225 11 42 2 209 166 249 67 120 0 195 108 84 146 102 82 38 59 53 33 176 157 50 162 197 113 168 203 233 151 28 69 131 181 15 119 37 74 252 229 169 34 184 137 47 23 213 136 227 132 164 141 84 155 83 2 227 171 109 222 146 69 247 137 139
103 135 135 208 54 69 56 235 124 9 26 31 67 179 57 230 74 153 135 187 175 86 94 114 195 178 66 234 14 186 225 236 161 8 135 1 198 58 252 181 69 101 187 108 174 58 175 2 230 214 127 45 128 180 71 120 112 219 19 226 219 182 37 209 140 141 19 63 157 31 8 149 49 184 11 183 156 187 119 34 217 44 155 212 208 106 218 10 155 95 159 184 6 30 82 247 188 198 142 254 195 94 181 201 197 23 18 36 101 228 161 106 101 75 97 166 115 14 117 8 19 250 207 243 111 85 17 179 16 226 115 129 6 91 67 71 140 238 192 69 162 165 233 101 225 140 230 130 253 97 154 198 213 115 71 0 171 236 64 68 12 1 154 15 238 189 73 200 138 109 170 147 106 103 2 74 44 255 139 218 178 178 99 169 88 172 18 157 81 55 252 157 123 15 231 114 248 244 75 240 147 54 121 64 235 137 224 145 138 63 14 178 74 117 234 142 60 30 254 216 156 61 33 131 160 101 112 54 46 211 86 165 206 16 139 210 114 167 76 70 90 158 219 29 173 142 66 192 184 154 177 17 238 253 255 202 63 19 122 133 210 57 245 14 70 94 84 23 248 168 236 87 38 109 211 234 95 110 225 226 32 110 245 217 6 10 79 165 88 129 112 206 142 74 176 100 121 206 239 49
176 229 247 143 123 198 152 20 130 194 219 99 150 70 116 150 37 200 132 199 67 148 247 248 77 201 188 97 20 104 90 105 54 15 251 65 210 11 5 110 27 26 11 167 189 24 195 111 203 124 89 179 121 167 239 249 128 5 81 4 180 227 36 230 6 181 247 23 148 230 109 76 78 44 43 128 232 118 85 120 129 52 172 221 163 104 5 70 161 96 223 65 251 88 179 196 52 22 198 22 43 89 132 91 194 95 223 123 192 189 204 170 109 83 172 191 239 247 239 70 138 160 51 203 208 71 177 154 152 73 189 39 111 163 37 186 55 178 176 43 88 96 62 153 142 57 52 189 49 37 27 156 29 214 227 77 63 165 240 77 69 28 158 183 141 76 91 235 123 7 74 79 2 21 109 167 26 128 180 182 220 43 111 196 200 139 218 199 234 248 3 200 180 91 205 6 234 135 136 27 199 163 92 249 86 168 208 35 25 182 69 112 121 243 144 135 210 98 21 174 236 160 0 189 185 144 254 216 21 91 141 39 43 41 113 98 48 32 27 81 148 133 106 51 132 192 134 231 68 249 196 93 71 178 58 51 16 192 139 103 47 241 67 235 107 110 76 224 63 240 211 145 136 134 126 53 41 224 79 75 197 120 151 191 69 91 162 78 165 211 64 87 232 148 183 88 42 152 155 129
154 62 87 90 64 78 6 146 170 228 192 158 22 197 221 247 137 175 211 45 171 93 196 25 72 180 43 176 26 46 199 38 148 234 67 81 200 187 190 2 0 119 107 144 255 143 199 165 73 98 219 214 115 237 47 127 72 212 182 99 251 141 100 62 180 238 99 83 121 60 176 212 136 188 9 132 13 140 234 189 5 190 22 12 252 233 100 53 56 62 162 235 207 36 237 155 109 23 208 202 56 188 145 156 224 247 31 114 110 238 182 157 132 221 16 142 207 231 212 101 76 148 163 204 191 1 70 23 130 131 246 44 10 135 95 209 98 161 46 64 78 210 225 145 166 207 61 50 243 129 115 49 224 80 36 29 174 196 9 134 44 11 214 62 227 117 247 87 223 125 147 77 182 249 209 250 221 84 163 129 113 244 84 71 245 113 228 34 74 18 44 92 255 140 108 56 214 187 156 49 38 73 26 92 146 8 107 178 162 194 116 53 57 160 178 101 225 51 143 210 60 51 3 127 53 247 79 231 4 237 205 143 10 179 236 36 180 80 176 232 144 63 96 110 83 70 117 87 51 188 96 131 99 139 142 56 7 251 8 204 159 75 114 66 82 2 117 144 156 68 235 28 186 147 36 211 107 223 129 23 2 104 206 1 122 132 5 88 206 52 5 212 68 38 30 78 48 178 176 61
163 114 211 30 252 196 9 227 180 139 255 85 144 86 234 9 169 164 11 145 218 111 153 102 249 67 17 73 20 230 101 59 248 10 47 214 38 5 243 6 31 77 46 32 170 65 192 159 172 180 82 25 94 234 30 87 171 14 44 172 206 40 171 208 217 144 61 28 250 193 10 68 169 20 89 80 83 35 73 143 245 80 245 36 101 31 118 171 74 9 21 248 249 241 132 251 81 154 88 9 164 12 33 219 234 119 213 198 189 19 217 69 238 216 241 77 66 94 75 53 236 4 68 202 233 13 84 109 151 236 13 177 164 176 77 162 224 22 88 118 144 135 82 91 86 202 63 122 66 58 44 118 253 82 145 14 81 23 109 177 152 113 32 39 43 92 18 219 11 194 186 119 167 148 80 24 54 99 163 136 0 184 124 206 89 5 253 80 152 185 136 10 202 61 127 146 119 244 181 113 63 219 75 30 198 132 31 185 95 178 29 100 182 20 39 92 131 172 144 171 179 138 92 216 57 118 80 254 244 177 98 172 222 129 125 169 237 216 235 163 236 221 29 104 249 56 222 28 200 182 249 22 37 198 206 31 49 228 139 212 17 93 168 166 250 224 67 91 197 174 31 28 223 78 57 208 43 247 82 175 129 195 207 169 7 123 171 196 88 108 250 62 35 53 244 70 88 100 99 150
25 129 190 217 216 247 255 202 146 222 146 133 127 124 189 236 99 203 227 229 248 226 41 251 204 24 75 2 110 183 231 162 93 62 42 211 218 253 205 44 227 233 254 222 175 181 248 124 27 182 111 68 70 174 115 229 240 228 255 111 77 186 139 25 42 2 71 58 25 67 12 236 165 17 157 246 106 178 186 75 237 63 183 39 109 0 58 155 183 205 255 115 127 208 41 33 105 122 96 77 31 96 216 78 181 223 7 233 201 174 141 182 12 164 179 60 88 56 60 16 14 218 144 3 63 203 239 159 208 87 109 191 175 57 179 7 196 51 35 51 183 87 96 133 184 131 87 45 190 87 185 108 65 91 119 243 134 227 101 185 158 120 220 245 82 62 231 1 135 170 231 140 13 225 64 138 240 251 87 85 136 132 83 41 105 118 215 177 198 64 216 106 54 194 141 74 36 160 192 252 1 106 188 118 233 177 167 110 73 24 188 144 153 219 81 182 201 99 120 205 29 132 209 255 185 13 200 20 137 125 183 14 250 103 28 48 128 218 198 198 182 56 219 203 219 43 187 93 242 191 169 182 171 20 46 240 64 29 9 255 83 53 76 197 131 139 125 196 213 157 170 18 22 16 104 3 157 230 70 228 97 64 43 54 93 115 58 187 78 30 156 154 228 30 25 2 54 45 45 124
185 243 191 84 219 49 44 47 23 174 156 212 3 46 37 83 177 250 201 167 130 225 243 7 53 102 79 6 231 255 212 11 31 26 148 100 113 82 240 119 221 149 106 234 230 167 162 77 242 64 104 202 69 152 89 190 3 10 248 36 92 235 246 204 157 101 253 50 240 195 111 58 46 189 85 132 197 222 96 107 191 5 19 76 224 114 176 144 228 213 154 220 107 252 230 190 209 110 177 181 195 204 61 119 213 222 131 51 36 5 167 241 102 187 129 28 6 109 36 196 106 71 146 66 45 14 13 138 226 140 102 110 55 42 215 29 185 74 173 107 142 223 174 183 252 160 45 43 42 123 223 185 230 10 229 36 184 62 130 190 202 88 24 25 153 68 72 89 233 138 165 231 72 9 48 98 190 55 140 45 235 99 126 176 250 62 46 127 250 36 223 118 69 250 146 90 247 115 234 211 129 198 142 252 111 108 50 208 105 247 248 11 29 117 205 163 105 129 61 91 113 72 223 82 233 173 210 55 62 221 40 168 128 67 95 251 91 75 228 45 101 200 79 33 1 87 187 5 194 134 234 111 225 186 219 78 199 216 147 255 126 248 184 236 115 88 181 190 204 216 45 26 138 202 196 79 208 155 15 255 75 229 166 66 252 38 135 111 204 216 64 25 224 255 246 212 69 230 130 248
50 206 254 215 239 127 167 203 53 38 207 89 142 142 184 23 196 215 73 110 38 42 107 84 32 196 159 109 74 193 208 105 218 41 180 10 185 123 150 208 240 240 178 84 167 70 127 35 139 32 132 120 107 141 186 16 56 182 185 26 100 235 194 232 235 55 14 223 230 178 102 232 25 38 174 183 98 22 217 79 34 162 231 254 131 146 169 185 252 10 163 37 211 6 10 232 9 24 72 22 54 141 170 197 183 123 194 128 116 231 87 106 47 249 73 90 247 60 173 0 12 126 62 230 15 212 98 83 24 204 32 97 148 113 1 122 201 37 67 105 145 208 148 171 106 24 139 161 129 121 179 213 175 61 161 130 70 30 196 151 140 134 163 26 225 213 112 211 198 89 43 249 181 105 74 248 50 250 59 51 106 86 168 170 240 150 13 195 19 154 134 23 187 28 108 4 193 241 96 63 111 201 194 249 138 71 111 222 149 91 97 125 219 145 64 18 51 249 202 140 42 1 228 132 142 173 198 151 98 62 135 245 48 93 95 173 100 151 186 216 87 107 207 153 228 237 1 96 230 241 210 115 189 45 228 194 89 185 41 43 246 243 46 3 110 3 218 103 176 96 55 43 194 92 249 147 195 171 130 42 114 105 69 52 118 231 127 89 44 122 146 38 143 206 16 185 130 105 3 166
220 135 243 253 101 145 217 181 109 190 248 174 101 163 57 217 4 177 251 225 1 84 154 65 127 236 22 223 221 252 217 194 254 30 49 233 62 4 144 249 202 206 159 52 122 102 102 117 113 149 224 53 22 40 49 251 71 58 60 202 155 39 177 229 180 93 74 165 128 54 90 105 227 174 172 192 1 238 90 45 21 155 190 212 196 143 13 180 43 22 51 130 240 68 120 105 194 196 33 111 111 242 222 233 201 64 147 86 249 24 209 74 223 246 48 201 229 112 36 141 62 154 62 24 27 140 230 129 112 76 74 31 212 8 217 31 160 60 115 95 78 136 5 192 55 125 33 85 194 81 185 179 234 34 51 152 90 108 135 81 71 118 25 197 200 163 118 51 132 41 239 144 41 52 141 148 232 6 121 224 219 150 139 239 96 223 53 234 14 214 247 168 232 22 81 49 65 238 73 29 188 88 203 92 76 212 217 96 17 245 222 203 22 223 195 224 190 181 205 189 16 8 204 143 114 137 145 99 50 29 211 172 72 216 42 119 19 147 160 49 225 99 40 16 195 192 136 89 77 25 186 101 207 80 32 183 159 101 131 224 161 28 103 7 176 189 32 149 60 233 214 8 85 21 51 204 230 37 154 72 98 38 29 55 124 74 68 188 235 82 141 128 29 147 131 50 127 159 169 243
36 90 206 151 13 30 100 174 218 50 144 171 7 9 225 210 97 203 197 205 19 100 52 98 21 25 44 41 27 199 0 89 92 104 76 71 185 243 30 93 115 9 192 105 214 154 33 141 92 116 105 174 121 213 112 180 188 129 20 103 54 57 254 89 222 49 183 32 238 112 48 78 233 110 84 34 11 251 61 216 108 152 145 52 54 157 32 253 103 131 189 238 144 27 15 250 176 218 13 81 90 38 88 99 199 225 80 163 231 120 62 241 11 44 9 159 59 77 231 254 56 130 24 23 183 42 227 239 23 156 197 94 150 146 205 245 122 186 96 199 42 205 64 110 231 26 2 60 121 2 242 197 2 249 228 13 148 98 166 251 153 170 194 16 209 197 236 218 252 46 53 228 228 228 171 172 153 152 190 82 254 19 57 146 140 69 151 23 217 77 17 177 102 43 176 226 180 150 197 102 42 192 100 23 125 19 156 64 223 69 60 45 167 122 153 63 118 169 226 149 83 3 230 220 33 213 3 51 195 244 137 138 109 57 4 66 30 27 25 140 19 35 104 15 55 193 64 172 191 117 68 249 105 7 56 112 75 191 153 155 169 150 141 203 152 244 255 111 137 111 140 150 15 62 192 219 246 105 59 161 82 97 163 14 84 122 8 153 251 207 18 162 178 220 78 162 198 149 137 170
171 189 111 135 154 39 62 245 145 217 253 137 216 89 101 40 54 191 131 182 77 71 131 157 147 222 27 88 78 53 104 104 16 171 243 132 251 62 56 139 5 205 120 171 151 111 8 240 86 106 72 215 104 158 45 60 254 66 89 127 174 213 8 58 53 34 17 119 147 196 248 234 139 220 144 242 2 18 107 110 66 165 38 221 103 105 165 124 72 249 114 72 135 67 14 92 222 191 200 14 84 199 126 11 107 222 123 94 65 101 149 162 144 162 3 223 43 210 161 64 20 55 66 92 115 63 145 87 80 112 49 120 119 212 222 29 183 74 163 156 116 60 102 150 11 197 92 106 45 224 50 13 209 176 53 245 142 28 247 74 151 75 232 113 34 220 32 14 105 143 43 80 113 178 113 95 89 23 123 43 224 165 191 34 118 206 134 25 145 37 170 52 157 74 240 185 254 138 215 233 108 1 193 219 73 53 31 248 142 174 44 210 171 127 242 98 192 138 94 253 26 124 199 178 39 96 5 204 62 149 89 254 234 32 32 75 173 158 220 33 229 165 180 92 239 238 177 127 55 198 98 83 147 174 18 39 130 95 126 243 25 149 39 31 165 11 153 145 69 119 142 173 92 188 54 208 25 132 94 88 247 173 164 210 206 133 128 158 119 49 30 189 181 91 250 53 165 220 122 221
30 150 208 99 218 178 175 127 89 248 234 29 131 207 97 241 30 8 66 135 11 244 157 74 22 233 72 114 48 90 156 254 234 182 86 130 243 185 148 3 122 190 164 122 81 14 75 98 46 235 61 215 39 23 80 213 108 229 93 153 49 128 166 146 72 230 93 55 140 206 96 249 120 81 139 219 19 18 200 202 96 25 140 198 154 97 172 187 84 196 234 162 145 24 26 167 77 150 5 118 250 27 208 19 246 15 197 96 226 129 123 173 140 121 183 21 0 194 151 212 197 75 227 55 88 202 23 135 173 22 100 42 20 72 106 45 216 253 70 194 165 147 195 121 171 253 66 243 12 149 2 108 116 251 97 154 118 30 215 162 82 143 89 3 19 132 39 30 252 247 215 221 236 162 149 76 152 171 111 154 109 152 19 177 116 135 20 187 134 165 28 103 157 220 216 107 119 147 40 161 40 156 3 181 118 95 61 8 21 145 226 23 210 100 141 229 247 179 171 96 198 171 206 109 124 102 77 7 248 55 206 66 88 182 143 91 49 105 25 218 197 110 105 194 130 116 46 185 164 208 222 209 108 44 48 139 215 77 110 35 120 123 73 67 159 183 110 105 233 47 234 232 27 33 242 92 117 84 250 249 42 121 148 194 145 1 145 166 215 215 86 25 102 238 185 54 142 19 99 94
203 99 80 35 48 93 221 38 78 193 250 206 24 19 225 78 121 154 183 47 75 27 87 20 129 45 122 88 20 85 218 199 150 56 152 170 59 72 142 40 35 1 34 177 76 126 135 179 175 131 121 148 243 150 140 12 185 126 71 49 148 255 28 157 118 2 179 243 95 186 112 223 10 141 227 20 130 52 244 202 188 8 102 201 118 218 108 148 245 127 224 213 61 234 102 167 51 86 252 134 1 12 173 207 205 19 175 241 118 103 114 0 230 235 249 185 191 153 20 199 98 48 97 125 6 182 0 193 103 136 73 161 130 97 101 33 28 123 232 235 85 10 208 215 33 62 124 77 230 221 230 37 140 91 170 3 169 75 31 171 251 214 85 81 185 150 129 246 135 69 246 46 168 207 93 58 114 177 171 232 100 199 27 87 150 120 49 126 140 203 45 251 40 168 66 57 101 58 82 58 136 15 196 151 143 135 116 216 210 95 84 43 248 78 225 23 253 225 211 132 254 236 180 218 14 139 229 230 45 225 79 169 140 240 60 152 145 67 7 255 253 40 205 191 112 50 31 143 67 100 32 204 152 17 88 101 194 75 50 57 120 220 23 15 130 30 44 208 70 41 68 234 191 11 234 57 15 49 109 88 93 215 249 18 134 142 119 177 224 77 116 222 44 251 38 213 204 112 170 205
