P3
100 100
255
204 61 42 31 63 177 152 130 34 66 77 24 15 117 13 41 87 60 250 163 33 103 118 116 128 91 169 169 142 39 182 128 144 251 255 228 111 232 24 83 238 208 95 75 65 83 5 75 74 206 9 37 152 30 25 153 55 33 87 123 9 16 91 26 107 42 242 26 126 53 162 107 2 39 195 135 170 146 61 94 123 159 96 130 8 251 171 94 165 163 208 254 235 69 209 128 176 22 68 196 14 137 231 207 52 210 235 200 151 63 11 115 128 139 25 231 54 182 5 116 77 81 178 40 191 66 245 188 15 181 216 241 96 194 247 218 245 198 169 108 241 1 7 161 6 144 239 239 128 22 2 43 48 134 130 140 105 115 139 161 168 79 88 171 247 222 245 55 4 2 245 231 135 242 244 18 136 2 229 65 75 188 216 244 159 95 116 171 84 188 44 164 47 104 95 82 120 189 185 159 192 157 49 201 135 239 75 171 160 119 80 237 252 72 143 78 198 117 116 42 70 207 4 219 200 240 127 170 159 47 174 34 164 234 103 174 15 202 8 190 231 195 145 102 71 31 105 231 223 1 237 93 207 152 18 86 121 198 212 167 36 91 231 26 99 28 242 183 34 113 195 15 178 28 133 151 120 17 118 82 84 40 168 30 219 30 130 164 192 113 172 76 60 139 130 166 20 96 11 26
207 66 233 216 48 219 17 147 87 249 138 188 82 71 166 162 221 41 148 82 117 185 156 155 91 66 2 23 67 60 63 0 2 253 37 166 132 105 1 151 252 119 91 221 90 222 53 69 180 181 210 150 95 155 87 27 190 155 142 174 119 245 200 35 210 165 203 46 118 236 200 188 173 83 255 66 185 79 61 14 232 180 1 225 39 177 224 81 43 120 62 214 209 92 84 89 211 136 174 60 123 117 120 251 104 210 182 101 211 83 148 55 159 12 141 140 94 59 206 170 122 147 171 53 30 220 221 191 47 132 51 199 187 216 212 223 42 31 53 1 222 125 167 33 32 201 108 129 181 51 251 54 125 8 35 118 133 60 127 54 79 227 202 206 206 42 112 125 231 37 50 250 205 181 168 180 14 180 206 87 158 48 193 208 240 150 17 22 55 12 192 138 158 184 16 100 199 146 5 155 7 87 27 219 148 245 117 69 39 15 240 206 85 147 199 76 208 166 158 104 62 244 144 55 68 254 166 169 192 154 163 225 141 216 218 123 144 64 75 54 109 185 217 68 15 152 215 106 29 212 84 192 130 108 81 213 171 143 85 163 217 198 22 170 184 194 87 207 136 174 92 110 54 70 117 84 71 240 233 113 157 103 209 21 153 28 225 186 195 136 252 126 154 124 30 96 179 58 49 3
233 103 3 21 5 185 124 49 141 164 180 115 218 18 43 30 107 206 188 17 39 54 146 157 40 71 126 186 200 214 32 93 221 66 147 220 198 176 181 131 74 92 141 42 121 209 161 252 54 39 230 80 62 177 238 206 208 102 49 36 20 227 160 238 20 66 123 67 184 124 218 109 56 176 235 37 218 67 180 216 232 202 219 16 187 16 175 96 174 137 252 132 2 69 218 167 25 184 139 82 23 21 167 170 170 93 155 16 42 249 107 104 103 234 113 187 93 94 141 6 82 52 109 73 151 226 15 198 173 140 214 98 119 150 151 33 7 190 247 115 88 23 31 117 199 44 250 249 76 238 227 228 178 176 15 3 116 64 26 39 64 248 180 70 147 199 117 136 193 36 77 166 113 82 228 224 128 249 16 211 17 49 137 119 56 193 229 108 250 252 6 177 170 163 66 213 12 158 204 98 98 183 166 141 203 255 121 62 194 115 9 58 238 24 50 65 119 85 244 169 55 109 186 116 233 238 35 39 146 200 26 164 163 199 40 91 28 163 132 109 249 120 209 95 100 51 182 43 227 30 254 41 112 71 22 207 90 182 2 155 168 181 113 9 1 197 78 208 113 20 43 208 22 104 157 240 146 76 175 237 140 100 204 237 232 242 122 151 2 133 225 73 204 223 177 226 202 57 190 214
89 76 162 118 26 126 66 55 87 92 82 114 99 235 248 219 135 169 109 97 142 33 226 7 151 19 19 190 27 75 179 229 162 138 146 197 58 229 255 209 22 244 64 164 224 57 103 241 27 182 82 68 212 179 172 2 214 104 176 112 40 163 234 15 155 161 229 232 252 4 108 200 69 226 35 94 212 145 245 42 29 129 101 32 69 94 88 148 156 69 14 251 193 52 159 153 43 195 43 21 208 224 45 220 143 93 23 159 77 190 227 4 44 171 164 122 207 230 100 236 53 15 98 147 115 87 70 189 22 99 3 155 84 95 0 186 95 192 121 69 181 150 221 108 208 41 149 198 216 19 119 72 226 173 228 13 109 3 111 47 73 240 202 136 205 237 91 44 92 250 58 113 144 18 94 11 219 117 61 39 86 154 68 164 204 210 141 245 29 157 179 40 235 92 106 52 149 253 152 39 244 19 50 3 74 150 104 218 236 198 246 171 18 131 82 250 183 98 13 206 75 10 197 119 0 206 89 13 51 54 22 94 69 57 91 98 144 16 84 1 186 81 229 171 214 243 16 230 178 29 175 213 12 177 94 148 167 138 158 172 27 142 43 116 38 81 98 58 3 209 230 222 85 190 134 162 88 6 221 111 222 212 14 75 162 184 91 28 124 10 235 208 240 16 95 53 169 72 129 255
36 225 33 113 249 193 180 88 136 162 173 172 101 176 92 85 255 94 15 49 84 158 238 60 53 219 2 144 86 120 208 31 129 214 72 168 89 189 235 213 66 253 212 31 147 233 144 125 49 245 54 26 33 63 206 21 138 209 18 164 152 196 203 69 41 223 196 172 210 213 163 218 5 168 87 52 80 53 25 54 234 63 115 235 106 156 109 128 191 10 112 224 245 168 227 171 164 57 113 29 59 41 69 163 168 246 214 1 11 35 214 51 139 219 138 8 33 42 123 227 168 183 229 165 6 230 198 101 237 204 177 233 146 11 77 206 121 42 86 48 73 75 132 212 139 135 108 202 53 109 86 32 180 26 119 210 23 96 189 26 35 24 84 161 127 161 109 141 76 109 1 221 86 93 44 158 97 199 105 24 148 253 239 38 198 129 187 111 146 200 80 91 216 235 49 163 212 101 8 13 84 185 56 118 49 98 11 170 200 92 244 60 54 56 29 158 39 245 54 26 7 87 72 109 213 73 51 27 197 174 61 54 6 11 254 42 167 22 166 129 111 189 3 60 170 50 177 46 237 163 232 223 188 188 216 227 186 42 27 118 58 154 88 143 3 30 164 120 190 156 82 191 224 217 137 127 152 103 106 75 67 215 195 42 156 147 156 210 226 191 246 116 251 54 12 161 101 207 4 184
148 13 38 149 159 119 184 74 2 39 155 162 183 159 155 210 151 112 177 62 111 85 59 71 73 229 199 189 134 148 160 95 211 94 242 100 95 128 117 183 171 126 109 211 93 164 220 168 158 66 232 190 55 225 180 205 3 38 6 234 93 68 3 146 213 195 136 79 178 183 188 101 137 221 247 175 88 210 105 2 221 154 50 74 147 192 34 131 137 92 221 107 45 227 255 82 46 243 5 170 205 177 209 193 8 194 65 72 100 202 215 154 111 63 50 4 0 235 13 92 39 157 227 217 180 17 54 27 15 134 82 28 18 189 107 217 186 7 100 57 211 208 106 53 250 48 62 24 120 95 173 154 138 100 43 81 41 218 95 165 221 100 215 237 40 242 208 206 110 205 215 8 199 24 152 111 104 128 139 187 27 83 120 25 71 31 207 125 91 226 92 155 215 2 120 64 61 227 5 170 93 165 183 53 9 37 128 29 167 223 215 2 34 49 165 27 175 23 193 7 9 198 111 51 202 112 10 66 207 66 65 250 153 144 198 20 9 21 138 241 190 91 68 174 157 143 229 8 6 3 52 69 213 151 7 193 172 61 229 59 248 33 227 26 223 16 141 16 11 39 14 61 243 139 224 24 102 162 51 244 166 243 178 139 226 56 246 12 147 65 25 193 252 75 130 237 41 137 57 92
252 28 46 211 249 22 164 132 91 238 229 208 27 113 205 238 132 236 158 42 29 43 104 118 64 221 124 205 76 106 73 156 0 239 138 230 16 93 177 199 155 86 244 0 116 71 41 192 10 192 255 252 71 141 19 47 254 58 0 165 111 86 228 247 227 199 245 27 212 203 15 46 229 253 95 194 237 93 173 222 65 195 250 206 213 91 164 151 126 73 229 14 95 247 63 54 187 112 53 239 152 245 26 248 187 81 211 127 196 142 33 193 132 95 90 217 189 144 25 255 87 22 194 115 2 244 133 186 45 110 134 192 68 165 167 143 91 60 243 136 63 175 88 187 219 210 223 38 196 235 0 98 68 199 59 221 239 0 246 64 31 77 232 22 17 188 44 19 76 68 233 47 115 146 83 220 119 24 96 5 152 90 91 104 189 8 162 54 182 0 196 73 176 89 55 58 197 97 184 189 129 119 247 147 12 243 225 106 97 47 54 245 236 237 98 123 18 14 159 105 145 154 140 169 224 84 236 122 9 76 249 190 63 110 249 138 114 192 227 240 113 172 131 0 218 255 71 28 33 196 74 88 61 164 130 135 185 76 251 182 138 83 195 27 25 189 100 69 223 9 119 64 155 149 204 190 101 252 134 178 36 252 158 135 209 87 190 21 240 4 102 110 68 61 83 236 5 152 144 243
157 238 90 182 30 22 193 144 41 247 81 204 115 249 169 250 63 194 216 119 128 239 213 215 95 104 159 38 95 3 40 197 204 41 185 197 101 89 11 161 183 32 155 10 162 31 26 115 119 211 9 241 109 177 190 115 172 190 158 150 184 162 168 210 37 89 110 140 76 162 49 55 32 39 109 100 162 232 179 72 119 190 63 125 33 114 242 143 161 151 139 203 180 82 94 36 108 173 168 18 174 118 186 130 54 89 115 119 19 92 17 82 50 151 98 222 13 61 2 45 146 42 129 225 37 8 75 210 191 162 85 187 209 60 29 190 127 120 255 110 252 182 89 201 21 13 122 15 129 45 6 180 34 80 71 235 248 144 242 63 58 184 96 11 165 102 127 89 133 215 224 249 177 241 76 32 250 206 11 131 9 251 70 183 42 125 248 217 92 37 16 130 162 227 54 247 242 248 207 120 74 195 207 55 2 171 12 93 86 85 112 5 2 206 199 166 61 163 18 247 9 204 43 154 239 251 55 37 219 216 98 162 97 239 227 125 127 187 129 37 99 82 106 181 205 20 86 104 219 64 3 142 198 225 144 14 224 35 140 211 230 4 63 148 242 51 232 193 8 176 120 201 204 159 213 116 214 70 239 226 32 179 254 44 176 202 31 170 109 68 9 62 109 105 70 97 105 88 39 144
199 38 198 121 250 56 24 226 211 33 162 90 158 229 25 153 149 152 57 45 51 141 81 8 120 206 79 175 168 236 158 50 93 76 194 3 8 222 123 221 95 144 90 14 153 128 111 103 114 28 95 82 0 112 165 227 221 68 85 128 88 106 183 238 18 122 239 171 15 189 180 221 181 246 177 70 15 165 134 30 181 45 74 131 9 204 219 212 68 120 80 248 159 183 5 72 97 186 26 0 20 51 92 233 28 126 170 69 36 203 93 157 244 26 54 148 222 124 244 176 104 203 28 204 171 206 42 178 155 175 2 185 146 46 244 206 114 26 157 40 89 119 157 215 199 94 150 24 70 172 11 244 185 54 25 15 248 127 182 112 161 254 67 95 38 49 245 223 50 0 29 54 129 166 197 144 126 62 106 101 11 69 174 212 65 227 239 252 236 64 235 149 29 250 166 134 187 105 165 222 51 66 195 68 16 251 115 98 245 52 164 180 129 84 218 227 126 95 149 224 16 107 136 223 5 204 184 142 72 161 41 63 51 193 141 178 170 50 74 159 6 136 169 196 24 21 30 6 48 46 232 196 121 181 137 239 60 30 159 54 58 191 193 192 75 36 252 83 226 16 95 132 15 193 64 168 106 128 36 77 87 44 222 191 34 118 227 141 229 219 103 73 165 220 214 183 197 8 213 248
147 253 58 60 65 109 24 234 172 191 111 137 247 229 93 133 254 57 32 40 126 59 255 189 30 213 215 45 107 233 187 65 176 32 153 196 45 91 201 189 217 90 143 172 66 155 57 17 110 99 169 137 78 250 65 86 195 176 248 141 250 103 133 68 212 33 214 50 61 202 9 136 187 222 134 28 215 233 15 181 120 94 167 239 153 103 15 184 71 25 175 87 237 100 233 207 129 182 195 238 156 143 172 45 103 3 130 20 60 19 125 191 64 52 249 21 234 43 203 26 51 24 224 187 230 167 142 157 12 244 157 77 41 243 11 227 117 103 182 96 86 52 145 135 138 240 0 142 84 27 150 175 235 233 50 40 139 228 51 67 106 167 0 110 96 77 198 172 45 82 179 104 32 230 144 162 48 13 77 188 95 207 81 8 20 18 207 111 8 71 252 192 90 184 76 2 251 91 15 201 41 224 230 130 245 86 223 135 44 16 174 150 197 132 159 121 51 59 155 187 27 217 237 176 141 0 147 221 57 160 157 155 24 133 186 208 235 76 61 20 140 74 181 148 44 56 252 173 249 184 239 133 233 87 239 58 196 115 7 103 60 245 12 110 185 92 87 3 247 17 170 39 210 64 146 24 138 44 4 72 50 40 8 235 55 155 212 167 177 127 25 212 248 201 154 199 224 38 244 170
252 44 160 90 223 13 82 56 191 9 80 93 92 3 120 53 74 248 65 179 41 80 100 117 201 229 209 57 44 180 55 118 210 52 190 244 240 39 4 54 179 186 168 228 245 70 37 82 212 111 11 172 62 95 50 16 239 77 120 236 140 44 196 174 156 242 54 96 168 196 198 204 18 140 79 62 102 29 118 27 178 181 85 235 115 166 162 244 183 19 171 180 68 196 132 105 224 248 196 247 65 96 200 241 44 141 117 127 217 191 35 14 214 34 101 222 35 179 215 170 148 68 249 108 164 91 48 129 184 192 178 150 46 91 156 185 133 140 218 232 88 224 219 171 180 38 7 93 40 230 156 197 12 22 84 118 140 135 238 52 165 74 143 119 129 12 149 227 245 49 125 123 181 221 248 101 20 233 186 245 137 183 113 26 127 234 87 99 132 171 106 202 87 23 127 56 198 41 32 6 30 26 19 120 54 58 90 219 214 170 216 91 11 157 191 99 201 208 37 254 236 164 233 215 161 145 38 81 247 220 43 32 104 248 135 252 207 243 175 151 9 226 195 109 118 237 209 228 101 108 154 107 19 31 123 56 5 219 108 112 127 144 44 246 142 251 145 160 85 20 105 146 190 8 239 22 87 224 22 111 216 255 108 215 84 208 87 255 115 123 201 242 90 221 85 96 115 70 40 145
23 95 158 29 155 97 81 221 174 20 219 11 79 24 232 59 204 86 245 228 97 243 109 71 147 74 214 38 67 26 32 229 20 61 94 165 205 127 155 67 140 24 164 62 161 61 249 94 232 99 16 244 101 212 149 158 14 206 84 183 110 219 54 171 185 119 248 247 139 93 113 117 168 73 122 161 5 218 106 71 22 104 100 148 207 30 112 62 175 236 36 131 208 209 11 42 141 203 171 5 73 61 127 186 131 57 17 208 116 44 185 230 78 123 106 66 152 189 133 93 53 116 103 73 165 200 168 241 23 75 247 124 14 134 234 109 96 123 21 71 69 49 163 43 105 131 42 247 111 243 199 73 148 132 86 68 46 197 62 150 234 49 186 241 45 3 221 45 141 26 204 212 134 168 139 96 209 192 192 240 237 220 209 64 231 144 30 95 180 117 152 118 244 160 55 67 243 24 231 79 196 19 240 241 216 32 153 32 219 214 82 214 221 140 100 224 138 29 95 237 253 164 203 162 78 245 135 179 13 193 251 57 189 34 15 251 237 152 210 123 128 41 182 43 67 29 113 204 70 178 112 198 25 36 112 1 193 166 149 211 229 247 229 135 151 72 51 60 187 48 135 51 203 17 255 173 183 133 133 37 98 183 15 85 3 56 245 171 130 112 120 111 1 208 191 212 219 211 228 43
139 22 200 2 182 91 173 42 170 101 182 186 153 194 154 43 151 43 42 222 244 182 158 65 61 160 218 77 221 44 84 227 222 151 74 243 72 16 41 197 207 17 170 220 129 196 140 92 52 226 67 225 189 188 165 57 69 209 223 206 94 200 166 108 187 25 24 42 241 44 64 178 189 190 66 50 216 160 111 111 14 209 5 108 211 91 166 37 16 168 36 154 160 162 233 31 30 240 0 129 15 30 62 203 20 5 211 125 11 80 56 110 217 123 151 200 240 170 137 99 95 56 218 75 76 134 203 201 127 133 54 244 144 7 61 150 96 89 202 158 99 39 150 180 188 56 9 98 227 243 98 196 144 213 161 86 71 196 118 185 68 77 55 5 205 114 68 182 141 126 62 88 221 4 198 188 90 112 122 210 239 146 32 18 56 212 132 114 5 196 19 180 7 167 77 150 2 228 210 253 194 2 106 245 85 162 226 249 20 195 45 92 44 29 159 62 47 134 206 26 51 228 194 242 116 96 100 102 190 182 14 23 97 9 154 28 90 88 20 118 162 14 127 205 198 48 79 24 5 252 36 184 71 63 216 245 94 50 118 203 145 22 113 231 0 77 187 21 157 155 76 161 127 246 92 60 176 103 195 15 133 130 229 130 189 79 151 42 213 135 134 215 181 37 82 168 131 16 9 251
43 94 138 146 119 222 78 101 131 157 51 130 101 228 127 170 126 132 153 28 119 163 52 51 118 224 42 220 138 224 133 99 191 242 119 217 157 202 51 146 66 120 78 44 97 47 243 111 13 4 84 190 224 126 205 139 153 19 42 234 115 23 179 137 38 248 218 132 196 61 0 162 221 217 217 121 72 175 157 238 55 252 71 95 74 29 111 69 111 132 31 95 43 251 64 201 206 190 124 110 96 10 65 1 43 17 6 64 153 161 150 249 243 90 163 209 204 126 140 20 104 98 161 250 117 7 175 76 191 223 169 193 94 203 11 35 140 202 136 241 205 254 8 64 10 226 59 85 207 205 62 136 156 164 141 110 9 172 179 231 174 165 163 144 154 200 167 104 248 254 144 0 219 78 155 84 62 232 92 16 166 243 221 212 243 37 53 81 195 40 214 193 173 184 46 65 20 57 33 169 203 140 14 249 92 103 91 126 210 22 165 169 11 103 245 139 46 218 176 114 29 194 188 169 69 222 139 8 143 3 61 46 209 62 164 57 228 106 137 146 102 109 164 34 192 217 82 226 120 90 179 250 119 82 240 173 160 159 2 209 129 62 6 120 6 157 95 254 251 50 191 193 145 73 62 170 90 65 77 147 208 229 32 246 57 177 198 116 254 119 26 253 23 115 97 204 158 232 3 131
45 94 177 161 83 193 251 101 49 178 40 80 248 118 242 136 116 197 23 177 231 240 162 132 29 236 193 79 51 23 244 124 98 160 91 101 82 203 130 134 158 17 138 58 97 74 132 81 10 186 252 0 161 50 233 61 223 78 222 100 210 8 26 175 10 3 34 27 0 14 110 50 118 87 99 211 235 245 79 249 47 102 13 29 223 37 64 27 156 89 197 73 137 100 62 100 251 1 210 156 252 125 10 236 4 226 46 175 11 64 225 209 144 194 196 125 163 75 235 88 155 231 118 209 29 130 53 89 40 88 14 104 13 137 249 50 195 200 202 160 253 18 84 0 4 3 166 25 184 107 229 160 225 30 105 59 223 140 133 231 217 38 67 193 147 142 217 112 64 236 239 192 65 122 132 132 46 124 200 96 50 4 77 88 1 237 59 36 146 233 120 58 116 0 135 43 108 140 5 86 149 111 113 59 134 189 80 94 21 166 78 219 25 7 167 238 208 123 89 45 160 93 62 124 248 7 113 86 195 192 103 225 129 39 110 25 126 2 172 122 44 232 27 77 111 117 165 109 31 155 175 115 70 179 173 65 158 220 32 190 5 16 54 147 101 96 6 117 156 222 14 213 15 15 196 239 172 211 108 68 184 217 212 110 218 78 11 185 228 36 85 7 179 200 200 49 151 246 178 77
205 218 6 35 7 125 242 146 11 52 184 250 167 228 56 101 51 43 165 58 12 54 97 237 91 195 179 182 81 203 138 140 131 63 210 219 113 154 141 75 19 149 166 93 138 90 77 201 68 62 48 36 237 152 189 135 228 189 202 128 25 167 198 199 134 12 14 246 177 76 27 89 150 73 88 150 209 164 196 93 170 84 108 225 115 243 57 224 184 255 149 22 143 95 203 18 106 60 57 66 55 59 73 246 124 146 183 116 121 26 185 144 72 168 113 121 150 114 46 196 152 177 204 253 49 113 195 104 232 243 61 150 24 205 10 172 166 184 150 133 158 206 81 238 152 210 146 126 155 25 101 179 255 238 185 206 93 181 89 56 248 10 131 193 20 90 82 5 204 48 49 237 195 38 59 110 210 134 151 79 60 186 117 252 146 89 32 206 119 98 27 66 101 0 72 168 8 0 170 178 169 122 186 29 13 87 155 33 32 160 126 184 73 197 218 9 220 43 37 174 2 227 71 134 178 23 171 7 38 126 255 79 36 175 146 8 34 138 62 98 118 48 164 13 19 236 179 23 228 202 105 46 241 141 189 252 61 89 168 107 20 142 70 219 63 51 15 199 62 11 194 22 180 90 80 130 127 77 90 66 125 141 92 195 71 172 117 202 163 110 177 164 129 152 82 34 114 173 76 143
219 42 193 61 140 246 155 188 162 148 214 230 119 243 165 117 242 177 76 2 97 153 80 245 4 25 228 229 110 187 135 23 206 84 168 23 253 175 187 72 62 94 101 40 51 197 16 11 136 117 97 70 75 13 7 119 99 112 101 100 151 95 92 15 218 118 110 156 91 16 231 41 235 19 74 214 78 237 60 199 8 23 94 238 115 50 182 212 47 116 199 0 83 11 139 254 155 184 92 223 137 204 191 78 124 35 8 79 255 172 220 66 101 185 126 162 168 158 152 87 218 59 122 134 90 170 253 96 237 88 185 70 129 138 100 154 230 220 44 80 13 98 2 228 120 132 37 164 237 175 127 206 104 232 69 216 203 194 51 226 63 198 0 37 238 73 98 206 86 33 41 234 177 113 230 72 160 80 221 147 82 206 128 132 120 247 57 224 79 116 43 116 206 177 66 86 217 110 214 55 208 82 232 254 242 46 53 96 76 223 217 255 21 163 194 164 205 132 217 34 80 235 193 174 134 182 5 86 14 169 84 63 68 110 84 79 201 79 188 150 71 57 198 76 175 251 250 63 66 115 111 146 175 102 87 206 105 222 106 114 13 25 158 26 2 24 55 191 245 35 238 77 154 140 13 155 148 196 95 215 244 198 232 207 87 110 182 204 39 249 99 106 97 122 157 117 177 21 204 208
179 86 46 193 222 148 236 0 27 82 131 46 41 60 251 2 188 108 190 146 107 229 1 38 143 66 4 25 67 219 5 116 216 70 99 166 160 127 22 183 234 239 27 21 254 216 19 129 46 139 158 182 145 227 43 164 14 140 79 4 188 17 84 90 230 246 213 62 181 103 137 113 209 194 97 246 226 60 198 81 204 52 12 5 240 192 238 219 245 6 202 50 123 137 204 219 38 177 16 75 41 67 54 233 41 97 59 186 40 108 32 95 82 152 250 65 106 149 140 4 173 22 82 201 52 105 56 238 74 0 11 118 31 202 165 49 130 206 126 248 192 192 176 187 91 113 107 217 143 90 187 124 145 239 95 117 167 70 188 201 213 233 207 74 212 194 186 27 183 59 249 211 124 151 237 31 215 118 96 239 164 88 36 179 3 236 104 43 98 102 162 180 65 214 154 154 101 132 244 61 158 136 69 151 30 246 75 20 14 99 9 84 30 231 26 186 5 211 126 146 81 3 219 214 188 114 29 42 23 136 20 64 235 17 223 176 55 36 2 12 123 90 149 139 187 1 148 30 12 176 230 94 126 151 145 35 147 110 164 217 229 5 177 167 68 15 70 145 186 200 159 33 20 45 234 43 136 44 134 85 73 61 115 33 42 226 9 89 228 235 235 83 147 147 129 66 234 143 25 92
1 126 31 59 152 18 172 104 80 26 196 232 162 47 153 232 95 13 105 228 108 241 28 70 113 127 50 105 65 74 196 15 194 183 170 45 243 29 144 215 151 58 60 99 187 142 80 211 87 19 186 133 167 128 201 142 175 16 180 16 175 102 84 209 156 143 187 255 42 2 153 170 163 37 193 96 162 99 236 1 2 56 214 171 229 181 113 78 72 185 217 137 79 84 74 11 119 212 69 150 94 251 180 3 244 6 129 233 107 169 50 91 185 31 230 35 161 59 23 132 7 196 114 72 4 143 134 116 207 166 115 123 115 147 30 145 218 8 105 237 234 192 4 89 15 3 213 41 153 30 85 122 3 68 145 119 151 177 72 242 47 213 81 254 66 6 244 187 248 219 97 42 151 229 242 81 198 73 12 196 13 34 244 206 11 35 143 80 33 110 202 12 130 25 116 67 79 63 187 195 247 209 1 91 21 181 86 232 113 158 17 45 10 251 250 61 63 155 25 161 136 213 211 41 156 44 103 59 50 130 68 202 130 40 211 27 223 94 97 46 87 128 239 129 0 92 135 15 115 155 9 163 214 218 18 57 118 106 37 28 145 223 115 237 164 183 214 142 198 124 19 91 148 215 210 149 152 85 90 238 249 149 240 97 212 56 65 162 91 130 181 60 192 214 177 59 229 160 122 223
201 235 54 93 226 219 250 253 86 123 125 16 83 36 71 139 17 124 90 170 19 209 169 231 99 84 83 156 106 228 239 209 87 235 52 172 193 78 98 127 207 210 89 218 1 194 26 144 17 136 64 160 35 237 8 200 128 59 84 30 140 116 12 226 149 62 118 241 75 154 156 174 10 0 205 80 78 62 165 78 123 2 237 133 196 125 111 39 9 127 103 172 41 65 96 129 1 39 190 72 115 212 107 143 202 42 78 117 255 92 83 67 155 148 138 189 223 150 212 114 144 247 45 154 233 168 220 177 253 17 203 74 218 216 28 225 50 213 38 232 193 85 178 17 249 65 154 103 64 17 92 203 66 26 161 229 87 166 220 200 17 23 178 142 183 234 96 78 101 47 129 135 209 93 109 51 50 90 197 25 5 42 217 206 78 251 62 93 114 119 236 16 251 52 157 172 216 226 254 42 98 60 8 232 89 242 117 82 200 107 101 239 219 74 70 168 207 5 144 196 170 156 79 255 20 45 116 119 47 246 195 255 233 169 153 61 7 13 21 1 60 125 49 84 187 255 2 4 224 207 223 181 236 250 191 251 249 90 176 163 194 79 199 158 5 170 178 11 64 218 207 120 108 162 192 110 241 190 50 103 57 71 67 100 153 12 100 242 98 227 238 21 122 199 72 81 141 127 126 201
254 48 196 72 158 188 151 15 107 87 53 110 244 138 252 234 248 209 245 80 233 178 198 203 187 213 212 155 2 184 152 240 209 226 106 89 26 86 9 200 66 96 191 202 150 119 209 20 178 6 122 187 47 104 156 20 82 228 247 169 245 130 118 98 91 252 90 42 72 157 193 136 73 205 237 231 214 56 6 217 221 172 147 70 68 12 72 208 5 81 127 79 180 41 31 234 73 213 0 97 166 167 82 223 243 119 240 98 114 243 14 156 92 146 202 124 206 250 40 119 74 212 68 41 104 81 251 21 181 88 191 38 110 23 27 38 246 91 143 139 217 122 2 61 68 121 85 6 167 45 62 199 129 214 17 136 102 196 149 231 181 4 94 94 235 217 140 127 74 28 127 51 108 241 252 170 57 159 164 237 152 165 8 177 86 241 199 174 240 53 49 222 235 17 113 99 141 41 185 83 66 125 79 73 175 225 248 59 190 190 13 144 98 225 232 168 149 189 224 242 18 149 0 106 142 198 137 110 179 50 237 201 71 207 39 20 200 177 26 205 61 15 46 254 207 123 94 176 78 198 224 76 242 72 238 9 11 70 86 225 2 20 46 227 104 187 104 109 34 61 102 37 90 89 171 205 16 126 18 195 254 144 177 176 175 239 238 255 18 106 248 44 121 214 79 173 30 123 151 119
193 160 36 122 240 196 19 228 184 225 196 112 202 64 149 124 27 118 124 28 132 153 188 212 89 80 32 90 225 147 187 45 8 190 193 38 151 74 138 247 48 219 148 89 133 90 232 123 238 85 85 43 46 134 211 116 100 188 45 74 17 49 211 141 50 219 63 140 126 213 171 14 208 201 215 17 220 11 121 225 80 118 94 155 235 44 75 1 128 236 177 8 3 56 120 225 142 31 229 180 99 7 85 221 193 173 12 5 85 205 230 17 193 231 20 215 198 69 162 66 15 95 125 102 180 159 56 126 78 243 43 108 61 177 117 138 39 50 42 42 127 106 223 170 243 39 191 34 26 64 241 25 244 39 98 183 14 200 76 191 213 41 220 101 149 73 154 207 68 98 143 18 15 7 241 94 229 72 187 129 140 31 148 78 156 105 120 117 198 175 195 106 191 7 34 206 242 120 130 195 146 253 160 116 205 239 118 224 87 52 86 243 44 22 142 31 24 18 209 157 224 141 171 184 236 6 115 149 228 6 189 208 67 221 30 93 194 253 143 58 15 147 92 152 25 139 224 155 203 32 60 46 210 128 136 220 98 228 0 210 20 164 158 74 127 160 29 87 74 172 96 1 104 109 6 220 183 25 151 255 61 57 211 219 47 188 234 234 170 197 165 139 2 198 128 208 117 59 122 17
159 106 52 110 203 219 0 101 49 248 108 219 145 160 122 34 242 20 61 1 172 85 61 179 234 141 189 77 177 34 93 255 19 147 140 153 180 233 166 127 20 139 36 111 251 114 140 188 91 68 85 114 25 241 90 130 109 103 93 94 10 241 179 75 99 77 43 229 157 71 33 8 50 187 141 81 227 127 205 125 235 32 52 202 179 57 0 48 222 53 22 134 80 112 83 206 207 191 204 218 186 27 41 114 231 217 205 134 113 138 114 163 39 150 238 42 196 58 15 135 120 83 238 37 173 20 152 159 140 57 159 113 107 140 15 63 184 32 166 187 46 251 119 143 119 122 183 2 50 106 43 148 137 226 87 188 51 136 179 13 24 91 254 128 188 139 74 23 129 73 252 93 170 61 221 210 96 48 8 219 54 192 84 140 218 92 133 212 178 208 80 74 211 53 72 244 197 130 56 226 213 221 65 86 94 126 108 97 67 151 195 155 89 110 254 143 35 137 61 98 77 102 165 128 164 196 170 46 197 234 35 165 242 228 82 249 130 64 132 24 168 244 133 126 224 148 246 143 149 148 185 28 31 11 56 233 76 89 205 76 91 71 20 5 251 85 5 255 208 148 22 142 13 171 39 25 187 71 182 67 61 24 226 3 199 49 119 92 154 69 17 107 81 36 187 155 199 130 116 146
219 200 182 202 42 115 7 220 60 9 36 90 45 77 206 21 135 98 184 255 97 137 171 136 217 46 82 118 241 73 106 129 47 89 97 88 3 160 141 107 249 67 170 111 166 1 200 214 238 25 250 232 199 160 163 83 235 147 241 65 26 97 113 103 67 215 164 130 183 244 104 245 149 48 168 102 239 202 192 218 62 103 147 3 171 143 232 43 50 40 156 1 28 59 207 66 255 52 59 41 221 210 215 55 99 132 168 63 91 171 253 67 203 156 28 188 4 76 144 112 119 63 45 167 28 248 72 54 150 109 107 190 195 37 147 233 17 90 127 64 58 1 28 232 99 202 16 219 108 125 197 237 250 79 66 161 123 21 61 192 108 136 215 42 106 156 63 39 173 155 7 51 30 240 123 236 243 164 217 21 55 97 173 92 191 120 62 160 35 62 13 237 130 192 45 249 243 103 198 11 224 38 1 106 119 172 50 35 63 21 165 2 88 168 249 225 169 253 159 125 137 161 83 50 219 7 177 189 64 158 85 62 118 60 59 246 69 196 23 88 213 143 255 122 160 65 9 117 247 168 106 254 118 61 90 216 34 59 252 13 5 14 115 200 100 156 195 107 128 42 105 180 181 130 119 101 64 181 218 110 161 155 177 41 155 185 179 187 82 59 207 89 3 176 67 56 111 237 137 137
30 110 246 255 240 157 10 0 103 122 42 45 27 117 186 254 171 103 98 122 218 88 38 82 14 201 150 129 98 5 90 16 117 20 198 101 128 108 162 36 67 209 44 153 109 155 22 163 169 25 147 174 191 201 125 2 145 237 95 45 159 252 201 67 94 114 43 133 85 64 254 209 198 6 135 206 172 128 213 118 177 86 80 56 16 0 140 39 105 192 185 148 41 198 18 68 5 130 236 152 154 16 194 80 230 53 152 10 72 112 230 213 206 54 164 153 192 59 11 7 35 87 74 71 180 87 162 107 154 127 144 126 38 253 213 211 215 187 73 190 66 133 117 75 160 52 184 18 124 70 253 199 243 39 4 175 12 241 230 92 77 184 53 211 161 19 198 67 107 102 219 114 111 72 217 242 197 215 70 55 2 220 67 14 190 109 77 105 166 72 167 184 87 253 201 38 220 40 96 106 239 131 66 199 7 98 241 26 44 4 17 35 70 254 34 151 236 105 82 244 27 75 48 76 96 45 159 70 56 240 102 228 39 50 38 186 50 167 217 0 77 157 237 57 45 36 169 10 240 28 14 160 216 109 169 93 210 195 182 98 119 106 151 3 120 147 115 110 243 118 255 9 217 156 193 133 179 175 206 155 152 117 142 229 209 127 191 208 157 219 75 32 106 103 78 104 221 107 47 140
42 158 23 133 67 164 156 192 243 152 39 80 157 77 190 193 226 113 120 88 136 209 200 224 225 170 22 219 72 169 233 146 157 55 143 119 120 88 166 96 252 42 185 123 92 73 188 69 242 241 149 84 196 83 101 216 133 229 185 85 135 142 185 161 59 38 22 82 104 233 224 121 210 151 30 98 140 170 144 76 101 231 144 226 14 181 114 1 91 138 126 178 131 88 105 9 251 50 29 172 78 54 167 2 66 4 84 172 184 10 201 201 77 196 150 51 250 43 24 115 140 55 155 190 105 227 1 43 136 244 25 47 235 24 1 131 224 128 116 161 250 159 143 34 112 76 27 220 192 63 233 254 197 20 116 253 111 93 161 243 94 194 153 8 94 119 172 95 133 124 176 189 174 144 206 43 90 64 114 58 234 64 187 209 1 197 223 5 183 145 27 101 9 47 160 1 190 198 231 247 195 226 130 222 131 207 179 125 233 87 44 209 203 137 96 147 61 127 47 250 34 206 155 107 111 32 215 23 116 132 181 221 199 203 45 23 127 188 66 58 141 93 70 116 122 130 16 177 129 39 255 83 79 170 123 133 230 46 132 41 251 144 205 30 191 168 229 14 53 222 109 30 93 159 196 77 253 188 112 68 38 93 12 218 227 42 73 96 34 96 138 176 206 174 91 196 29 82 30 78
45 206 67 72 223 33 102 8 196 237 32 129 77 14 235 42 210 188 207 195 239 97 42 176 224 227 203 49 229 95 115 90 102 49 128 250 112 198 126 106 176 186 119 152 234 44 23 236 159 58 37 150 217 186 216 20 50 89 194 171 8 10 167 214 191 53 200 76 189 97 102 102 210 174 212 128 8 35 165 141 59 24 199 76 61 200 75 89 16 112 27 184 237 149 129 133 86 27 226 239 239 19 231 162 223 72 186 49 7 32 90 37 59 151 240 57 237 149 226 226 247 192 214 109 224 123 63 135 22 58 86 86 187 42 219 88 207 239 62 230 178 179 165 212 57 187 45 111 134 19 246 29 240 117 52 192 140 21 193 10 126 251 89 103 127 69 31 183 171 9 138 162 115 220 61 219 119 206 81 147 75 113 221 172 171 80 52 132 28 238 119 65 113 126 9 3 223 174 64 147 103 20 43 33 209 40 26 190 248 249 19 189 77 1 25 140 239 11 247 35 101 231 23 54 35 59 184 239 41 179 115 51 128 244 56 152 29 190 105 89 190 67 253 36 105 111 62 101 129 194 198 17 174 64 221 206 22 170 52 20 23 154 121 249 125 148 255 240 56 241 121 50 210 17 84 241 60 225 176 144 92 97 246 101 15 63 3 129 214 247 207 203 199 184 177 38 66 76 95 154
169 231 186 146 141 205 199 18 201 61 157 131 60 246 154 29 194 87 120 1 196 40 197 65 211 58 247 42 33 155 72 91 220 186 111 129 157 19 236 154 84 116 42 144 126 248 47 191 6 96 227 137 181 40 143 67 153 16 10 166 168 237 240 243 230 231 107 195 13 166 43 171 208 153 107 241 241 230 233 212 155 209 85 78 174 138 36 120 146 35 135 185 200 239 121 82 159 42 70 162 140 153 104 139 120 104 12 74 62 209 244 211 199 204 106 16 130 72 229 212 122 114 115 75 246 162 71 177 239 89 175 149 179 181 223 184 125 97 145 243 20 51 49 235 121 20 80 61 199 103 97 35 200 76 150 90 25 7 69 107 185 200 226 199 110 14 241 19 178 138 220 58 222 8 92 104 130 72 119 73 82 235 134 67 205 118 151 111 75 74 28 12 115 9 247 48 113 187 49 178 90 228 158 229 19 79 58 133 202 0 251 169 99 71 117 16 117 66 49 186 226 227 212 98 213 92 243 124 218 228 214 233 87 75 108 8 127 1 110 12 239 35 15 158 179 20 139 67 185 47 207 36 68 157 146 222 125 227 153 220 180 61 86 149 88 216 103 184 40 124 1 189 7 113 59 182 9 51 6 227 109 66 119 137 191 224 168 97 15 29 203 159 104 1 233 15 77 189 93 84
241 191 123 7 216 168 148 119 119 247 105 73 16 89 108 84 232 18 21 76 120 60 225 63 119 50 243 145 40 137 162 168 190 5 207 196 14 50 237 195 106 242 252 29 73 10 111 156 244 165 183 141 111 50 208 68 223 114 60 7 34 8 215 72 248 13 177 206 164 188 81 191 233 88 229 24 43 139 205 188 114 174 181 87 134 78 123 202 44 76 16 120 22 48 212 20 40 47 229 126 144 166 168 95 14 23 179 1 132 176 148 145 246 130 95 84 252 135 255 228 240 129 173 214 134 59 6 117 57 228 162 214 45 139 220 219 90 95 135 143 252 70 67 151 18 154 218 63 129 39 240 171 149 218 75 174 27 111 237 218 73 189 138 172 10 214 104 190 183 205 253 254 87 19 68 247 41 78 145 155 78 217 2 11 179 134 8 131 30 20 146 145 244 205 232 58 147 81 254 68 54 177 53 178 67 214 204 200 24 116 218 145 50 251 7 129 207 223 167 27 112 5 249 241 156 19 224 107 68 201 11 76 224 117 20 164 140 160 191 183 54 142 40 45 211 42 66 242 1 137 85 167 255 145 227 218 226 193 106 127 25 47 31 208 35 183 231 70 239 254 96 102 95 80 217 93 61 23 246 206 223 52 88 176 62 141 16 69 62 241 130 22 227 82 192 176 81 7 161 169
0 30 40 235 152 72 32 60 148 145 195 225 10 91 202 138 43 183 101 127 219 107 93 163 79 107 244 173 0 56 142 189 159 44 2 235 182 148 92 7 176 229 181 43 223 160 42 157 53 226 2 142 248 156 91 75 235 51 150 75 149 185 163 27 230 203 67 152 196 6 7 53 87 225 17 141 140 161 166 203 14 159 194 231 255 121 176 194 228 175 159 47 76 76 55 206 247 91 57 57 103 87 77 131 80 70 228 115 239 184 209 173 188 128 110 90 181 171 217 179 179 88 152 107 26 153 4 249 165 102 127 173 57 206 77 204 111 232 252 96 215 202 189 191 217 19 59 33 42 125 54 9 49 88 196 173 46 191 108 62 152 82 64 231 112 254 16 138 239 198 199 131 2 57 225 149 249 190 115 1 255 90 5 0 205 2 114 51 169 106 12 101 158 98 100 192 91 171 7 52 159 110 140 132 237 77 50 12 148 15 36 31 184 231 128 55 253 73 25 137 54 140 74 44 109 158 243 89 145 44 31 234 163 24 22 57 78 114 87 111 191 168 106 7 147 232 65 105 37 134 92 22 58 219 206 127 112 78 106 156 158 131 122 34 227 74 11 234 154 63 71 248 44 83 6 9 220 232 227 38 216 19 185 106 15 161 175 2 234 98 99 75 157 233 202 117 9 139 204 141
56 219 192 109 230 25 104 106 93 86 156 53 91 179 3 77 188 169 33 108 153 122 19 211 169 12 53 132 78 9 16 50 207 135 29 120 96 152 183 193 2 240 181 112 104 74 21 1 68 168 202 18 68 114 152 150 80 142 91 27 241 113 95 164 54 37 117 133 176 69 175 235 15 88 222 123 38 200 24 225 6 70 176 116 24 66 248 223 239 178 20 81 130 229 131 125 142 3 161 151 73 48 138 235 228 222 58 150 170 218 159 29 98 91 132 224 177 30 124 37 84 10 187 69 61 244 16 232 251 184 167 150 165 63 215 238 4 81 127 251 166 232 73 129 165 242 80 168 217 90 167 38 164 196 216 245 103 51 104 199 195 65 249 255 35 199 156 196 252 104 221 37 30 7 160 159 97 199 5 136 47 228 174 143 142 187 62 6 157 23 83 204 91 92 223 207 124 197 91 216 172 161 189 56 197 37 57 221 121 8 243 162 40 33 143 13 65 163 17 170 87 108 211 228 187 160 130 124 3 38 145 221 40 39 51 118 161 18 104 182 125 115 106 238 46 28 29 180 236 191 22 229 177 187 204 38 102 8 206 44 53 177 182 200 125 178 172 98 159 78 231 168 215 70 19 224 126 123 6 32 73 33 120 176 218 192 241 226 152 81 234 194 58 177 23 135 56 70 228 100
147 6 47 21 185 41 112 127 199 228 39 160 117 67 227 232 147 207 71 121 183 114 245 221 175 108 73 253 51 17 77 8 13 192 189 149 145 152 32 101 191 144 145 108 134 67 70 205 211 107 45 96 148 249 52 214 192 28 214 84 59 103 205 24 202 155 7 232 27 81 196 145 225 182 214 83 176 196 213 189 25 204 160 65 85 71 226 20 43 102 213 141 127 42 157 183 139 186 92 211 125 132 189 19 248 129 82 224 2 105 219 198 21 94 148 116 170 178 182 101 217 182 201 93 60 132 148 214 25 152 131 169 209 1 181 5 128 157 253 35 88 100 173 168 134 137 164 30 59 30 255 152 36 85 25 185 92 150 24 179 104 25 98 145 44 98 24 20 224 179 198 82 243 127 88 170 217 66 113 255 171 155 156 41 136 51 144 110 72 105 96 248 101 25 65 178 71 60 16 129 184 183 96 217 239 87 0 64 210 80 41 25 60 249 74 106 178 157 192 190 232 157 62 220 63 203 177 123 26 134 34 44 64 106 24 113 220 37 21 200 170 57 214 20 224 61 194 27 50 120 66 157 169 229 44 163 62 169 5 168 0 29 31 187 199 60 248 222 146 220 232 137 115 67 173 195 110 136 8 22 251 205 245 234 143 187 96 215 64 55 155 137 109 142 251 11 204 183 193 9
228 217 5 29 248 202 158 158 154 91 145 130 216 248 181 129 156 196 202 68 174 135 53 213 43 43 213 210 196 253 167 52 112 64 38 104 107 4 70 115 14 89 233 162 103 78 11 96 85 87 97 26 68 23 24 206 246 84 12 183 8 219 209 109 88 136 165 160 168 245 135 245 26 223 21 199 27 63 56 29 55 66 79 234 144 182 157 68 122 87 150 77 227 226 223 26 56 70 116 166 148 220 35 206 136 217 189 76 83 240 184 118 133 91 253 125 132 206 60 59 115 190 203 39 249 118 192 117 152 38 158 103 176 152 90 123 246 5 161 175 143 133 82 52 184 218 154 220 210 101 110 87 43 65 2 62 190 229 12 245 32 219 145 50 44 246 20 174 124 229 167 17 12 176 192 90 166 146 12 152 166 85 182 174 31 244 148 136 168 118 252 131 123 168 103 109 18 149 41 64 92 184 203 72 140 19 181 231 67 148 25 131 99 52 245 49 241 211 226 28 15 100 33 144 254 100 216 159 220 214 6 140 17 82 169 158 199 104 73 249 114 238 108 84 19 81 151 73 46 115 2 10 140 77 33 177 139 40 219 150 247 46 151 33 179 193 223 152 71 187 143 49 72 4 88 101 40 142 216 30 62 197 117 34 143 177 170 146 115 202 240 172 254 45 255 105 73 161 135 135
230 15 205 79 8 30 199 211 214 68 85 107 48 76 173 70 17 218 249 150 179 40 203 148 149 215 168 94 221 65 105 115 152 180 113 246 36 141 232 213 70 227 85 234 5 177 24 41 105 134 27 180 146 45 147 183 155 210 94 129 52 92 195 46 216 55 28 106 239 88 3 83 154 59 237 233 131 127 47 208 54 216 57 44 2 97 184 230 179 244 134 211 204 97 85 128 19 237 201 45 154 82 106 166 232 32 5 76 29 211 163 163 18 239 123 216 86 180 165 149 111 108 189 54 45 195 138 178 78 85 150 78 180 126 11 92 170 145 235 23 243 16 129 184 152 223 73 139 36 82 250 226 22 113 141 104 206 8 58 42 226 211 96 152 27 182 192 208 143 53 193 255 81 200 95 159 149 39 227 18 167 65 163 135 158 123 68 131 38 171 89 51 74 227 205 50 50 156 74 147 141 110 102 148 79 245 102 2 209 64 122 51 208 197 189 71 195 49 102 227 199 206 159 167 121 126 99 74 94 69 1 95 101 144 195 162 75 8 82 149 253 77 192 0 44 246 110 94 170 33 166 52 154 145 237 124 166 121 227 224 125 172 45 6 207 221 36 194 70 61 161 125 241 182 74 111 143 253 146 212 124 120 245 34 175 223 115 197 200 210 156 115 218 239 5 238 19 22 221 148
2 206 225 201 88 248 154 154 237 143 156 16 101 233 40 174 138 166 188 232 251 171 157 212 1 220 35 189 3 19 79 255 246 111 225 8 39 217 230 92 4 200 19 121 40 125 54 238 215 33 2 182 4 101 67 49 199 14 104 128 198 190 118 151 102 41 243 60 97 153 93 39 159 189 69 52 166 44 0 190 36 145 80 171 215 78 18 170 170 210 113 205 83 230 31 4 123 239 225 248 43 209 245 60 163 199 215 189 100 116 246 92 219 110 250 13 28 11 88 157 24 181 12 117 176 228 7 44 93 240 61 98 166 6 24 130 142 184 59 60 219 244 65 211 92 4 61 185 213 97 8 0 169 153 69 170 77 231 220 104 72 18 20 200 9 135 171 83 204 5 77 212 214 195 62 46 250 190 250 96 67 71 92 8 148 247 94 180 114 143 36 220 42 194 196 14 84 102 99 94 232 113 128 26 146 100 36 56 156 96 124 71 196 138 231 129 108 127 159 233 110 64 64 99 15 107 235 43 70 250 62 202 190 98 153 130 161 208 189 14 130 24 117 129 150 202 161 13 101 129 82 115 162 34 95 97 75 223 70 199 91 157 22 168 37 196 204 53 242 71 193 252 75 25 85 171 59 49 52 60 232 151 147 136 6 251 238 34 215 246 155 203 156 70 49 227 55 218 27 112
192 185 62 34 86 20 73 49 160 249 209 142 176 222 191 164 152 186 210 149 198 47 179 48 180 43 20 155 140 31 105 92 34 5 101 122 46 144 213 105 85 68 7 25 178 207 208 39 212 0 12 217 170 222 99 223 236 197 161 155 103 152 152 147 158 137 185 52 254 162 45 197 26 167 63 126 13 147 243 212 58 149 127 250 175 130 90 124 107 229 35 235 36 235 28 138 37 122 187 101 62 7 198 148 34 75 162 234 79 1 228 53 41 34 54 156 31 136 186 24 109 245 79 232 155 35 204 118 136 53 222 187 174 216 247 211 234 242 240 132 131 36 13 47 113 5 118 8 230 44 27 14 207 176 164 83 20 113 35 167 119 102 44 143 178 217 50 152 238 96 235 95 46 236 190 94 157 148 186 135 37 12 204 167 163 53 131 16 30 66 175 132 38 6 187 215 111 239 21 114 133 104 22 80 141 204 214 245 51 58 54 46 124 120 170 95 118 92 28 45 9 85 43 181 136 153 117 56 240 235 4 210 217 46 152 104 195 27 10 92 242 236 90 106 221 178 237 228 82 40 143 167 113 40 65 131 174 220 253 160 122 17 186 50 191 4 15 50 186 57 171 168 40 245 117 23 122 206 225 199 94 122 50 87 99 119 210 253 83 150 102 105 193 166 174 51 151 53 93 38
35 67 131 40 194 191 133 152 155 113 69 239 64 91 95 212 34 16 109 35 154 200 207 63 248 233 219 125 80 216 132 234 33 169 47 226 148 203 103 15 131 244 55 81 191 50 200 242 140 145 144 149 82 191 169 212 4 197 125 139 158 15 198 182 159 196 104 68 141 254 182 15 83 227 245 244 218 73 159 149 249 138 55 134 216 36 226 107 242 127 243 113 120 148 37 106 147 148 154 169 194 40 98 238 51 44 252 36 192 208 111 39 75 97 133 32 106 71 28 89 70 56 161 99 62 216 253 240 182 159 96 207 51 249 219 23 104 119 229 99 81 128 42 173 10 246 65 2 12 194 42 40 122 161 249 247 107 153 82 115 65 117 144 167 65 107 188 189 172 233 230 176 50 122 129 107 219 34 31 3 193 1 236 21 70 75 182 11 138 156 142 234 166 192 57 226 24 52 208 124 4 231 59 109 88 21 95 24 197 111 78 133 255 163 120 49 168 113 129 215 166 48 135 4 114 172 79 249 38 76 135 236 25 184 124 172 208 82 219 206 66 62 150 88 82 111 139 162 65 4 81 116 75 100 77 99 31 28 143 243 97 233 182 35 50 73 173 53 202 228 114 197 84 204 146 204 10 142 112 196 211 167 77 88 227 97 153 13 144 50 160 221 171 22 211 210 175 141 145 64
92 209 220 172 81 201 179 57 210 54 94 209 42 120 97 208 8 187 250 130 145 58 76 215 171 81 93 49 99 125 32 76 188 149 242 145 5 192 248 10 191 245 145 204 200 24 68 35 2 50 162 170 32 40 187 92 195 133 169 180 9 15 177 59 176 188 242 50 70 95 222 227 18 248 100 18 58 2 229 11 157 34 170 168 2 10 225 107 63 43 55 50 220 98 218 247 128 30 194 85 145 161 136 39 33 244 22 25 58 252 17 171 3 129 159 194 151 110 54 10 101 12 254 178 19 16 242 81 88 86 108 234 43 233 140 178 55 140 200 138 126 85 55 248 168 110 200 44 105 184 208 140 200 44 128 149 22 166 19 123 241 166 46 157 148 185 166 180 243 66 117 0 26 232 103 20 144 93 73 181 220 36 36 232 75 3 118 37 196 253 198 174 172 38 44 39 62 193 218 218 33 191 228 159 62 228 19 115 132 154 73 233 193 65 232 242 46 20 181 236 227 174 50 126 227 224 7 62 56 104 8 238 16 187 50 213 255 164 179 88 85 92 213 0 6 218 187 115 14 133 216 171 250 156 12 188 202 97 212 15 99 142 119 250 235 176 214 180 96 225 244 33 153 26 163 191 123 5 247 5 211 223 165 51 146 36 131 140 173 101 79 23 135 80 218 7 132 255 252 255
252 47 252 41 44 193 60 77 119 184 231 138 110 166 45 66 214 166 91 119 184 230 105 186 185 147 235 235 152 212 99 93 169 52 172 202 96 105 125 90 70 149 136 53 77 102 231 134 201 101 171 130 247 250 44 223 6 63 74 160 109 224 136 136 224 11 102 76 89 78 84 153 12 253 235 62 179 127 23 43 107 125 253 20 63 203 207 43 198 86 179 20 68 141 216 234 71 17 61 28 141 210 174 198 88 247 16 56 48 181 234 211 92 248 211 144 112 102 145 131 247 55 90 158 142 236 123 212 107 182 123 242 88 229 248 213 176 156 134 113 196 13 156 110 253 182 228 204 115 73 179 255 139 87 58 23 183 138 239 87 205 33 215 112 62 28 167 94 22 26 148 221 172 165 25 55 143 213 48 2 46 102 24 33 180 188 166 83 132 93 31 217 71 69 113 0 43 102 238 192 177 60 84 246 243 250 104 177 187 230 131 92 114 128 131 136 63 61 160 87 106 0 76 75 184 139 76 112 60 5 231 91 48 186 65 153 87 55 109 64 87 72 148 162 215 32 235 227 233 7 9 162 161 77 96 193 151 139 113 90 117 89 21 196 1 55 188 72 66 148 5 110 98 136 88 169 250 82 4 223 243 185 73 133 237 88 86 74 124 46 150 45 62 67 24 100 87 234 105 75
164 72 197 37 69 197 12 166 48 118 62 55 56 64 25 97 116 8 232 160 232 59 167 3 94 225 254 219 39 115 56 98 39 13 152 139 222 230 48 130 114 161 115 90 170 128 216 237 249 128 40 131 157 133 75 140 162 78 25 154 11 97 195 46 92 4 236 26 69 252 252 6 218 10 206 153 101 18 191 236 166 203 220 29 111 254 49 75 189 235 28 87 41 221 154 254 181 190 45 140 171 129 225 15 195 139 151 125 163 145 80 220 172 211 178 9 104 178 206 160 67 17 35 63 88 152 251 100 38 173 49 123 0 241 4 251 68 229 83 92 214 81 185 109 218 189 124 208 162 8 39 127 35 85 97 251 192 57 130 24 82 229 192 221 36 242 138 150 64 12 230 24 249 129 81 169 109 105 235 189 166 11 127 161 244 204 136 92 21 54 168 83 54 248 35 65 148 16 139 205 172 79 8 49 175 84 169 128 127 14 95 181 29 90 55 151 122 84 83 156 57 133 162 169 112 102 190 48 128 30 31 74 20 56 93 182 241 202 152 87 142 187 212 61 68 100 70 221 52 107 226 181 155 146 254 221 81 121 37 188 23 109 143 208 133 232 94 248 166 36 80 250 183 26 37 0 62 109 62 151 58 140 245 227 179 247 15 96 160 234 45 89 95 15 218 124 149 220 152 89
210 164 168 183 95 217 51 133 253 153 241 174 58 86 229 123 170 70 244 251 107 185 149 19 21 203 187 41 130 161 149 89 2 79 196 35 50 156 199 160 29 136 246 90 124 236 126 181 166 16 158 78 217 42 190 222 228 8 190 6 201 239 12 255 97 48 136 21 231 240 17 27 1 192 87 152 97 136 73 193 162 197 195 130 92 248 145 124 51 246 70 0 117 195 236 56 183 174 249 33 166 111 19 1 20 5 237 31 16 237 12 181 95 3 235 10 167 102 18 168 29 119 240 210 243 8 42 23 163 132 231 6 127 66 188 249 97 243 125 93 174 7 175 144 224 203 199 44 144 32 192 31 157 101 240 119 122 216 1 95 136 152 81 97 220 203 110 18 2 186 203 41 64 43 32 243 166 150 11 126 189 3 48 108 151 103 178 130 95 108 38 25 89 102 98 175 69 252 11 124 142 122 235 150 119 77 49 185 214 143 59 211 96 54 241 232 85 185 12 39 131 125 254 78 193 197 57 8 8 60 68 55 32 25 120 133 142 182 131 171 101 34 198 100 138 193 121 131 115 191 61 56 210 162 110 80 76 139 220 213 236 191 190 13 222 168 213 105 51 203 114 6 248 187 45 55 199 210 225 61 203 111 98 82 217 249 217 16 19 195 25 87 18 87 49 118 90 27 185 246
250 22 33 170 115 6 114 239 24 139 49 145 68 133 45 51 173 111 172 225 183 5 161 64 4 163 236 110 136 81 173 25 69 2 133 148 244 37 46 101 79 239 7 50 196 7 230 40 5 64 252 86 89 102 85 103 64 20 218 220 95 2 221 171 65 35 53 215 245 5 69 1 216 180 152 5 14 157 246 114 201 131 109 163 145 94 217 175 178 42 218 207 199 34 21 247 25 82 207 149 240 114 73 219 97 8 77 183 83 242 14 144 11 131 207 29 178 68 204 249 138 9 208 18 251 55 177 99 35 122 135 163 203 105 192 18 129 11 187 175 175 12 94 171 126 94 139 35 48 5 209 227 51 196 194 239 184 13 190 23 155 104 115 123 5 154 186 101 252 135 107 187 220 128 76 8 228 194 178 102 156 84 157 52 65 176 127 152 159 140 38 162 152 224 10 25 246 186 42 183 68 23 241 240 246 135 192 235 87 44 39 25 148 42 228 0 35 154 87 33 242 131 232 230 235 114 72 233 131 29 168 32 133 226 236 36 85 122 184 153 54 215 123 18 212 157 235 15 148 34 199 73 200 248 33 31 29 158 245 37 253 152 146 209 253 75 191 238 95 59 217 21 239 175 30 154 240 11 225 78 223 142 116 235 220 159 107 102 192 92 116 224 243 67 254 249 165 37 239 182
102 202 57 121 210 210 3 188 221 221 100 240 98 162 169 189 118 83 149 126 205 208 119 123 76 153 251 70 139 103 218 180 147 23 162 134 5 8 214 104 7 129 39 198 164 114 232 162 218 102 96 124 42 46 18 35 211 44 59 84 163 101 78 3 142 91 81 212 213 144 71 42 3 3 221 197 145 26 10 195 199 188 96 121 70 111 208 180 129 248 31 231 87 167 96 33 228 33 94 67 71 35 189 188 67 140 251 27 215 128 120 230 8 188 82 53 40 42 218 225 170 182 18 192 134 94 94 26 11 227 138 76 103 85 143 114 96 122 6 40 189 92 93 142 252 82 30 226 192 221 214 225 85 109 151 137 102 50 242 0 88 228 154 225 15 80 176 86 160 158 232 46 57 179 189 200 96 205 221 158 91 63 83 97 205 183 13 204 253 121 179 153 191 154 68 200 118 163 95 155 143 40 253 29 84 112 96 112 12 101 82 141 36 120 88 191 168 189 148 221 124 243 75 126 174 154 28 9 128 195 57 53 72 0 178 88 224 58 21 106 17 114 175 67 86 252 254 234 225 6 77 249 211 168 170 136 249 50 85 233 46 97 121 176 159 58 42 166 216 74 48 141 38 177 228 46 158 118 169 167 169 245 99 141 14 254 153 229 168 37 107 172 100 45 55 98 34 19 27 108
88 218 197 193 31 169 42 116 166 91 141 227 247 239 77 131 61 224 219 3 13 124 52 128 191 33 123 4 240 23 55 59 209 85 21 247 4 230 90 148 29 215 98 139 95 109 21 92 92 172 57 56 84 233 43 191 144 231 133 72 174 57 93 160 71 52 95 141 28 216 130 185 213 219 124 70 159 1 17 129 142 120 43 25 34 24 202 103 254 12 199 132 122 61 220 222 166 155 208 227 35 38 23 205 99 233 2 24 185 82 79 87 98 76 238 136 80 103 52 187 246 221 59 146 192 34 135 10 226 130 229 233 196 206 24 74 83 183 71 148 138 46 103 223 137 245 240 242 195 232 165 48 19 243 186 117 96 244 15 216 50 35 152 239 170 18 127 95 120 142 212 81 182 95 200 229 48 214 29 156 248 195 85 124 9 240 232 204 51 1 22 111 83 54 198 244 85 200 206 104 255 24 251 234 42 15 193 46 149 54 112 198 60 200 71 232 248 19 63 69 101 122 45 111 62 180 239 17 52 34 106 39 50 247 209 42 4 132 217 152 37 12 46 146 108 186 68 176 78 1 26 58 58 12 92 128 47 21 224 163 183 199 30 90 233 185 165 219 119 166 7 254 236 186 191 175 36 127 44 169 93 150 77 103 176 70 54 239 69 250 226 209 82 222 170 123 40 23 134 74
246 86 74 29 105 183 139 168 146 15 176 212 10 203 70 144 52 4 171 31 207 62 145 126 100 59 71 189 68 197 147 178 142 71 3 75 60 243 158 184 254 210 61 112 157 43 74 250 216 157 36 191 205 115 225 244 219 89 203 219 9 250 77 175 56 9 29 95 181 70 203 89 208 183 241 193 127 3 138 253 198 16 193 252 253 143 161 1 113 214 252 157 253 163 109 77 77 42 78 195 223 9 54 14 136 217 218 43 92 161 99 77 162 239 156 219 166 36 154 218 17 27 39 246 240 236 42 42 38 36 161 185 232 155 254 143 34 147 204 131 19 117 75 236 246 95 62 44 114 224 62 220 135 191 145 45 108 80 70 151 121 126 241 22 235 182 225 76 218 139 4 94 118 28 44 134 167 111 121 195 89 2 113 16 158 130 85 71 210 216 84 33 72 112 207 64 107 33 134 254 78 222 142 14 194 215 166 220 95 160 109 1 114 170 91 27 202 165 187 193 185 238 173 137 224 54 99 64 181 204 18 81 97 148 33 19 160 113 243 109 220 220 159 162 57 172 106 3 76 83 142 246 223 150 163 164 101 13 48 223 23 136 184 160 31 149 242 77 130 199 31 57 248 137 93 15 159 252 100 77 147 92 75 23 175 155 72 56 80 197 237 131 27 5 122 23 66 58 222 223
100 102 97 182 88 220 120 94 171 78 129 230 143 97 195 118 37 148 72 45 132 66 24 113 224 171 175 111 187 115 194 35 193 157 130 217 12 248 209 43 29 18 69 132 113 56 176 19 115 112 75 56 77 84 36 68 44 155 92 215 154 125 141 126 151 127 74 199 227 153 125 133 206 98 214 137 155 37 239 112 245 52 147 235 239 75 89 21 229 54 95 144 74 101 246 57 126 235 168 229 225 4 132 86 156 248 46 14 254 83 228 40 163 60 224 127 187 33 229 104 73 201 21 11 215 182 192 166 136 141 72 175 177 117 246 143 5 230 31 148 137 93 203 235 221 183 143 144 231 90 19 65 163 67 169 8 226 1 254 148 57 31 255 19 150 84 96 15 201 198 23 132 238 216 84 61 212 92 255 84 203 54 101 202 44 125 74 34 98 157 126 127 180 63 16 75 165 204 241 24 136 151 102 46 29 147 81 169 10 203 196 140 14 25 3 243 227 151 19 212 179 31 234 206 161 179 40 82 235 103 36 28 150 57 188 226 163 82 71 24 5 76 59 114 140 242 26 61 157 154 96 14 87 197 224 2 132 133 109 217 162 27 213 113 199 141 7 142 251 118 248 162 189 63 141 116 234 139 162 113 145 223 40 172 34 81 104 54 156 68 116 120 163 70 117 239 92 104 160 203
73 211 169 55 218 254 201 177 18 34 224 242 114 116 172 194 189 163 72 216 69 186 248 17 16 37 0 219 198 117 22 182 159 97 9 246 105 14 218 186 4 100 54 181 73 219 64 10 252 56 77 107 248 238 93 15 24 177 14 233 0 228 75 13 186 23 71 20 39 17 173 43 203 68 178 77 0 81 23 35 25 177 72 165 94 244 92 118 196 169 106 180 8 144 19 130 230 164 100 47 35 238 123 174 221 221 102 25 88 139 194 27 147 139 113 90 132 142 95 154 109 106 79 110 154 248 199 137 0 221 143 15 206 197 126 216 169 164 78 73 58 214 43 41 206 111 241 43 151 14 37 226 15 238 95 247 131 133 64 97 252 150 249 172 203 224 37 233 141 131 78 65 48 236 203 169 164 223 109 61 140 118 184 2 157 110 212 144 109 231 79 72 2 178 93 119 44 245 92 119 122 149 37 68 226 150 164 11 48 198 219 5 27 81 226 213 95 148 5 232 206 124 208 160 131 196 252 237 240 116 129 52 227 73 181 199 131 130 182 33 108 136 223 165 153 133 231 186 153 215 211 203 31 128 46 86 66 130 13 19 215 7 121 163 164 255 87 40 250 109 136 218 131 213 70 0 215 104 149 67 78 104 112 185 185 219 240 151 76 3 88 203 236 240 183 183 8 113 18 23
152 119 207 40 46 187 31 153 66 168 71 130 141 92 134 55 13 225 141 65 164 214 127 155 194 24 105 7 187 121 109 147 204 253 209 166 51 122 197 39 86 197 28 54 193 85 156 201 19 113 127 169 72 71 47 83 64 15 35 124 129 206 167 52 190 231 106 99 96 242 174 86 210 193 132 148 215 23 11 111 88 3 34 47 2 168 92 26 247 9 194 181 2 134 203 4 7 58 32 250 114 206 65 47 60 224 107 59 145 0 106 175 30 34 139 251 64 38 150 107 19 80 15 42 237 3 18 119 63 140 250 207 77 33 244 200 236 211 21 138 56 76 1 221 175 202 63 214 53 28 247 22 163 224 17 34 158 159 238 197 33 140 84 100 183 62 63 117 144 223 131 43 187 127 215 9 116 127 76 87 54 184 29 221 145 194 218 181 41 125 166 113 72 161 21 242 233 14 132 154 167 77 127 164 168 229 25 75 245 166 19 123 198 133 255 110 38 43 213 143 195 216 230 241 61 189 157 82 5 31 126 10 200 200 245 248 142 22 178 254 171 251 160 86 122 96 109 245 32 40 235 242 135 89 209 92 197 83 73 2 75 9 203 88 247 98 56 168 220 241 125 231 95 222 228 17 134 207 163 143 90 59 71 18 109 73 4 70 172 185 255 184 45 3 161 164 145 220 197 132
9 27 78 189 61 6 183 106 20 98 135 218 236 192 11 144 35 3 247 2 88 16 171 151 22 35 190 93 147 74 77 51 205 4 28 65 196 6 218 70 144 119 21 180 41 23 220 91 33 63 241 169 203 105 118 166 67 210 90 65 211 13 73 115 175 9 215 130 178 164 48 244 174 6 53 216 18 131 131 143 204 151 2 115 255 240 145 1 160 181 116 107 144 124 194 248 144 84 53 23 76 111 116 222 215 233 73 99 11 137 246 44 140 253 66 151 123 33 102 249 53 11 74 158 188 98 106 252 124 51 56 128 19 61 60 161 161 127 13 83 136 206 13 218 250 51 92 156 127 123 51 120 110 159 151 38 230 64 154 247 83 24 43 197 79 41 139 19 179 123 234 213 63 22 28 27 74 172 242 88 189 157 52 212 132 99 15 63 65 193 141 114 81 1 77 94 85 39 250 213 173 61 120 136 83 63 145 164 28 94 81 126 134 134 81 175 113 45 69 163 200 246 222 106 33 128 81 126 64 117 18 167 43 151 190 12 59 17 234 253 238 9 152 251 171 184 102 131 81 245 75 190 44 101 44 246 78 59 221 217 142 245 221 210 186 90 3 160 196 91 94 10 212 93 252 218 115 105 31 234 64 224 235 57 123 79 229 95 85 245 61 175 141 57 42 45 219 25 75 209
187 185 233 68 229 7 56 188 216 167 27 172 156 110 204 248 233 67 232 3 43 177 86 123 14 17 206 160 252 234 42 161 96 5 236 227 174 189 218 250 83 84 112 40 159 197 253 28 30 15 117 115 57 200 99 231 1 86 76 81 196 14 178 64 186 62 179 196 16 59 251 16 57 157 252 29 118 159 133 1 98 253 53 102 175 249 66 40 192 105 68 57 136 253 140 190 146 168 62 242 11 189 26 100 63 177 210 232 35 154 92 245 103 192 66 162 89 250 30 2 42 251 111 176 186 232 186 23 2 106 81 255 4 226 111 3 203 125 3 126 243 134 26 216 52 22 161 224 140 244 229 211 186 56 72 251 217 64 100 158 76 131 66 90 235 201 1 194 97 139 241 207 107 69 122 81 218 82 202 212 194 161 20 114 153 196 94 245 192 202 224 177 223 240 23 88 87 112 236 193 101 75 89 22 159 22 174 17 86 253 56 136 57 168 22 93 236 60 134 149 119 232 115 14 207 92 125 190 167 254 139 166 121 55 212 111 36 53 52 235 169 191 1 44 177 132 82 166 123 9 25 236 127 122 234 201 37 110 87 162 219 36 222 93 27 152 217 105 39 145 129 144 54 155 104 138 148 29 180 200 101 137 179 27 75 25 171 139 199 22 238 162 6 255 250 237 10 30 18 32
226 11 158 158 162 230 0 190 170 150 143 156 11 100 48 55 57 57 73 174 37 102 222 117 92 83 58 193 148 167 127 30 83 99 233 120 108 2 70 178 120 40 236 145 101 35 25 234 203 24 157 144 123 54 64 82 85 130 5 108 21 221 8 148 94 0 244 8 227 197 96 109 116 225 227 216 19 59 148 183 11 239 76 33 76 138 104 38 147 112 98 243 253 220 153 91 204 114 2 107 158 100 136 35 90 115 4 18 11 107 131 18 170 93 13 9 102 128 168 221 202 10 175 96 83 249 249 12 199 60 157 235 110 100 82 98 95 58 39 212 178 164 164 205 224 41 173 237 67 97 219 186 4 118 15 180 219 194 51 52 250 51 38 184 124 34 194 138 80 79 107 1 210 240 194 171 133 42 171 250 123 26 124 215 142 186 36 180 160 171 19 204 164 86 60 78 97 39 226 70 168 39 52 168 73 197 230 156 199 150 34 38 236 249 201 248 182 157 174 101 179 167 62 112 2 42 216 9 63 85 122 59 18 22 194 95 239 217 43 246 46 226 210 214 187 160 28 80 216 249 140 236 26 238 30 24 78 81 53 213 15 246 117 100 89 131 48 100 6 212 119 192 222 36 170 68 90 136 245 125 98 3 201 5 181 88 191 241 154 224 109 175 94 213 9 53 166 180 163 214
88 130 230 212 239 56 121 195 195 84 58 199 205 211 84 36 168 157 57 11 3 69 232 92 76 43 208 114 106 86 107 225 229 4 134 186 48 102 158 185 0 17 145 156 173 92 84 167 8 134 137 204 73 200 159 137 21 43 104 139 121 148 27 46 228 27 240 18 216 195 158 155 196 126 48 133 103 17 174 97 78 84 211 28 47 201 225 223 66 204 246 54 228 61 137 146 76 238 61 55 27 92 117 56 206 121 191 148 231 88 180 252 179 106 172 213 229 126 71 122 202 207 16 69 95 185 135 45 101 230 21 205 217 31 187 109 182 17 177 37 99 128 251 222 3 237 112 134 230 238 3 57 102 254 71 236 236 0 117 63 217 26 165 229 111 104 231 83 79 10 184 59 142 33 209 162 8 147 111 174 144 234 106 187 134 193 235 81 251 77 219 166 55 13 251 131 164 176 135 66 106 97 47 134 41 201 115 30 32 68 153 123 245 58 224 216 94 56 6 125 52 82 234 99 147 102 220 16 38 214 140 152 230 1 189 69 186 135 37 52 65 35 79 29 63 18 204 79 49 148 14 138 181 161 19 48 29 86 244 242 79 17 73 201 206 203 95 98 88 56 228 103 214 203 12 22 245 193 74 167 52 173 18 96 91 180 237 88 58 76 219 221 251 253 228 112 43 190 113 212
232 82 6 220 0 28 166 38 156 1 82 72 74 252 182 206 125 252 199 170 39 46 167 100 172 18 74 162 26 183 210 199 50 241 109 152 142 234 94 253 51 87 17 54 184 109 134 210 143 51 247 203 158 64 13 37 43 170 84 254 66 132 81 131 140 244 82 0 253 154 77 115 82 104 44 0 234 57 69 207 68 2 7 26 87 51 165 246 88 40 223 52 145 199 226 139 117 158 70 208 213 174 176 65 131 246 97 173 109 236 230 95 69 242 6 225 71 222 238 171 18 200 161 132 197 140 244 72 15 251 213 167 195 19 64 62 27 208 204 253 223 142 140 63 137 85 180 154 46 211 162 45 37 139 1 151 148 235 137 248 169 76 114 220 157 252 163 63 65 16 70 16 214 174 157 110 44 214 246 162 51 185 201 158 244 127 161 118 1 204 212 17 101 43 200 152 208 74 115 103 209 88 19 201 39 66 222 92 182 216 98 10 229 109 34 23 244 147 161 203 190 110 12 229 182 70 170 45 2 2 31 195 251 19 135 183 187 2 36 59 9 48 73 50 60 105 192 11 168 54 29 220 229 23 250 59 145 77 77 240 231 68 6 7 35 54 131 188 126 244 64 118 149 120 218 129 80 88 93 255 238 166 235 119 107 6 113 92 156 26 126 94 107 240 70 31 95 54 183 50
154 217 106 255 139 136 23 146 10 173 144 24 50 250 13 178 232 248 153 141 105 161 200 57 240 197 122 107 118 211 43 162 125 252 77 47 143 32 147 197 74 88 164 187 101 117 253 103 215 60 118 92 223 4 48 114 161 138 194 226 22 36 250 63 89 97 159 64 249 55 177 129 89 7 39 133 251 90 15 211 99 240 82 191 125 150 16 226 65 3 191 42 82 240 137 187 104 204 33 29 53 17 242 119 211 77 143 65 15 237 169 109 188 189 13 75 93 15 69 96 162 165 238 42 57 17 51 133 238 119 99 7 191 188 31 28 14 225 139 223 101 106 170 83 26 62 216 213 24 194 189 170 8 156 102 134 246 12 6 217 88 88 201 104 89 151 14 113 158 106 210 140 41 125 97 175 227 184 158 161 244 19 253 160 236 255 115 105 101 236 172 252 145 124 105 194 203 70 110 125 225 233 85 123 37 31 21 220 86 11 130 193 61 228 7 172 179 131 200 14 76 219 212 28 2 82 226 162 170 71 40 107 125 154 214 11 56 170 65 49 215 253 39 230 210 14 81 163 250 109 7 252 223 74 192 193 128 207 239 230 78 239 57 159 216 172 252 201 242 239 89 12 244 153 213 231 17 127 44 227 60 193 131 15 207 237 57 42 17 40 126 79 129 232 209 96 168 86 179 216
178 122 104 188 228 86 136 127 33 129 49 51 186 219 44 74 2 109 2 31 86 148 157 13 88 124 188 195 116 2 48 230 160 114 157 181 202 188 73 206 166 85 188 214 192 60 58 213 156 164 220 151 217 1 115 187 203 244 150 231 197 6 125 147 146 36 17 1 2 202 96 47 255 82 191 243 58 135 73 226 142 150 2 49 17 34 251 80 226 236 212 51 192 149 55 199 107 77 6 117 175 37 58 177 132 180 171 0 227 67 110 18 74 74 112 116 122 234 193 36 187 93 97 189 106 155 251 21 183 50 219 77 57 226 90 49 117 213 16 71 88 21 224 165 107 109 122 241 160 67 89 165 237 170 216 14 39 238 187 104 194 64 187 54 21 77 217 235 0 139 164 224 99 192 251 127 109 230 85 36 80 152 70 238 76 226 21 190 145 171 45 173 136 225 209 235 150 141 108 205 119 155 170 43 146 165 125 52 230 27 201 225 218 234 42 225 216 210 179 46 195 15 74 161 160 240 131 211 10 113 228 94 2 176 89 221 85 155 244 217 128 96 237 100 245 126 210 18 120 13 122 27 188 191 12 129 242 136 223 137 205 98 59 200 98 10 99 145 154 170 124 226 80 73 142 153 230 153 229 115 154 118 66 111 31 214 47 188 234 103 59 196 121 135 55 61 94 95 41 130
70 80 8 180 224 41 192 79 164 106 8 17 2 144 187 93 135 127 63 186 174 1 82 180 245 232 83 27 62 217 43 194 156 43 192 63 109 234 181 152 128 171 119 255 149 240 151 181 227 25 209 202 193 187 237 134 55 34 134 64 32 214 8 172 238 132 9 237 192 50 25 185 214 185 10 132 17 52 104 104 92 34 128 26 62 254 100 85 207 218 70 150 172 253 234 96 83 195 232 252 25 8 253 42 142 182 93 158 119 141 248 78 7 59 158 238 243 7 102 40 26 126 143 201 23 217 209 143 46 191 38 210 2 182 188 31 70 161 60 182 157 42 69 5 82 250 92 44 158 224 66 35 130 102 107 177 72 149 244 134 46 124 12 242 183 89 90 181 121 178 171 126 61 93 201 23 143 55 245 224 123 45 179 4 48 173 101 195 136 186 242 48 103 156 96 125 143 18 149 8 124 239 33 187 119 137 225 5 149 180 43 56 8 184 252 221 113 170 173 208 147 106 40 197 38 170 151 139 114 246 36 161 148 172 147 27 21 174 150 74 238 253 119 20 61 163 52 109 173 19 66 106 123 197 254 33 72 240 105 29 237 164 81 9 136 166 194 73 64 244 19 136 243 8 43 143 52 19 33 2 170 30 99 211 168 59 38 80 62 135 152 121 64 126 224 14 10 16 181 70
144 216 251 198 223 81 245 117 94 123 202 186 116 184 204 217 170 103 218 206 154 18 165 91 156 158 100 54 117 16 18 255 24 6 83 32 198 120 224 196 147 43 101 234 245 203 81 89 133 156 23 212 222 168 34 202 61 241 49 41 211 153 186 238 49 224 38 198 62 58 175 27 248 2 176 231 48 237 198 179 196 25 54 21 103 61 179 156 140 142 198 47 187 204 250 45 145 78 8 14 130 255 38 43 233 24 166 198 208 41 37 8 186 163 95 93 86 62 68 3 64 62 75 138 199 141 119 206 180 129 2 209 65 186 129 168 41 134 4 146 6 9 55 53 214 94 9 255 19 1 120 159 111 209 169 148 9 86 97 88 83 70 96 64 238 61 192 168 28 31 103 40 170 154 221 29 203 75 236 173 59 87 15 3 204 166 39 93 19 42 12 5 244 204 98 254 231 90 96 173 83 70 133 24 250 61 50 128 174 190 19 168 123 236 187 1 74 228 182 240 192 18 136 142 56 12 25 33 194 49 199 188 102 152 160 36 43 225 186 51 97 63 238 182 38 194 185 142 13 250 126 126 225 226 105 204 18 136 91 158 57 158 232 192 25 245 238 114 222 82 35 254 210 33 195 251 119 174 128 168 50 123 181 125 177 131 29 238 103 29 214 202 42 122 108 218 153 124 148 181
174 101 27 207 247 42 29 42 139 80 112 121 57 229 73 91 240 101 28 74 59 43 113 195 79 170 80 35 138 226 158 102 148 6 17 113 184 53 108 234 140 251 24 94 166 136 89 13 94 42 82 0 186 72 219 115 166 201 189 187 183 170 47 191 90 156 54 252 100 60 73 87 36 241 209 68 16 122 212 194 76 249 5 20 241 5 131 102 67 227 243 34 242 187 196 204 89 198 19 236 192 146 19 49 194 16 246 174 83 138 76 109 115 23 26 238 92 103 215 97 162 117 164 185 5 141 143 177 98 234 143 78 200 60 86 193 113 211 221 93 119 131 239 243 0 13 110 84 46 65 236 188 137 20 164 79 57 196 30 54 25 182 109 25 221 199 149 106 201 90 36 118 125 144 168 127 127 91 207 83 182 226 90 123 213 23 235 61 97 248 216 202 5 168 107 229 73 30 81 113 160 223 212 0 89 234 156 53 110 20 101 21 134 223 106 101 5 242 124 122 97 253 182 63 24 1 224 103 155 206 229 220 92 41 81 239 5 167 191 100 161 106 232 80 64 154 73 9 94 39 21 23 187 232 32 148 125 73 9 32 220 86 114 216 117 30 192 215 123 16 130 213 147 31 181 185 136 137 233 14 248 228 142 159 52 231 223 42 124 142 123 225 155 251 169 7 167 32 140 1
216 27 225 214 87 65 251 234 132 213 121 241 244 216 167 188 29 64 241 120 147 45 191 111 13 139 103 161 159 25 41 57 105 207 0 189 118 248 224 145 86 180 82 146 51 243 63 113 176 23 49 125 56 137 207 252 103 73 163 38 30 120 86 144 229 234 34 187 226 15 113 134 38 195 19 59 41 180 38 210 234 148 82 133 161 123 203 145 194 16 201 150 200 72 39 138 124 148 59 55 175 160 40 83 74 248 149 15 123 230 166 18 160 48 192 240 2 74 212 47 77 97 223 193 134 135 206 69 169 129 98 238 4 36 8 122 105 144 39 116 179 23 122 244 28 249 29 244 50 42 53 77 63 110 36 108 143 244 50 224 47 83 224 103 222 252 124 137 187 59 106 210 92 48 213 131 36 171 133 176 122 228 121 254 82 233 153 69 12 211 221 111 27 142 44 0 39 101 58 126 61 1 182 186 147 30 95 173 94 248 191 42 31 99 250 33 161 213 117 133 246 72 51 238 198 21 33 156 106 78 56 133 142 62 216 81 143 231 114 68 25 140 113 46 237 181 123 221 66 171 185 92 0 167 109 219 158 51 72 229 134 198 76 162 11 154 214 218 39 172 150 15 120 68 14 144 88 62 75 211 2 130 166 165 247 78 49 255 107 253 28 5 48 242 76 245 189 70 123 25
132 93 127 208 35 31 36 145 71 225 179 64 25 105 34 241 170 233 229 221 151 163 108 170 71 177 206 158 38 2 81 146 125 242 100 21 164 16 239 224 228 247 28 206 245 2 102 226 158 51 132 243 47 59 155 194 209 35 150 58 188 94 176 253 7 10 219 16 115 127 49 231 160 27 11 105 45 87 192 129 155 75 78 187 43 173 28 205 30 207 165 94 136 57 153 22 206 147 31 31 38 60 216 133 104 253 35 147 221 177 98 167 117 28 144 10 73 112 89 222 152 29 135 122 243 125 55 80 48 243 114 234 13 19 238 7 14 205 37 101 6 177 238 175 227 102 158 201 51 223 41 190 201 191 128 49 222 21 211 1 89 43 207 215 87 95 10 239 83 132 207 3 194 236 58 105 139 111 194 247 61 221 91 150 35 233 53 68 150 153 46 204 199 120 137 232 3 82 130 157 249 10 49 164 32 247 155 146 5 39 136 154 151 126 182 1 241 53 147 246 30 200 186 116 215 204 99 225 49 228 207 225 223 216 151 7 219 161 245 223 19 133 223 12 31 100 196 186 56 142 193 194 27 214 35 225 107 23 99 166 95 64 147 85 37 7 57 135 98 135 34 178 61 116 72 165 215 224 204 215 14 46 193 73 122 115 1 188 145 85 116 78 18 124 199 210 119 221 92 81
96 197 49 62 69 145 88 228 205 115 173 183 4 22 133 147 226 138 29 18 202 69 116 247 106 72 109 47 217 248 204 141 148 3 63 29 95 239 233 140 16 5 206 235 19 233 245 184 3 209 225 178 239 205 92 165 4 75 221 74 4 240 243 225 159 85 102 234 214 170 228 4 209 69 111 252 58 56 228 165 78 30 25 48 179 61 170 33 55 142 37 189 209 128 219 209 156 221 253 141 37 206 71 120 219 236 61 13 253 140 28 46 134 160 174 151 90 128 9 205 63 152 206 209 3 143 222 77 159 228 60 137 167 189 7 179 116 243 183 93 175 85 3 192 72 2 168 187 75 238 173 196 211 252 115 151 1 144 236 244 99 217 220 224 109 89 18 135 77 235 149 193 59 114 95 225 192 119 152 51 191 105 249 100 117 150 119 6 197 238 200 107 133 133 40 232 157 155 180 160 220 108 214 224 234 206 254 53 51 172 105 168 142 140 88 224 97 130 168 176 140 2 240 245 96 23 151 234 147 11 1 89 186 246 177 191 161 27 128 55 25 2 222 12 78 79 75 13 150 168 19 98 25 149 235 229 15 90 249 92 227 133 72 113 92 112 201 26 237 33 90 109 161 234 225 251 107 112 214 92 225 89 97 151 212 6 99 200 8 134 64 91 252 196 125 93 97 3 65 4
98 104 169 136 48 240 180 38 195 103 107 202 182 225 206 99 125 49 78 80 211 219 18 69 218 248 185 60 139 79 132 5 159 155 48 51 87 79 233 29 99 34 237 156 77 58 58 69 186 87 232 136 110 86 188 33 103 184 26 137 236 66 128 57 43 4 110 248 18 201 66 77 238 224 138 69 70 213 28 212 190 217 216 172 4 148 120 243 179 8 181 92 26 45 168 245 31 126 97 177 184 6 74 214 191 235 194 150 24 59 192 134 128 2 65 6 66 153 107 178 195 20 253 236 66 55 88 15 246 62 106 108 5 79 251 213 32 112 204 85 157 111 65 203 73 193 134 173 227 18 174 60 230 126 125 112 137 143 139 180 207 194 150 185 74 26 189 127 219 229 210 33 165 235 199 35 213 180 238 146 123 120 70 197 157 239 245 196 225 32 186 171 115 62 228 167 57 87 209 220 194 34 228 49 1 154 59 21 159 17 49 41 230 183 246 191 9 166 166 169 77 99 85 181 203 16 192 216 251 198 238 102 195 160 51 109 84 75 11 199 218 73 112 183 63 223 159 231 209 249 51 170 222 194 201 161 115 172 17 19 72 183 161 150 209 66 88 201 122 57 151 231 0 116 27 60 201 69 60 197 219 66 94 174 2 29 179 203 177 227 136 67 105 184 226 79 29 93 51 221
39 175 116 79 2 114 102 3 69 195 246 185 178 58 99 114 56 29 136 143 238 225 85 97 136 184 194 22 150 197 232 25 123 123 29 195 207 91 84 71 235 139 211 188 104 123 62 241 229 219 244 249 208 221 68 16 148 27 125 137 166 9 130 18 39 65 90 40 241 117 120 246 238 72 8 99 4 213 18 60 63 180 231 163 163 151 171 165 187 215 58 65 34 165 56 84 167 49 6 130 123 204 82 128 85 146 7 170 245 85 43 85 52 113 239 208 103 91 20 8 181 75 35 143 186 80 109 145 34 163 186 251 188 165 171 171 39 200 217 179 83 244 53 70 152 106 59 8 151 95 69 149 81 197 211 37 231 228 229 223 61 127 81 20 208 92 103 240 246 83 156 118 73 63 38 251 89 245 26 132 9 71 5 116 241 132 175 162 183 254 202 45 24 241 196 110 189 116 33 241 121 0 210 124 24 127 254 163 140 99 43 19 144 92 14 228 50 197 103 54 65 0 0 176 2 26 114 151 128 79 86 229 160 173 146 14 54 110 57 234 249 97 163 96 176 162 167 36 212 230 7 68 101 202 59 42 219 40 29 171 199 131 212 233 71 197 131 50 237 144 140 123 201 152 88 124 46 150 250 95 26 147 213 83 11 77 51 69 82 61 172 249 121 106 248 65 232 72 230 180
85 30 144 109 149 219 122 54 144 122 182 8 26 4 163 128 203 36 193 214 174 101 46 43 206 52 142 45 217 15 160 39 189 99 109 133 44 234 174 91 177 205 208 234 195 176 202 177 134 128 123 37 152 124 166 159 201 200 203 55 169 232 213 31 7 106 161 245 117 182 37 66 47 229 202 235 205 91 92 224 129 91 85 37 13 156 81 214 170 15 46 94 209 0 108 205 89 200 2 242 227 78 159 254 224 181 221 101 121 180 24 7 167 55 62 3 68 100 184 204 9 235 204 247 181 243 170 65 170 241 3 238 231 215 30 226 108 135 39 168 239 48 200 25 128 2 135 153 191 8 51 111 59 216 167 6 25 91 169 82 192 37 200 247 67 223 29 47 152 33 243 182 10 140 58 215 61 53 58 222 9 203 143 163 46 88 210 119 42 176 244 177 64 139 32 102 103 135 224 127 2 79 129 3 170 234 192 232 82 212 53 190 156 250 241 239 215 28 215 166 9 101 206 182 103 153 254 70 27 74 126 68 42 147 183 53 176 171 105 23 95 120 149 200 115 11 140 48 207 73 41 67 155 209 196 226 34 129 11 205 68 1 88 18 64 109 121 177 180 125 50 55 197 208 127 214 109 105 157 31 232 86 114 252 252 15 129 178 176 228 247 134 20 255 232 118 94 63 225 86
53 158 242 253 36 152 209 26 191 234 249 45 74 129 241 64 137 137 50 102 2 140 251 244 223 253 109 13 31 234 232 122 122 221 239 158 191 106 54 18 242 90 27 210 65 218 101 231 212 79 231 13 220 196 59 181 43 14 93 170 107 176 71 109 245 168 80 86 214 27 244 26 218 253 68 50 60 124 189 138 75 171 161 97 232 73 84 167 223 38 54 57 10 83 8 168 34 200 46 45 238 193 232 131 230 30 236 117 249 79 19 150 49 83 84 4 242 28 162 16 85 214 218 92 70 66 71 17 105 136 113 139 157 120 105 21 30 101 196 170 227 14 214 220 199 172 84 146 18 167 76 250 189 118 180 3 199 165 194 71 166 59 25 29 99 210 120 222 71 246 209 144 44 216 17 56 165 41 254 56 109 180 57 242 60 35 18 107 69 232 135 125 153 175 26 70 77 221 196 98 50 50 169 250 74 190 194 248 109 94 230 157 116 198 203 127 136 184 71 190 225 219 97 142 168 118 108 167 181 185 149 130 9 78 3 169 138 167 175 18 185 131 249 195 122 68 6 204 90 255 207 158 235 55 1 76 246 0 64 247 177 198 126 59 61 238 161 213 66 17 40 249 35 183 13 243 17 235 212 72 88 32 223 229 195 178 18 44 11 172 195 223 142 50 106 100 109 93 118 10
174 252 42 43 111 197 220 43 126 74 87 184 101 143 105 134 168 43 202 131 243 24 147 30 146 227 100 74 135 236 228 127 131 55 197 47 49 125 96 69 161 173 180 117 243 17 146 25 75 47 4 162 108 182 30 218 83 53 212 177 1 249 161 207 191 144 150 7 189 96 92 228 249 241 81 97 126 133 19 123 252 235 98 131 83 11 72 37 101 206 9 7 91 53 63 178 214 167 118 162 239 20 53 52 113 84 187 106 79 137 246 9 99 174 126 37 86 110 249 96 11 235 39 171 119 90 145 61 153 214 112 187 61 224 200 224 244 159 247 158 75 147 251 136 17 95 17 67 72 244 239 169 8 158 63 31 162 63 163 22 191 155 250 142 161 217 86 191 86 53 4 175 197 219 74 232 88 59 112 46 190 157 253 187 16 238 25 169 139 165 158 123 240 62 144 126 131 66 49 139 42 1 137 167 193 1 179 109 252 200 53 195 202 98 166 17 251 124 59 214 137 36 100 13 154 75 122 138 251 155 129 249 155 76 130 35 47 7 33 242 95 239 154 120 34 41 229 73 230 225 53 172 130 145 138 86 72 117 63 215 87 115 85 154 18 254 191 200 105 151 194 110 72 169 117 46 1 169 180 195 251 42 100 183 241 219 15 193 2 210 223 172 192 208 135 130 241 239 115 97
61 109 200 241 176 23 61 240 244 172 213 44 33 230 46 63 25 126 112 197 182 43 55 49 156 65 64 203 112 68 118 150 21 125 93 141 198 173 76 244 236 176 37 103 68 62 211 73 100 202 20 155 149 49 57 51 146 177 230 26 207 84 145 18 129 238 87 60 252 105 128 81 44 112 207 76 180 23 162 2 73 87 147 253 111 130 116 148 90 204 80 44 198 179 70 17 172 24 117 239 70 68 166 67 42 39 141 68 66 212 152 155 168 52 165 69 227 248 195 124 106 121 136 225 73 54 173 46 43 231 81 240 235 68 85 200 186 105 13 189 110 24 253 88 12 160 230 243 253 71 156 30 74 179 71 158 60 189 184 200 223 56 223 88 216 45 161 86 28 6 22 199 184 255 45 181 7 209 102 55 4 221 8 57 134 40 4 32 194 0 138 66 242 110 6 30 128 139 99 87 57 6 195 199 45 30 126 20 164 44 68 27 26 197 222 112 48 69 119 147 10 81 43 230 43 67 29 81 14 177 162 56 237 173 75 206 236 254 87 135 54 3 92 240 145 58 41 180 242 73 55 208 242 58 68 209 29 72 0 182 177 40 187 90 246 133 15 34 155 190 35 111 23 174 125 171 141 198 143 100 37 49 164 143 183 63 20 251 185 62 178 26 112 138 253 139 13 217 0 87
185 163 227 95 139 52 182 219 48 144 148 33 113 49 81 48 106 100 71 106 103 176 45 229 117 135 157 81 22 195 133 38 86 38 63 43 145 8 248 90 168 153 97 110 195 208 178 108 138 167 131 43 40 122 68 219 38 177 33 14 8 183 220 12 175 100 21 228 147 46 89 163 175 174 47 204 129 119 143 113 178 109 131 54 71 227 33 77 238 155 72 172 130 65 244 5 222 74 129 195 180 91 13 219 50 228 23 113 206 231 159 70 170 178 143 56 60 68 243 30 29 149 92 224 201 74 49 47 126 122 121 83 16 163 237 181 127 241 2 47 114 142 170 157 133 97 5 40 178 246 121 217 163 121 229 29 243 150 192 119 59 214 67 164 152 249 223 198 63 186 13 136 204 40 191 79 82 27 240 173 165 66 116 115 3 139 170 6 94 27 153 155 70 215 61 181 116 37 124 182 22 67 112 108 124 252 175 181 58 218 28 235 180 171 157 157 17 1 237 111 85 192 68 101 150 81 204 224 125 118 78 215 210 182 143 197 240 6 243 40 236 10 101 134 189 183 36 210 159 29 215 11 65 63 223 204 174 53 81 120 156 36 148 62 216 1 212 177 49 214 58 174 255 84 50 139 201 251 238 56 246 86 58 157 81 5 222 254 178 138 64 127 90 154 231 229 108 102 72 210
233 167 241 39 132 163 147 38 217 70 194 186 124 241 99 208 89 218 233 108 11 196 100 239 8 63 82 58 13 182 87 169 219 24 42 201 125 214 192 26 81 155 144 242 114 234 210 129 155 8 31 178 96 207 1 137 134 180 237 59 0 204 26 59 91 81 160 214 207 97 64 39 190 63 122 212 83 45 227 184 53 207 116 120 9 34 115 186 118 103 111 5 29 201 72 155 43 73 223 20 47 41 131 233 251 168 31 40 50 172 221 155 135 233 69 96 58 55 197 239 179 205 138 225 119 145 1 124 119 200 209 21 3 44 228 228 206 114 171 6 178 61 65 64 242 129 230 193 225 90 137 231 144 193 1 176 23 201 126 53 101 188 129 92 8 154 108 59 35 226 177 143 137 55 178 18 176 20 201 133 141 59 88 109 190 100 42 98 109 133 50 24 213 23 44 148 247 164 239 160 106 132 115 113 111 172 145 77 183 248 47 105 127 145 15 31 171 84 157 32 252 164 247 81 39 208 219 255 41 165 132 83 3 128 223 134 120 191 26 179 75 180 209 82 193 162 27 191 105 87 23 141 7 249 12 244 15 108 207 242 183 146 104 229 166 16 93 205 147 253 231 25 47 118 212 21 218 139 63 40 25 253 30 119 30 153 149 34 72 179 224 170 178 95 142 237 210 124 17 36
107 172 95 226 196 132 218 48 209 52 214 242 24 138 128 224 113 222 49 201 110 22 67 151 14 57 117 239 206 242 25 128 61 189 80 75 118 40 227 15 152 41 75 162 113 17 246 105 255 27 225 39 235 151 208 44 67 157 210 13 126 120 250 216 63 134 224 241 199 138 167 169 147 222 35 196 121 205 48 197 164 24 58 78 164 154 152 108 66 7 160 22 212 29 6 238 162 168 145 142 70 65 47 122 136 221 146 229 44 12 91 157 68 161 63 96 215 101 163 4 221 61 86 92 248 220 17 12 175 112 159 167 20 208 159 65 114 37 127 160 131 65 134 125 100 128 38 166 134 231 223 179 98 15 8 100 26 181 210 201 119 202 115 139 10 43 214 42 37 144 124 90 106 129 158 220 247 9 51 94 76 230 24 85 160 41 93 168 70 181 31 175 164 42 86 235 168 13 204 195 81 38 99 110 96 131 127 79 104 164 209 106 174 92 170 78 97 107 118 181 20 161 184 51 136 22 156 193 131 98 81 251 208 126 59 89 215 110 110 212 97 224 139 20 89 249 30 93 198 192 48 89 188 86 80 110 57 4 102 150 153 46 198 213 177 224 114 209 199 169 219 55 127 249 122 247 54 152 86 219 235 13 237 170 141 159 112 240 59 29 203 206 222 247 231 209 110 161 163 142
111 14 123 83 224 68 189 178 94 85 130 102 142 78 114 161 189 175 40 252 116 166 234 48 101 101 241 7 81 55 201 3 85 255 235 148 90 172 30 206 204 93 197 27 168 134 14 133 93 145 70 243 115 147 130 97 129 73 188 220 199 23 206 123 161 61 121 96 241 164 80 60 46 200 122 172 81 108 119 85 121 146 95 154 23 10 32 15 224 144 79 175 239 11 234 237 16 255 135 195 52 116 122 186 9 189 137 229 248 129 2 138 204 91 210 176 23 159 194 187 239 178 91 198 10 2 151 216 0 155 120 195 246 43 109 77 32 153 83 22 189 11 179 9 3 76 140 28 89 184 168 157 243 153 91 224 99 130 199 51 219 163 122 240 195 133 204 1 78 60 226 173 144 134 165 73 138 8 167 67 5 187 184 100 108 38 148 9 56 237 204 148 44 107 188 30 215 255 153 246 185 185 139 99 100 42 5 158 56 5 206 19 9 112 177 229 227 152 142 176 28 160 252 157 139 87 214 53 6 121 102 43 53 153 190 4 211 157 148 19 247 204 243 218 182 207 187 209 227 107 33 32 188 212 213 50 228 66 81 223 186 96 56 213 156 56 181 115 96 11 77 217 81 221 20 254 170 200 45 137 10 197 31 9 247 41 98 83 166 159 128 86 0 144 245 165 60 81 35 234
158 70 254 130 32 167 215 221 114 2 179 208 199 213 220 42 136 189 34 206 184 119 237 131 123 37 101 236 28 27 87 197 112 13 12 203 149 17 122 140 99 187 146 92 135 45 64 239 55 76 216 255 194 56 201 18 66 115 104 150 94 212 151 11 61 163 48 101 76 177 27 122 171 207 39 233 115 210 47 195 121 197 56 36 1 52 124 20 159 192 94 159 64 148 25 44 42 161 236 99 154 85 16 154 60 136 34 232 184 101 98 15 81 91 75 106 69 140 186 143 219 20 175 64 186 189 224 119 83 124 65 104 92 40 192 49 146 135 152 15 178 150 150 43 243 57 142 122 111 107 221 19 34 19 240 28 8 184 249 3 85 197 191 26 194 25 7 254 248 232 7 8 157 79 230 5 102 130 245 227 210 212 178 205 209 7 68 83 50 87 127 29 185 86 96 0 184 211 16 43 197 55 167 105 159 198 71 63 193 96 175 22 33 74 93 157 143 80 61 35 227 147 23 165 125 199 101 95 189 219 215 237 52 129 52 122 162 122 222 163 190 152 99 200 165 150 57 220 59 144 172 33 51 115 235 165 48 217 34 89 19 7 23 23 17 90 28 109 67 8 123 76 26 51 18 90 158 145 59 147 47 198 79 110 165 90 176 59 21 95 12 106 40 13 137 25 116 49 15 106
36 204 205 20 139 86 220 75 99 229 172 93 216 126 186 248 136 45 141 12 132 209 117 191 174 194 214 17 74 128 164 123 0 71 50 255 73 220 109 185 193 175 74 235 169 111 192 172 241 224 134 93 67 214 205 184 154 93 83 8 0 185 59 133 180 83 195 54 109 72 232 189 178 123 32 246 11 230 176 174 220 165 243 72 234 193 64 241 25 56 59 166 243 72 106 116 157 99 221 171 222 227 178 231 15 98 165 7 20 69 62 112 219 22 191 245 111 10 99 22 233 243 151 228 116 6 154 46 22 151 12 80 237 231 208 108 218 182 158 228 227 209 255 226 130 160 163 230 67 91 1 97 215 175 193 247 204 240 132 52 2 118 252 47 119 173 20 254 12 6 233 185 235 211 14 119 195 17 121 105 137 3 208 243 235 66 92 72 42 219 27 45 62 58 227 158 239 247 98 174 168 201 198 237 253 205 251 80 129 91 228 231 133 81 153 153 6 246 132 6 237 87 36 218 59 203 139 47 31 76 238 74 208 71 193 211 19 109 247 37 3 242 160 221 63 130 1 247 203 45 168 38 48 233 48 58 223 195 119 98 194 176 38 59 43 251 98 81 143 223 200 120 115 224 162 140 52 95 189 15 213 117 136 129 62 25 202 49 191 232 183 62 40 227 194 187 129 147 14 75
111 224 238 206 172 79 169 72 30 171 79 98 148 3 10 100 201 71 114 100 178 91 87 195 178 103 181 0 162 58 62 198 59 229 6 138 112 184 142 84 190 184 165 57 220 255 176 181 202 161 108 93 77 191 15 75 247 139 127 22 157 50 107 126 97 70 184 228 181 35 6 190 198 17 96 152 73 153 185 114 123 250 87 180 248 207 192 232 112 29 195 168 138 121 128 222 197 56 181 60 159 16 210 140 91 202 100 22 110 63 9 164 102 46 103 60 118 53 10 205 173 68 53 156 233 101 118 172 20 73 162 225 217 46 37 151 126 233 131 92 209 121 74 89 195 180 102 207 202 14 125 174 112 225 210 13 102 16 95 232 207 169 26 197 115 81 52 39 126 32 25 200 94 246 247 25 164 133 199 225 228 97 208 15 220 70 239 246 194 90 172 119 250 78 167 159 172 100 18 218 126 252 222 178 179 246 2 136 188 154 181 112 145 91 161 69 87 20 53 172 227 27 233 70 198 179 122 221 84 220 94 73 45 129 203 155 237 37 190 241 152 106 133 127 184 80 221 182 125 39 125 250 146 217 68 157 12 136 131 167 171 15 121 224 132 182 191 159 241 66 252 191 160 229 76 202 248 199 63 150 60 86 74 237 235 153 143 6 26 215 183 0 31 188 60 84 239 149 74 225
109 249 32 247 213 182 219 37 33 254 28 129 85 182 57 41 1 86 50 233 74 164 235 51 246 40 7 203 54 226 243 45 249 53 243 183 11 174 237 122 221 94 180 75 174 102 71 230 134 138 186 20 131 32 181 65 162 187 243 66 102 191 137 143 16 149 161 167 221 0 172 249 166 191 212 51 81 139 62 137 226 83 158 139 131 48 74 94 106 248 17 29 121 171 156 118 38 199 32 170 191 117 54 76 59 200 167 155 113 241 194 163 199 238 128 84 69 170 10 245 191 24 142 211 227 155 87 184 83 130 26 193 237 119 163 12 190 223 79 6 207 7 152 236 195 18 170 191 59 59 203 159 202 191 145 231 86 109 141 229 191 35 76 65 9 230 243 76 103 139 193 83 126 161 38 106 142 30 72 70 61 66 56 44 64 64 79 233 220 13 203 198 181 99 242 152 216 212 78 147 155 119 114 108 149 49 107 226 202 106 128 188 84 233 203 128 196 102 219 233 14 88 110 55 89 22 243 248 229 153 103 107 82 198 25 83 51 65 248 19 73 170 210 242 180 17 167 142 220 68 23 94 110 56 34 200 31 225 69 49 164 3 255 2 220 236 152 201 168 149 200 130 51 95 251 108 100 56 115 60 207 194 207 55 33 132 95 78 163 135 183 147 116 207 40 24 135 69 234 131
54 114 4 194 132 220 7 47 104 132 155 106 5 189 228 41 97 185 116 81 191 147 62 155 4 164 214 86 140 36 209 94 241 247 255 139 164 45 156 6 60 176 7 212 209 227 187 159 133 31 181 9 180 4 185 190 11 171 104 242 109 233 174 106 229 148 156 126 156 116 212 221 71 104 138 48 215 214 225 0 15 20 207 55 250 191 4 62 172 103 169 198 76 151 248 92 3 82 218 233 116 114 128 237 117 2 183 95 252 254 101 237 234 65 31 8 52 36 121 115 131 55 41 241 235 150 0 173 169 200 103 23 3 110 6 115 37 150 209 83 47 4 240 127 66 233 96 33 189 41 88 138 128 207 148 126 123 55 129 114 179 25 232 118 49 108 214 255 193 15 9 185 169 138 29 43 162 56 132 7 103 52 238 17 91 209 101 232 214 53 25 110 39 243 99 224 231 55 174 82 175 237 252 73 136 217 207 79 161 179 213 144 21 53 85 36 5 62 37 54 110 4 179 46 93 71 98 219 9 218 75 114 27 123 59 53 109 229 97 74 151 185 159 170 110 92 52 70 7 95 0 95 83 193 83 244 97 111 121 160 203 188 242 40 140 60 57 17 61 78 48 45 145 214 13 168 90 240 71 130 12 48 225 209 136 11 176 118 30 137 102 168 154 169 55 75 67 205 140 23
65 57 33 42 36 242 165 15 88 242 133 173 61 40 119 215 130 200 146 254 28 56 28 134 82 80 197 232 71 73 250 190 199 175 147 59 169 139 187 249 151 42 154 120 239 209 223 165 65 86 42 222 225 91 6 139 76 44 155 251 212 132 17 245 26 224 138 111 50 85 102 233 215 135 109 133 138 242 123 121 37 37 245 78 219 255 47 122 208 225 19 63 239 197 58 213 234 25 54 216 107 220 249 108 51 5 21 52 13 215 20 152 249 80 166 178 79 2 27 23 156 33 28 112 93 154 105 23 120 86 160 128 65 104 92 44 65 73 160 122 27 202 149 254 105 98 36 56 107 53 141 218 132 112 123 155 140 213 102 116 16 190 29 178 114 31 223 8 31 169 172 246 138 26 28 25 165 62 126 227 35 56 233 249 237 252 210 17 113 190 65 160 87 68 167 16 101 109 247 236 39 13 6 186 72 37 54 28 150 186 40 18 200 192 246 194 3 68 178 240 231 115 167 65 133 82 61 244 177 154 214 220 196 21 175 63 241 76 89 31 73 205 162 237 23 42 217 244 217 192 22 96 75 170 84 188 11 193 53 251 77 164 134 170 233 76 196 136 251 44 17 55 235 180 28 190 63 170 52 255 33 46 237 95 207 146 47 144 9 137 23 222 49 199 28 199 36 75 113 11
41 55 95 28 10 191 68 14 0 74 66 233 217 181 174 190 88 189 67 238 33 200 218 242 67 238 251 231 2 79 194 245 240 74 93 144 203 56 194 252 116 249 98 166 192 232 150 88 213 173 230 86 205 248 19 9 224 112 217 120 23 108 242 94 171 125 196 109 166 31 195 0 40 246 253 117 126 141 0 245 200 236 59 82 93 248 14 120 245 191 41 18 227 20 124 55 16 102 214 165 234 126 140 58 162 27 181 139 161 61 230 59 80 84 157 96 132 115 119 194 220 191 6 66 223 229 134 136 11 245 240 219 177 57 205 9 10 212 63 255 83 166 181 32 18 46 18 123 150 127 148 238 119 241 217 26 55 163 254 96 168 56 55 238 216 37 250 146 100 200 212 70 206 80 37 229 229 211 48 228 242 20 67 196 21 41 181 194 233 184 170 211 103 82 0 81 142 120 225 148 40 215 227 134 186 12 37 194 87 157 158 74 40 85 229 178 217 170 0 249 54 135 199 233 232 33 229 52 37 175 206 23 36 93 189 53 113 217 124 172 48 144 32 42 82 33 93 167 69 25 112 4 181 228 90 165 29 128 212 247 214 173 41 61 165 82 62 152 7 189 121 197 171 217 52 75 230 174 184 168 145 76 41 207 207 139 181 1 52 52 120 24 26 101 94 129 103 1 195 213
147 210 244 199 10 158 88 251 255 228 161 243 151 1 159 201 173 29 26 157 147 178 29 21 148 85 223 80 91 21 217 169 41 64 222 158 254 166 245 166 27 56 10 117 51 107 18 0 92 108 111 216 29 197 3 52 160 49 216 131 181 82 48 153 144 92 115 235 213 249 255 118 123 182 255 33 137 65 16 56 116 243 109 201 72 162 58 227 249 248 116 167 125 122 123 241 175 117 69 112 61 222 176 185 119 183 80 0 63 206 209 241 198 224 229 71 118 172 55 156 133 128 250 148 168 219 5 75 74 51 208 22 13 255 182 16 50 60 178 32 206 12 72 97 169 208 212 63 127 117 36 8 42 107 27 174 251 146 97 226 204 34 13 131 244 108 17 42 78 152 209 87 146 188 144 202 219 190 150 204 123 87 15 46 79 88 41 198 64 55 75 33 111 128 23 0 183 2 145 25 24 111 131 88 153 66 99 204 241 41 252 124 132 242 150 88 182 13 17 33 92 230 38 112 18 182 174 109 219 210 169 34 68 138 190 188 80 125 147 5 25 202 54 3 23 3 29 23 249 176 42 97 14 17 69 199 27 120 198 104 51 208 234 104 38 169 136 17 225 244 142 109 20 62 135 216 58 157 237 83 94 173 30 76 166 176 225 57 246 129 226 239 97 59 216 80 3 204 50 130
202 128 150 101 156 194 219 225 79 210 219 237 22 161 161 120 255 195 243 32 99 32 157 175 232 16 103 1 198 170 152 44 178 112 136 39 114 15 11 29 159 73 94 113 176 108 196 133 47 118 160 132 65 28 156 125 67 18 106 109 24 149 67 215 228 29 31 235 145 235 85 33 9 172 101 190 217 226 0 74 174 168 251 2 48 216 44 17 87 188 3 59 26 131 143 207 49 78 179 245 114 240 14 241 90 6 166 119 64 139 164 157 194 14 39 126 238 162 170 150 218 99 189 41 2 189 108 229 102 136 195 42 31 101 150 9 71 167 113 198 53 56 11 37 2 207 182 103 132 86 200 198 139 206 151 157 164 10 134 180 61 163 120 91 90 162 244 61 35 224 144 111 98 50 251 11 110 180 136 52 119 134 138 45 79 144 74 1 55 145 182 80 75 136 192 25 0 73 100 101 147 84 32 204 217 83 6 161 72 85 211 194 130 139 14 25 237 137 85 144 236 70 10 117 228 231 178 13 216 115 247 139 12 28 34 48 220 164 110 161 6 192 137 241 6 116 140 0 80 217 19 63 39 89 113 143 117 240 79 195 114 184 220 71 118 141 174 8 44 248 151 98 114 202 211 195 159 194 232 231 219 181 234 205 87 19 121 100 163 149 211 183 75 182 184 15 220 79 85 66
156 171 10 31 40 43 120 71 35 213 13 72 74 228 239 165 42 248 206 213 242 36 124 6 166 113 49 188 113 214 56 94 227 168 24 193 172 114 197 101 151 109 252 181 137 250 218 205 191 222 122 116 134 123 10 246 36 84 179 56 68 20 170 201 220 12 175 0 39 177 24 156 148 146 92 123 246 170 224 143 239 92 187 185 59 221 28 59 101 110 16 107 132 76 240 128 149 248 22 59 106 123 204 221 246 75 161 241 186 228 177 176 200 57 121 249 227 169 154 157 249 206 118 192 21 190 30 165 222 250 212 143 17 60 18 229 212 5 172 9 165 229 56 63 137 155 35 231 117 103 158 184 143 213 205 23 176 188 194 90 11 232 98 135 249 67 161 166 94 214 151 30 223 30 169 184 53 110 29 216 20 13 243 185 183 172 138 150 223 159 32 236 174 129 158 20 14 243 164 15 163 153 196 243 41 44 32 67 243 213 238 113 22 218 148 15 218 192 238 133 143 227 53 85 134 233 15 1 51 206 67 237 145 110 217 38 136 89 47 16 143 114 68 82 220 71 197 125 150 234 7 186 184 42 189 43 55 180 11 208 197 3 66 105 31 249 214 205 221 155 149 121 114 247 17 237 243 108 45 251 240 190 231 94 250 49 81 112 158 134 100 126 207 122 40 150 77 218 187 99
167 77 219 168 215 166 14 219 144 235 207 68 51 90 103 91 143 9 96 194 215 237 113 101 235 214 160 74 97 249 6 74 33 110 246 29 102 61 181 239 63 42 224 255 127 110 188 255 25 250 220 180 35 197 236 31 3 222 249 27 168 93 190 7 52 159 98 186 194 130 109 17 56 82 169 75 67 86 71 164 129 38 75 77 216 32 110 110 245 55 123 65 115 189 233 118 174 94 147 38 50 178 228 90 67 249 247 77 66 37 218 236 124 232 35 101 128 14 94 140 163 76 3 72 172 230 155 81 37 203 211 178 117 6 175 146 221 153 133 218 55 115 218 137 92 135 95 207 51 123 229 82 51 166 178 114 210 85 97 213 227 185 33 61 133 252 188 60 232 74 118 65 168 66 233 97 129 18 12 43 130 32 227 0 249 22 72 197 138 88 196 244 242 25 73 34 3 102 242 52 5 170 112 93 3 55 80 202 233 205 126 27 110 246 35 29 169 110 182 166 97 169 168 241 66 72 37 50 235 182 89 108 96 255 169 76 161 86 52 135 41 180 50 168 194 183 12 95 204 28 207 160 73 84 34 51 90 208 131 186 19 30 39 84 162 219 36 180 97 253 211 37 12 10 137 204 191 80 95 168 21 220 202 70 205 230 118 17 134 185 94 49 46 255 232 44 185 10 185 217
179 146 187 14 233 62 201 215 96 87 208 178 246 77 155 248 195 186 178 212 148 102 11 47 107 10 247 245 219 78 129 113 6 95 62 29 40 76 119 18 33 32 171 188 174 181 150 252 82 136 189 16 172 229 185 80 20 63 90 40 81 51 77 84 180 27 200 93 136 114 37 36 43 208 75 82 159 126 252 149 110 182 247 159 175 159 181 63 62 222 74 196 12 92 208 221 144 172 232 17 6 73 107 230 198 143 185 228 31 247 71 177 190 205 178 117 12 71 137 77 224 32 188 202 19 8 178 146 43 171 190 80 223 65 105 52 54 44 165 147 133 192 122 223 171 142 194 197 100 105 218 182 85 168 186 80 179 47 167 27 172 234 165 181 86 158 97 204 5 237 133 187 230 37 186 156 208 96 187 47 126 103 136 75 163 4 80 65 225 54 65 15 204 17 187 109 176 224 40 136 194 25 208 29 230 42 84 171 67 178 112 132 85 203 33 63 16 199 85 14 192 218 233 116 92 227 2 220 166 30 97 176 234 27 170 205 209 203 148 98 94 123 150 54 225 117 75 105 103 45 17 176 88 165 219 214 158 13 75 177 187 100 85 19 229 238 91 110 25 220 106 156 122 136 103 154 243 81 27 106 144 129 73 192 93 37 218 139 188 136 91 145 1 79 187 180 55 177 174 217
13 74 223 6 33 180 39 165 16 164 213 81 184 65 62 185 191 204 172 75 139 73 94 29 13 162 229 188 111 35 108 217 172 184 111 238 194 91 187 211 11 243 93 245 196 101 27 21 15 83 150 79 205 89 25 112 189 218 248 204 216 40 223 2 111 97 172 138 11 21 90 223 98 188 105 221 49 53 101 198 123 109 94 234 156 146 183 174 81 85 85 22 74 221 177 89 212 237 215 184 116 107 41 27 220 34 216 228 211 38 207 93 7 224 114 211 239 222 41 212 222 134 75 133 239 17 12 93 75 246 143 203 183 14 5 58 14 203 105 131 26 235 94 229 10 239 205 214 116 32 80 224 69 67 131 215 179 44 252 210 248 60 50 246 174 169 168 145 156 21 49 11 89 41 86 34 169 212 174 24 40 104 219 171 242 157 232 246 70 255 68 186 62 73 7 128 163 254 168 198 186 97 77 28 113 120 5 109 136 99 63 172 71 238 90 125 42 9 126 50 75 140 27 5 224 37 180 226 218 173 232 195 229 26 85 20 122 93 125 81 15 88 93 249 168 72 233 158 238 83 249 197 142 98 77 141 251 181 116 225 154 174 5 92 114 165 46 133 26 78 195 131 184 174 29 61 251 22 36 105 184 71 255 239 92 69 82 220 216 104 234 124 59 143 90 76 77 98 240 105
167 217 34 47 182 72 79 218 245 39 62 176 5 102 71 84 131 243 136 198 53 227 6 183 63 79 74 151 137 209 185 173 251 53 245 201 133 204 155 246 115 120 35 19 163 18 53 209 143 10 111 47 148 37 179 65 99 244 8 36 152 117 112 69 141 186 144 202 186 170 36 213 182 44 168 116 149 234 188 151 14 7 90 114 222 224 99 74 61 157 57 78 6 75 83 130 80 209 193 70 8 99 4 223 74 8 123 148 71 197 126 143 2 219 8 65 237 74 101 128 21 8 145 32 180 216 184 226 177 255 214 242 56 118 219 53 52 54 109 72 103 148 99 197 136 121 202 221 238 207 41 49 190 84 89 214 53 236 251 168 84 55 163 65 138 114 28 114 228 67 213 91 238 209 65 52 206 243 85 50 12 191 237 55 35 252 144 230 183 78 118 66 210 212 134 50 195 157 229 212 172 225 137 92 251 156 227 82 56 29 96 42 33 71 82 109 151 4 219 29 228 190 79 242 179 48 53 244 16 142 111 3 157 189 24 152 244 44 145 56 41 101 90 208 99 240 211 32 115 152 103 164 200 52 32 101 125 105 50 13 254 164 1 210 137 133 220 173 40 140 111 13 65 180 161 56 25 153 73 252 192 151 145 122 210 140 48 39 72 6 194 21 20 228 187 67 0 138 223 123
111 220 93 162 184 58 82 248 172 237 18 180 187 188 255 16 43 164 229 155 43 80 15 144 215 50 185 153 207 136 5 35 224 216 197 178 86 53 16 132 49 122 181 115 255 88 49 117 63 204 55 202 223 177 14 62 85 94 104 70 196 232 50 171 243 6 117 57 114 24 235 199 127 134 33 124 190 12 158 140 172 108 239 110 43 213 216 36 217 32 128 239 230 236 224 172 73 107 161 62 62 245 111 55 60 251 75 219 27 4 163 209 206 155 50 217 91 220 54 57 151 14 92 19 221 52 24 74 117 31 95 88 22 240 105 151 107 78 97 103 126 244 248 155 192 151 59 102 46 103 21 211 141 243 172 70 113 72 219 223 235 255 82 92 193 217 97 66 26 113 169 102 11 241 205 7 70 41 78 23 133 202 56 154 141 242 56 201 106 159 3 54 239 142 116 217 189 128 0 196 36 81 225 162 75 108 213 68 185 88 107 12 143 55 112 235 101 69 112 192 77 75 70 152 151 246 74 201 227 249 102 101 195 56 158 7 83 181 32 207 38 62 116 17 233 4 27 64 46 126 192 200 220 98 101 115 211 208 141 200 30 20 11 174 199 114 126 161 35 120 215 227 243 90 101 99 152 20 67 28 76 134 123 253 137 244 82 71 142 227 35 30 217 191 175 151 58 149 169 87
175 198 177 1 83 220 12 200 109 106 208 26 206 218 224 52 128 198 88 134 130 23 3 197 252 68 140 34 65 253 135 165 69 36 213 216 51 31 203 119 112 12 49 28 213 45 222 107 123 27 75 144 133 128 74 54 98 6 63 53 154 151 35 236 243 217 60 189 94 222 242 60 184 197 103 111 211 134 251 158 108 186 215 6 137 128 102 203 118 193 80 143 23 215 52 82 153 38 164 72 225 7 145 135 229 245 25 201 222 226 41 92 100 112 129 198 62 138 110 95 175 201 163 200 176 113 76 150 224 61 237 125 134 99 100 83 115 202 201 156 17 12 167 61 63 196 12 136 152 189 180 174 193 1 227 242 86 138 173 192 128 19 153 222 2 175 32 84 208 53 218 228 247 227 222 73 180 223 241 236 178 34 136 174 5 245 215 69 91 36 191 2 185 153 242 253 66 176 35 114 202 176 78 228 177 96 33 126 119 75 28 179 145 233 192 142 185 14 152 116 122 0 244 163 135 147 190 201 173 115 164 167 62 76 32 58 208 62 178 165 144 118 207 246 189 98 124 132 25 227 87 103 114 252 111 149 128 187 175 81 42 29 146 38 58 215 188 130 12 105 129 242 23 125 127 202 172 160 83 40 127 146 68 159 205 75 144 88 250 13 169 171 245 87 145 25 200 27 19 60
159 155 32 251 136 200 230 10 142 207 221 251 212 148 170 31 49 93 35 105 86 59 8 168 197 222 120 146 231 196 205 130 66 45 34 76 20 11 228 119 100 158 113 244 139 29 19 165 252 121 56 247 90 139 121 53 121 68 80 63 243 185 118 250 236 149 144 142 66 59 105 205 229 69 15 174 157 195 206 59 178 201 203 203 80 254 212 38 193 195 174 219 84 79 64 14 134 211 206 73 153 242 55 228 150 182 49 191 52 62 149 70 49 44 228 85 190 77 190 133 239 226 162 252 220 66 113 169 149 221 102 131 134 57 158 170 129 234 172 150 186 249 101 28 178 100 81 234 159 61 158 108 23 130 52 115 236 250 108 232 206 25 204 153 246 63 234 19 252 108 72 84 21 7 158 208 213 139 204 248 240 241 21 216 6 90 79 130 228 227 3 122 204 20 146 239 22 193 244 204 245 119 77 34 117 233 8 168 156 203 113 254 1 208 30 154 57 109 73 193 78 80 2 105 7 83 136 136 124 107 201 206 138 79 73 28 112 44 124 208 22 16 110 252 178 115 225 126 58 8 230 246 154 157 230 55 75 127 0 215 231 75 69 14 185 81 133 181 141 218 241 196 201 150 33 129 16 22 247 164 11 213 2 212 30 204 204 5 71 12 9 32 239 72 13 65 42 211 234 46
127 15 89 183 241 96 142 74 75 253 60 169 128 55 79 215 94 165 174 146 4 143 151 87 79 160 240 188 68 236 159 65 82 142 144 38 76 163 224 110 222 44 83 85 95 239 12 100 143 238 109 204 219 251 22 96 56 141 153 226 79 69 174 99 41 182 235 105 107 184 32 244 196 63 42 151 136 5 249 227 87 83 111 25 159 87 120 22 213 139 140 104 150 218 156 202 209 214 59 13 35 150 103 243 224 142 104 198 111 237 33 206 27 134 168 91 150 84 45 0 117 201 201 55 8 28 213 212 231 254 42 206 160 214 116 88 172 181 186 224 185 73 254 209 196 89 208 107 78 213 107 177 1 92 64 17 180 18 228 18 188 82 35 131 20 163 107 151 162 229 158 153 70 61 174 219 30 230 145 162 189 217 23 66 164 152 129 201 103 80 199 200 230 245 92 77 170 4 42 127 75 119 225 92 80 250 149 4 155 9 61 112 230 169 220 221 107 240 137 204 235 213 158 90 159 13 85 37 41 215 198 119 215 17 165 163 141 123 31 92 44 64 88 160 114 135 57 178 163 41 56 36 55 150 183 143 48 22 246 188 53 21 138 208 36 24 94 157 103 200 53 39 171 252 37 174 61 20 253 157 30 78 128 195 51 71 204 207 182 29 37 208 157 198 118 23 161 4 187 51
182 88 16 78 165 147 214 222 10 119 200 49 174 242 31 183 71 203 72 134 73 31 248 92 206 91 164 179 167 136 16 98 47 151 21 66 131 66 133 39 81 161 182 111 173 85 77 58 198 36 133 112 211 210 31 238 18 220 48 228 139 161 53 18 226 138 11 125 250 111 52 87 176 22 250 153 252 54 72 203 72 30 15 181 57 53 105 43 137 156 2 89 127 206 105 53 131 93 244 13 54 222 159 101 181 207 219 21 74 94 89 121 231 179 169 7 215 219 146 181 122 250 97 155 70 20 152 157 132 84 43 89 49 15 106 196 204 224 82 148 0 85 221 63 55 69 209 195 137 104 125 49 59 169 233 121 217 162 170 71 146 206 107 34 19 255 239 159 160 90 111 193 97 252 247 52 166 107 95 151 19 206 237 99 219 21 164 125 85 7 90 150 10 179 39 77 120 193 5 169 167 12 34 36 87 114 186 175 73 149 71 25 100 190 230 19 189 78 171 216 214 13 253 254 139 176 1 35 41 117 244 169 59 8 137 146 227 231 252 98 116 12 74 116 42 205 182 23 49 239 21 188 165 65 167 56 7 11 88 150 13 253 2 181 110 8 51 219 249 226 67 171 48 164 133 154 244 83 55 248 187 23 95 142 89 124 214 14 124 9 22 106 149 200 172 161 16 180 237 61
126 152 190 210 6 240 8 181 198 115 154 24 37 180 227 212 118 36 13 23 141 217 147 16 114 8 39 164 203 65 1 173 205 192 225 178 104 210 219 175 26 37 164 62 58 20 16 188 154 231 98 254 201 191 232 75 155 55 121 122 230 11 90 217 89 178 24 59 228 12 67 250 81 148 47 153 176 30 14 74 51 100 199 171 6 234 175 92 71 87 87 194 77 213 220 129 64 90 198 233 253 191 78 110 35 194 123 9 129 90 242 146 231 108 169 177 41 224 101 173 93 131 81 97 101 176 72 250 54 75 13 243 215 172 175 29 205 134 211 164 65 54 207 238 177 22 120 99 153 145 29 219 136 15 72 42 117 221 208 184 72 115 27 87 239 242 150 222 195 234 218 74 55 69 144 184 176 135 48 62 137 220 230 230 78 32 224 137 185 52 3 20 100 83 253 205 209 52 71 171 4 126 191 218 109 178 98 111 166 99 105 10 111 154 102 0 226 142 231 180 141 226 108 245 64 32 244 237 69 137 189 65 105 124 35 130 166 163 65 173 103 255 141 206 140 59 158 75 201 116 79 58 168 199 252 60 185 145 56 80 4 91 128 88 110 215 50 110 202 220 205 143 52 85 77 31 230 172 179 74 222 4 214 217 134 235 120 147 197 188 103 206 41 120 178 49 194 56 118 133
190 143 51 66 97 78 145 205 116 16 178 220 255 140 160 91 42 171 182 19 45 102 205 102 32 117 92 142 240 43 254 173 6 120 8 104 236 93 81 122 11 29 186 187 188 98 250 184 4 125 107 136 146 174 203 35 173 194 226 234 8 27 58 145 89 178 166 178 143 36 199 97 101 196 40 68 152 93 92 250 46 141 171 36 163 163 232 83 224 127 207 180 140 149 203 188 24 41 34 10 161 66 41 194 30 229 3 141 30 194 98 120 252 128 114 171 117 127 60 194 234 115 1 39 139 144 150 38 22 26 85 28 67 144 219 147 96 64 44 30 196 38 252 184 217 84 244 216 59 200 158 150 125 66 140 158 252 6 21 35 10 68 34 112 235 146 18 178 79 215 225 209 103 51 199 204 251 199 43 69 83 244 153 191 105 136 145 5 201 222 23 80 202 66 234 215 224 42 21 195 174 58 166 150 120 158 250 120 83 154 183 9 177 87 34 222 217 231 45 8 132 136 156 50 245 230 96 70 101 243 158 36 48 4 108 104 160 202 44 9 168 5 50 52 74 84 209 17 90 48 248 194 153 223 38 119 64 250 149 153 106 163 239 218 64 57 225 92 251 11 225 249 250 179 232 58 202 131 196 32 180 119 121 5 47 49 123 16 68 48 10 55 122 124 23 72 35 181 218 49
232 65 7 6 104 225 227 150 175 23 196 95 201 252 156 48 227 68 247 102 93 83 202 129 45 43 22 82 229 147 183 39 184 39 113 119 231 2 18 34 114 31 110 96 38 19 198 225 180 63 107 209 19 167 60 160 63 241 110 90 80 40 147 246 1 11 82 124 125 206 243 226 242 118 157 150 251 38 213 244 105 65 81 9 156 104 253 23 132 162 216 202 142 237 176 133 84 125 131 79 20 107 210 37 212 242 212 126 20 195 9 178 254 231 154 226 181 137 103 148 174 174 65 26 26 17 229 141 165 2 172 34 150 10 56 211 73 114 219 45 174 211 133 13 45 246 165 83 215 165 141 79 114 225 188 255 112 144 160 152 111 91 90 162 228 75 46 140 41 2 146 227 179 104 121 206 253 168 206 243 130 128 220 143 253 250 9 163 7 133 146 21 22 180 50 233 113 178 83 91 147 111 51 152 191 22 144 8 210 155 212 155 138 14 153 167 51 145 48 175 180 201 35 126 243 23 174 49 247 238 89 69 158 249 108 221 185 11 164 122 98 227 34 173 233 119 119 38 168 179 47 55 133 150 26 169 173 20 182 44 155 97 114 183 133 16 81 217 144 215 209 198 198 227 103 140 217 0 225 84 180 29 127 148 110 123 240 181 75 230 164 52 234 107 68 255 35 162 62 175
1 136 138 41 190 184 235 146 86 167 220 251 39 225 152 9 177 243 110 214 87 154 170 218 186 104 219 243 106 92 163 144 115 112 188 73 183 248 162 168 8 69 242 36 37 250 60 14 185 56 11 146 193 218 175 115 187 125 171 94 232 239 214 5 150 125 191 213 43 32 157 111 13 154 71 64 110 9 87 43 84 197 185 170 70 89 36 219 189 224 74 254 43 183 192 251 76 183 95 0 132 117 153 131 222 73 255 89 61 4 75 112 25 71 198 241 31 102 197 211 148 253 234 139 68 101 29 139 175 150 165 188 176 110 12 215 80 181 246 140 247 96 6 47 39 106 113 52 130 224 199 251 251 26 243 110 155 192 234 123 98 112 103 7 56 89 209 183 132 23 198 41 198 3 226 221 11 240 238 83 234 97 165 241 250 33 210 211 180 112 204 73 40 130 5 107 140 129 164 222 150 19 181 95 247 109 220 14 176 17 89 79 69 231 227 4 13 158 32 170 217 162 149 135 84 201 89 217 14 29 237 228 87 221 210 111 114 6 144 215 28 135 225 52 79 109 220 218 160 227 156 133 90 183 137 127 138 66 199 32 222 90 64 203 52 33 58 159 182 150 7 86 154 255 81 174 76 74 230 81 253 68 64 254 236 11 237 215 49 110 30 167 122 138 143 88 57 86 89 231
227 21 3 59 25 15 49 148 150 140 139 63 128 178 195 22 77 120 36 243 3 94 174 56 190 245 30 187 165 180 135 172 243 192 193 49 205 109 3 38 55 251 157 214 134 207 149 64 225 127 83 18 219 183 230 129 23 142 176 32 126 193 8 201 237 129 127 79 33 101 31 66 6 133 248 88 31 219 166 222 18 137 147 233 26 238 253 164 167 249 42 39 93 154 224 169 235 188 47 207 143 67 135 54 139 149 177 217 104 153 111 64 66 237 114 20 245 129 166 235 223 127 162 154 171 73 248 103 119 101 243 60 120 29 1 157 188 192 1 187 101 63 164 200 72 200 187 116 116 70 69 224 118 87 26 136 47 62 87 80 57 251 141 100 220 62 198 181 218 127 36 44 84 190 160 121 220 69 49 246 18 157 97 136 133 79 139 83 252 188 223 39 120 80 69 91 47 239 53 96 214 26 156 85 220 130 84 137 138 44 236 18 152 193 126 70 45 197 1 24 240 127 8 231 60 109 99 12 184 19 210 230 46 112 225 213 235 79 125 69 54 127 202 247 149 247 186 225 198 247 33 199 201 2 220 18 89 239 221 13 207 4 212 3 201 169 73 21 143 120 227 182 27 30 111 57 43 240 17 206 78 11 41 216 190 54 146 91 217 170 44 172 183 63 126 133 151 182 13 219
14 161 45 67 28 86 158 219 239 129 136 84 66 46 237 113 111 223 205 224 67 149 100 149 148 157 103 12 203 105 24 107 109 196 152 87 48 131 196 64 221 61 235 211 82 73 107 206 82 255 73 120 24 218 51 248 161 84 171 97 154 72 212 112 140 81 46 74 20 157 220 40 16 15 198 131 200 66 163 192 150 232 172 131 188 225 182 114 131 46 67 180 125 171 135 228 127 130 91 83 132 94 175 36 183 208 19 94 187 29 32 18 239 23 78 115 101 193 176 133 146 10 181 249 236 131 14 168 175 111 39 112 132 224 234 14 177 80 210 62 195 144 17 15 45 156 102 94 246 162 244 197 28 33 10 224 35 75 248 143 187 212 146 91 246 225 72 2 38 205 106 106 22 50 111 161 12 29 126 247 64 227 229 225 180 39 111 196 188 212 178 80 140 251 180 225 109 149 42 1 47 102 225 62 66 227 37 108 250 76 239 85 172 40 82 23 213 99 117 74 213 113 9 209 4 114 80 23 163 55 147 133 120 59 155 212 53 72 97 189 206 124 113 90 194 253 194 176 192 103 32 240 136 155 155 129 244 207 47 51 123 60 144 182 226 192 196 41 68 233 36 39 41 1 136 182 230 93 181 200 245 187 57 44 111 78 249 176 209 150 203 213 127 137 122 115 121 217 242 105
22 212 86 131 243 111 222 181 132 132 158 147 75 67 95 125 176 80 162 120 176 33 4 23 243 16 112 215 238 29 25 23 126 112 187 93 251 59 119 249 101 162 253 75 172 34 71 14 36 224 218 209 85 144 248 147 140 167 220 122 20 61 192 16 40 190 255 163 146 30 150 3 51 68 195 235 199 229 163 211 211 152 81 35 56 28 105 47 189 129 226 104 59 125 216 233 24 234 205 60 252 24 24 4 144 251 132 252 139 69 153 52 229 121 174 17 254 112 145 108 240 128 191 12 183 50 67 232 180 150 77 108 184 50 233 55 183 203 190 8 81 207 40 44 25 51 33 192 11 118 73 104 109 63 166 20 78 150 223 22 241 218 135 62 158 198 180 141 64 34 89 241 11 62 8 117 144 18 220 202 16 173 25 229 46 204 196 226 183 188 140 207 65 235 185 125 136 20 229 106 223 123 21 42 167 62 96 114 173 100 84 226 48 88 127 137 180 205 175 124 87 186 146 25 164 179 212 10 23 215 80 215 0 4 114 167 128 229 209 190 162 227 20 83 66 111 72 162 91 73 49 28 52 9 91 9 28 194 46 171 118 84 191 232 24 107 160 184 211 21 54 74 213 84 2 32 26 59 240 240 211 12 36 176 70 149 101 185 182 140 180 208 207 245 71 206 46 153 204 14
29 188 105 144 54 37 14 64 64 88 19 76 14 210 205 62 30 160 11 100 184 191 188 82 69 231 146 12 172 61 85 240 84 45 14 231 140 141 37 58 95 90 103 205 227 126 95 208 83 234 172 165 36 159 132 84 85 8 77 171 128 201 33 179 17 166 221 226 75 242 8 63 171 41 217 112 219 3 115 96 218 210 200 237 221 47 115 208 68 79 233 234 149 141 175 164 85 35 118 32 16 1 105 32 255 48 230 252 224 43 247 227 97 235 12 121 50 152 122 119 221 11 25 10 105 163 12 8 119 131 11 103 202 40 83 140 191 56 16 147 158 55 254 255 125 252 63 12 246 199 134 227 62 246 19 133 227 237 26 211 103 228 168 15 176 180 33 96 155 15 162 239 215 72 41 156 123 85 4 235 35 94 109 226 45 104 230 138 61 235 166 174 204 84 170 13 24 78 175 102 78 43 128 238 206 74 36 116 164 74 140 189 189 122 165 42 8 159 232 102 146 115 59 0 215 253 141 8 159 153 73 26 82 99 168 51 91 223 6 152 204 205 36 249 190 183 170 111 186 66 185 82 21 212 19 99 193 136 48 82 206 108 249 225 79 64 182 117 204 127 177 220 198 156 166 176 35 93 127 244 169 62 78 246 80 72 13 11 98 69 82 43 216 180 65 228 91 204 133 42
230 164 200 88 63 43 6 68 75 5 76 136 227 142 101 56 171 5 143 5 230 5 224 204 47 109 53 84 73 18 63 236 163 58 55 14 55 86 62 250 97 125 178 218 215 100 179 66 115 130 86 0 168 221 192 187 153 222 114 145 64 58 190 7 238 180 143 65 38 186 199 10 27 130 14 92 124 98 187 31 136 254 170 20 214 48 153 25 193 130 60 70 247 213 192 239 205 144 134 141 198 154 201 41 152 83 89 11 124 168 184 146 91 107 248 199 240 184 174 105 10 64 161 172 76 77 119 195 89 169 54 91 87 229 234 57 215 100 101 156 180 5 9 178 7 134 241 79 23 6 214 162 161 67 235 214 204 246 220 49 204 248 168 108 145 79 85 250 39 255 113 79 187 202 10 10 107 249 66 162 19 2 124 241 23 159 167 50 197 137 231 201 136 233 116 213 151 186 130 42 175 140 43 54 62 130 185 19 93 134 229 144 131 227 89 80 167 152 87 49 17 9 59 36 107 155 98 241 178 119 5 186 119 144 78 100 42 236 158 163 61 203 13 164 58 66 13 245 163 155 231 48 135 220 62 2 45 90 247 81 70 139 36 97 120 183 206 24 199 200 65 61 213 22 70 44 194 122 42 103 126 173 53 101 196 157 236 19 57 244 98 29 28 8 204 165 176 156 22 192
8 31 88 93 237 245 11 15 75 23 82 64 253 197 39 204 127 4 206 0 88 85 50 12 19 81 231 70 81 143 203 196 166 118 196 188 169 76 0 24 197 71 45 41 30 179 153 38 240 71 231 53 162 95 51 72 205 18 58 44 209 110 219 28 71 156 111 46 146 190 82 59 249 30 253 58 141 56 137 138 67 128 127 38 231 184 78 201 168 98 238 162 179 254 65 110 138 239 1 127 203 115 51 9 198 252 68 136 33 31 46 252 154 25 1 52 184 181 31 115 189 205 209 176 35 208 161 252 248 112 103 117 238 183 12 71 243 200 12 190 210 214 8 196 185 203 144 160 249 245 60 225 90 213 137 147 204 236 59 15 231 236 69 89 243 178 16 224 91 215 80 30 25 241 227 138 178 224 219 82 126 167 90 136 171 251 237 139 65 202 163 10 209 185 96 201 44 65 110 9 135 7 79 21 16 164 26 57 244 155 223 215 250 43 35 145 20 80 162 163 16 94 195 181 222 146 228 147 238 189 34 122 196 215 81 41 9 208 19 183 141 202 114 144 40 130 210 136 225 213 174 77 232 143 198 224 207 134 138 118 218 28 154 18 158 234 53 127 128 81 101 186 108 216 137 134 204 169 28 24 4 46 105 160 186 142 47 252 219 109 202 4 163 10 40 41 212 211 134 41
