P3
100 100
255
153 191 78 224 132 251 18 81 221 180 100 176 248 59 112 183 92 30 255 211 123 89 205 233 160 61 216 115 44 98 156 218 68 17 230 146 178 105 191 115 224 178 34 120 48 130 29 218 191 30 14 66 41 75 61 120 134 169 30 223 127 138 201 244 106 69 173 48 187 197 253 64 202 224 14 239 38 230 58 131 238 196 129 139 122 184 29 74 65 134 195 150 145 88 178 181 122 25 129 16 153 94 14 212 37 61 188 179 44 247 165 107 163 10 194 126 216 89 102 223 41 53 13 210 56 39 238 25 206 162 157 103 176 60 199 70 194 212 141 117 128 115 161 151 255 241 8 80 182 66 250 1 180 225 204 217 86 200 99 213 107 5 130 88 52 30 1 179 147 153 86 252 168 251 148 212 175 215 10 139 114 195 7 228 82 218 133 92 196 46 36 38 228 178 86 185 47 255 230 143 55 95 251 107 129 129 249 52 45 53 153 234 95 252 96 186 141 64 249 213 232 141 0 9 117 69 88 114 5 63 38 101 6 36 255 128 113 189 227 199 195 247 78 107 134 136 64 177 33 58 7 184 97 238 154 137 24 177 246 117 196 158 149 141 248 48 56 138 98 58 170 43 91 236 218 98 133 130 218 146 156 94 42 171 223 165 89 210 174 23 217 110 97 159 156 37 10 36 39 209
185 69 5 28 91 104 51 120 207 22 16 10 168 44 253 49 209 217 3 172 118 230 76 164 63 101 196 49 2 214 160 15 198 123 75 187 252 183 116 92 68 12 20 43 216 126 25 72 79 170 192 197 2 37 197 90 67 163 104 86 135 122 255 97 12 191 143 130 213 60 174 211 100 69 171 167 21 31 49 242 242 54 93 224 162 86 145 208 23 200 236 2 68 163 23 5 108 6 215 60 149 76 3 64 153 161 43 95 1 79 149 39 159 175 147 142 97 115 38 72 76 206 54 85 175 210 156 159 230 113 83 100 210 145 6 148 35 63 116 164 226 8 19 211 68 33 166 24 172 205 224 36 151 254 100 86 21 167 19 102 114 154 113 63 117 47 192 73 240 14 208 133 211 121 185 119 4 43 103 86 198 100 63 196 145 221 81 201 67 75 9 147 99 67 41 64 146 169 97 102 156 158 49 196 83 203 134 61 160 26 245 249 106 138 138 135 247 76 163 188 162 198 249 147 253 223 123 242 217 141 41 137 71 41 193 82 40 152 156 89 60 130 185 201 127 129 178 102 24 119 108 19 147 118 200 29 162 57 134 245 174 120 159 52 225 176 131 36 179 162 218 241 5 35 204 142 76 250 58 242 115 103 1 165 3 15 145 140 85 152 117 60 103 124 172 175 53 185 146 119
234 176 200 30 127 223 1 80 53 131 46 47 109 27 129 216 54 7 106 97 222 151 207 197 150 31 239 95 33 54 155 143 175 47 124 62 7 40 132 51 138 150 149 43 90 171 111 83 113 196 43 18 145 80 121 12 251 29 8 3 77 203 96 234 255 97 80 202 84 5 122 16 159 126 27 168 186 197 192 149 46 141 58 93 177 246 35 94 7 6 236 215 15 62 41 252 44 43 71 77 112 4 58 64 207 83 178 219 101 190 88 155 139 116 110 28 35 38 246 213 142 88 67 185 240 97 104 12 44 109 11 77 154 160 221 183 41 164 253 252 253 223 26 137 169 159 229 48 158 36 153 204 23 71 22 223 132 68 9 60 147 12 240 96 63 212 114 94 199 76 105 130 236 154 134 42 134 151 91 144 201 212 49 231 160 111 200 20 206 6 208 148 191 155 17 125 69 144 213 204 199 51 209 123 62 219 194 129 244 212 134 62 7 84 95 183 176 120 38 205 49 112 171 34 35 178 254 230 89 244 86 250 156 50 172 184 66 127 147 86 164 101 158 208 164 215 177 31 154 117 43 177 145 193 108 102 85 86 95 72 66 218 3 241 4 3 223 125 58 32 175 176 121 103 20 204 42 57 116 7 165 48 29 40 159 184 168 138 74 206 111 196 214 172 92 6 212 110 1 156
20 64 229 12 65 158 171 87 56 239 40 205 27 73 230 140 144 168 113 226 190 111 194 129 38 64 66 8 32 224 58 100 99 114 68 163 225 25 86 208 105 194 201 239 144 228 138 241 155 12 101 165 38 150 203 93 0 190 7 135 126 213 196 178 205 139 182 39 179 145 44 38 67 236 59 146 108 50 225 70 4 208 218 64 187 30 88 217 138 47 220 52 213 248 8 136 88 37 92 212 166 18 148 146 210 200 183 214 240 189 190 133 13 54 8 120 50 192 247 60 145 149 251 51 123 102 26 144 209 4 34 2 30 44 250 83 137 213 73 137 20 199 138 144 249 210 183 101 80 103 185 19 163 122 28 221 25 54 10 60 110 170 229 141 72 39 78 65 26 6 3 10 107 254 70 142 15 158 130 152 172 40 233 168 31 162 18 245 47 117 61 98 193 207 158 176 15 63 38 75 147 25 207 27 28 34 70 195 210 208 254 169 74 13 79 87 211 50 106 123 202 226 78 203 77 215 247 223 36 238 5 123 61 43 163 244 240 254 10 184 239 209 163 63 206 169 180 44 16 190 232 16 171 22 39 201 168 217 37 214 191 6 31 132 175 207 221 254 92 166 14 236 97 253 167 169 228 215 63 119 213 136 216 42 155 237 25 199 173 9 171 161 5 103 43 48 82 105 155 165
236 218 191 151 173 173 236 87 229 130 188 175 54 110 13 98 132 199 110 121 218 26 87 180 44 30 34 15 246 47 52 91 210 48 236 176 54 61 173 199 211 128 176 245 170 158 139 131 61 18 173 7 84 173 84 255 137 140 130 175 222 22 140 45 88 25 211 66 230 87 82 142 85 250 196 171 160 173 167 6 206 15 72 132 118 92 112 144 238 148 147 47 226 39 124 162 172 41 79 172 87 36 177 213 111 38 32 111 230 176 8 42 134 246 213 168 174 14 24 232 161 214 224 73 126 184 101 126 253 117 135 156 187 193 49 114 198 241 159 217 194 226 141 61 147 251 86 66 213 160 13 182 136 170 60 132 46 112 187 133 173 8 159 197 4 84 191 157 60 180 161 200 146 156 186 136 226 139 19 171 33 2 39 232 51 93 104 95 75 88 150 146 155 56 21 88 17 69 119 10 40 57 249 146 87 36 39 220 116 31 82 136 255 107 27 122 245 45 63 233 125 214 187 213 254 71 170 219 245 12 181 88 73 129 115 180 32 159 188 115 251 123 85 148 117 180 122 94 111 150 29 64 165 138 187 7 26 145 154 62 41 68 56 166 36 50 132 130 162 160 152 120 46 52 144 127 49 132 249 19 90 57 184 186 137 123 205 101 5 181 10 177 190 22 78 218 83 45 149 164
57 76 106 142 71 137 48 38 168 184 227 67 165 169 75 76 238 132 105 137 104 250 77 215 113 73 125 230 247 23 97 136 69 221 9 168 19 75 249 204 20 82 138 170 203 82 190 80 223 54 181 221 161 44 105 118 34 34 94 144 227 83 212 55 190 228 184 104 143 23 174 253 149 182 146 81 251 45 25 3 252 228 15 105 25 123 123 151 3 236 210 65 249 94 9 18 68 57 91 99 1 111 7 4 112 45 226 174 122 160 186 37 130 49 67 97 202 226 246 108 204 212 77 143 30 243 68 143 192 107 13 159 222 34 39 54 50 79 184 8 233 54 88 182 155 188 22 172 176 78 11 17 244 192 22 55 75 110 171 139 218 138 252 84 108 172 164 225 214 52 158 106 2 61 116 150 6 42 249 193 246 123 13 55 229 196 69 90 41 36 216 245 68 39 19 183 28 84 151 219 190 138 178 178 88 220 125 16 59 138 194 240 136 141 182 45 171 252 167 59 3 76 229 202 246 230 115 112 92 72 158 74 165 213 39 38 193 224 221 99 111 73 122 234 17 6 60 81 213 150 60 135 110 150 89 146 118 213 178 241 46 54 181 184 192 211 94 0 69 11 153 66 1 138 102 242 198 66 49 12 102 97 22 89 67 69 148 199 50 180 104 89 163 171 170 82 241 162 87 187
64 19 173 121 138 43 141 19 179 199 99 77 77 197 171 224 163 154 59 102 73 146 169 27 196 34 65 102 161 104 78 55 35 80 205 14 148 41 127 73 240 81 17 197 190 36 4 105 181 237 6 41 246 108 84 7 223 58 80 6 248 145 210 170 227 217 222 214 49 29 145 66 112 56 131 148 185 168 92 206 183 123 155 199 161 126 220 177 151 102 224 153 20 149 137 111 151 222 16 157 162 71 203 123 189 32 44 215 250 36 99 101 194 65 135 75 7 116 200 254 1 46 220 15 208 113 70 33 9 38 7 68 93 190 22 4 63 9 238 164 94 249 26 122 101 179 125 170 137 144 221 127 115 226 225 203 180 225 137 205 34 11 206 66 47 229 25 175 115 31 220 159 203 179 250 232 219 4 182 120 117 249 67 21 211 49 44 35 13 54 22 10 97 68 143 35 8 23 238 143 172 166 47 86 114 190 14 164 239 43 200 63 0 187 198 231 23 182 15 105 98 108 251 77 42 121 18 166 87 106 40 92 230 205 20 5 148 159 17 99 168 144 191 195 188 179 33 236 238 236 233 214 120 52 94 175 195 235 134 215 62 100 7 19 209 61 177 229 9 241 23 231 117 72 72 142 17 85 93 42 234 196 227 23 247 247 124 197 71 63 184 18 239 54 251 18 17 190 225 123
247 86 220 79 68 195 82 67 169 179 167 177 236 12 66 6 175 213 11 57 18 143 44 66 231 192 136 134 184 161 215 125 174 191 45 151 223 208 82 177 218 95 184 25 232 169 185 178 122 107 229 30 35 50 27 124 68 11 70 6 62 103 100 134 12 179 251 199 102 132 123 109 191 29 188 218 132 204 168 17 106 163 55 28 244 255 131 15 208 48 240 99 16 90 204 168 21 69 19 60 253 251 110 52 234 3 68 109 149 193 0 14 181 105 127 52 130 238 65 64 237 145 79 236 188 92 88 187 139 24 33 208 127 191 158 51 247 110 70 106 177 72 154 227 136 68 132 64 248 194 184 194 187 100 143 101 206 4 195 90 50 117 217 178 153 65 160 70 59 11 22 164 233 227 111 229 234 24 223 31 36 6 222 149 55 134 163 63 78 245 109 54 237 255 45 1 215 50 28 131 200 240 108 91 183 175 233 175 232 182 208 197 255 161 157 25 153 133 237 196 143 127 112 224 160 95 105 207 132 184 215 111 97 101 57 193 168 32 78 85 199 145 124 76 214 167 107 88 232 232 27 19 145 154 122 75 90 153 36 197 224 66 157 117 212 239 42 183 184 102 23 247 14 70 35 87 237 190 66 82 71 40 75 20 55 113 110 231 194 9 237 69 156 203 234 3 182 188 83 208
229 114 227 204 229 45 169 253 93 132 141 178 170 182 201 94 40 14 55 139 223 113 66 175 230 203 125 239 166 45 62 66 21 102 37 21 23 91 26 43 232 144 129 29 213 98 180 132 207 179 38 227 33 46 219 51 92 179 208 28 65 1 150 129 209 18 149 151 216 106 219 170 169 215 166 32 201 83 104 132 4 122 165 55 160 190 9 48 0 251 216 195 192 195 123 218 82 176 53 106 254 2 241 66 180 202 51 203 183 17 11 78 77 169 146 147 193 181 87 123 98 46 21 121 137 100 86 74 239 4 27 188 78 25 11 156 137 58 118 58 127 78 14 102 104 175 111 130 100 105 0 181 245 154 35 230 232 247 119 96 218 211 203 164 238 231 216 128 170 39 41 245 150 62 209 98 252 92 14 204 68 244 33 47 248 13 89 20 80 16 60 249 73 79 108 116 203 107 6 52 114 74 159 247 198 192 118 73 200 32 1 89 237 46 110 57 249 245 205 54 241 221 138 170 152 7 136 241 49 57 194 17 87 54 220 131 176 8 76 228 254 71 206 137 115 159 207 245 40 209 199 250 117 222 45 130 104 47 242 63 179 183 207 112 81 52 148 205 27 91 203 174 175 240 183 159 208 123 39 200 12 249 188 224 79 181 189 192 41 91 117 224 129 146 52 46 83 98 120 231
208 218 47 183 197 135 205 187 128 130 222 193 6 127 34 76 32 80 141 32 171 128 50 6 230 12 14 223 108 64 135 240 66 153 62 63 143 247 150 69 106 237 87 54 236 221 185 88 44 24 244 208 159 226 60 170 142 113 15 104 40 91 165 26 107 44 159 89 132 61 70 139 176 39 13 64 207 9 90 142 221 105 2 81 90 208 163 176 155 39 205 199 161 133 45 41 221 180 122 91 198 223 140 203 251 87 166 148 243 96 183 156 241 159 103 72 36 233 16 175 216 88 146 187 13 138 153 238 90 176 110 222 64 91 106 193 224 58 167 253 12 117 28 102 232 175 141 185 121 94 80 223 184 30 129 6 182 236 111 204 174 207 92 8 89 79 69 220 58 214 41 161 213 104 26 0 91 189 242 76 27 73 90 58 215 104 1 51 192 179 151 255 212 112 185 140 206 250 226 162 88 98 70 150 41 203 179 149 108 225 3 195 51 159 30 81 6 1 180 166 87 112 145 231 207 129 111 135 139 4 26 189 53 2 49 247 133 77 228 18 160 230 194 119 191 104 51 127 12 145 126 145 232 195 56 164 222 55 147 229 117 206 2 91 48 121 191 72 132 255 84 157 170 45 104 226 114 148 83 251 105 51 48 169 210 173 42 203 244 231 46 225 15 194 7 9 219 25 58 158
164 132 76 34 126 165 92 143 44 210 59 8 29 189 63 114 118 66 109 44 229 124 173 27 49 162 84 95 211 141 88 103 226 41 133 17 74 29 93 219 165 176 92 179 108 132 59 242 134 20 163 100 175 198 30 46 92 143 63 252 54 124 206 81 163 189 140 137 202 216 153 21 59 231 166 235 151 39 59 130 143 145 123 241 158 11 135 16 184 46 161 8 118 71 75 56 248 16 92 152 235 247 120 225 110 171 65 17 168 189 80 226 227 242 51 58 246 124 73 150 184 16 104 127 195 173 179 173 182 102 184 19 69 134 219 92 71 191 58 242 43 207 220 68 149 188 228 159 251 205 119 219 197 16 253 112 61 207 94 39 254 22 190 194 33 217 175 32 164 234 159 216 159 81 60 210 120 101 235 101 36 43 143 179 45 116 86 86 149 72 60 208 77 246 36 69 244 204 131 235 19 211 245 119 160 120 102 99 232 175 229 13 104 6 198 207 231 124 20 214 153 132 221 127 241 52 155 216 26 175 249 185 138 149 129 227 232 212 224 108 34 141 177 222 230 30 99 140 150 223 248 223 213 85 242 188 20 122 210 84 167 221 117 117 39 216 73 218 201 153 224 131 190 203 147 38 218 163 36 54 81 195 251 169 98 50 31 250 140 213 24 98 204 13 126 87 65 61 67 54
226 62 100 123 175 179 85 192 6 3 182 36 132 241 8 105 28 157 204 154 29 82 116 51 196 182 4 122 233 147 235 51 144 105 2 62 178 133 104 29 229 126 52 196 23 189 54 148 62 122 28 122 100 172 223 134 29 199 170 134 117 172 221 238 204 75 172 120 79 199 62 37 206 248 203 223 243 175 245 172 204 153 204 83 41 230 129 211 88 231 180 247 121 204 119 27 78 54 32 90 236 55 1 59 165 86 71 76 168 143 252 72 26 115 17 34 236 225 222 248 227 255 46 175 220 1 99 227 188 153 224 84 219 147 38 140 108 196 150 92 85 131 197 153 2 24 218 125 49 129 124 92 198 148 88 36 63 174 29 200 186 15 115 101 75 156 169 47 221 191 45 3 114 234 171 188 217 212 210 78 182 113 196 190 92 155 223 34 62 127 84 58 124 24 158 28 9 219 15 102 147 129 176 236 100 187 212 19 181 126 229 33 185 112 100 50 172 174 81 214 194 36 193 231 231 25 167 163 55 99 195 24 34 78 243 185 181 228 111 50 199 74 211 219 118 82 57 250 252 56 202 175 207 26 39 44 146 59 106 64 30 61 128 7 177 63 187 35 189 238 181 237 176 134 134 45 238 136 70 102 74 157 159 158 23 168 252 172 70 118 236 109 193 207 93 132 87 73 99 26
187 203 227 78 217 166 3 164 82 214 33 124 48 144 39 23 156 42 121 118 62 22 15 51 180 94 143 1 142 131 49 102 184 163 188 143 131 232 224 0 156 124 163 225 121 254 9 81 20 19 72 139 123 143 197 245 155 233 196 114 254 92 248 201 180 131 85 56 73 73 140 18 60 161 99 244 246 90 198 143 143 228 142 92 236 208 112 254 173 220 27 71 237 139 212 9 126 56 244 105 121 5 63 254 136 70 60 213 128 170 73 215 89 59 31 160 114 101 208 230 110 102 183 202 148 48 156 93 209 170 18 57 14 133 66 205 209 186 15 4 37 177 17 253 9 177 147 189 137 56 135 54 103 181 127 160 11 53 73 247 45 117 52 142 217 200 239 14 97 248 6 226 104 215 151 101 12 95 153 155 115 65 8 91 88 119 73 1 87 32 145 17 234 211 137 169 128 29 18 232 95 1 134 112 34 130 152 140 49 56 121 9 45 78 44 183 63 15 124 140 178 209 142 190 107 87 159 172 141 248 184 86 39 10 191 209 16 252 83 117 225 107 0 118 161 248 156 190 116 188 44 39 8 108 89 240 213 123 242 128 203 56 99 82 237 233 67 251 104 21 23 16 21 59 155 190 100 44 122 100 220 76 223 140 58 39 24 229 146 106 165 159 29 234 160 138 171 58 47 239
188 86 98 118 112 205 255 197 191 236 189 62 2 233 73 194 178 38 46 87 158 85 192 66 3 132 48 35 101 138 52 75 148 170 66 28 163 66 214 241 248 34 35 212 34 163 251 159 112 19 20 6 143 11 221 108 182 223 174 245 60 152 56 244 6 86 31 64 32 136 106 85 158 1 220 248 74 12 44 76 63 155 140 81 233 186 236 221 225 39 23 240 216 224 91 239 135 17 49 74 184 38 241 47 206 159 205 241 20 75 162 180 139 133 132 219 204 76 127 149 65 158 18 161 242 52 20 78 237 74 191 193 78 217 123 25 155 101 85 155 103 247 156 234 100 193 41 107 248 12 121 21 46 131 114 169 172 53 42 29 21 81 56 203 206 23 8 104 152 213 121 49 114 160 145 149 33 156 200 182 108 140 148 11 151 178 96 218 105 14 0 23 134 30 117 89 36 49 220 226 225 54 0 135 247 104 100 225 251 59 242 19 191 171 52 5 113 242 93 140 212 213 145 127 21 235 254 192 91 100 238 61 34 196 50 39 175 161 153 126 50 195 5 170 78 163 155 225 172 35 129 99 160 5 99 170 121 129 94 170 161 138 168 167 122 47 168 72 219 33 227 240 176 141 48 40 28 177 24 105 99 28 88 119 67 72 150 254 25 135 142 68 90 228 207 197 84 231 121 212
251 121 73 119 14 249 143 222 41 25 59 8 213 90 23 44 84 233 200 22 205 186 157 105 125 162 150 99 208 192 144 161 126 151 133 176 38 246 77 25 35 26 82 112 104 71 198 92 159 130 166 201 55 63 180 245 188 248 105 127 76 166 177 131 107 11 242 72 112 155 123 236 42 113 182 183 1 196 77 91 217 87 79 196 64 213 48 38 252 143 146 177 92 248 79 107 67 207 52 242 178 193 61 109 36 38 121 91 78 196 223 169 65 130 131 116 229 134 149 15 144 196 79 61 108 102 113 237 251 88 144 201 132 100 148 245 108 233 236 125 7 227 245 196 178 109 38 167 150 56 156 114 46 163 168 92 47 85 205 224 77 45 12 120 61 245 90 129 233 245 26 7 141 139 230 146 108 62 197 8 86 208 243 6 64 91 58 160 230 5 177 53 58 211 185 198 173 112 91 199 20 98 143 227 241 187 157 158 2 84 22 217 81 171 152 28 67 25 210 182 227 38 67 128 200 244 186 20 138 48 52 163 160 39 64 31 66 62 78 53 125 180 117 37 3 79 206 138 10 108 177 114 65 181 219 105 132 228 167 251 81 18 128 219 16 145 98 150 132 4 8 22 146 113 242 114 146 111 129 225 6 116 189 171 241 26 161 204 10 153 251 92 39 30 98 66 170 111 113 198
138 68 10 96 65 154 49 188 95 12 91 131 195 120 139 210 113 187 142 83 201 249 7 47 250 95 169 187 115 23 48 36 191 243 73 28 87 122 90 2 143 84 145 44 204 138 48 72 242 107 192 24 254 79 117 135 254 240 75 47 174 22 113 153 200 153 47 97 102 164 216 97 161 44 147 87 102 152 109 130 40 7 55 124 197 210 65 245 42 224 50 66 239 230 86 138 17 126 38 59 230 190 96 208 237 151 176 168 56 90 137 14 135 85 84 45 83 212 171 206 24 48 31 67 108 151 112 197 174 165 26 79 157 234 150 238 192 165 205 39 151 70 187 102 247 95 65 0 19 143 242 160 227 91 20 147 246 168 64 223 67 136 15 21 31 127 66 73 152 80 196 230 56 253 99 98 21 161 92 43 114 126 71 4 190 154 161 46 124 247 227 147 217 68 61 250 193 112 216 138 199 211 53 194 15 67 246 234 45 156 76 190 234 86 238 230 222 178 32 189 207 119 183 123 196 255 231 186 213 111 21 12 70 41 2 199 189 170 203 233 201 3 120 212 154 124 177 16 78 21 207 197 89 35 236 10 236 78 146 169 199 18 12 236 92 232 205 51 25 176 95 78 42 42 94 91 124 208 124 222 204 153 221 69 193 180 238 125 207 146 62 126 128 226 34 52 205 251 117 79
21 246 195 88 156 215 137 33 103 196 104 42 133 183 218 85 209 91 48 215 118 162 151 252 94 76 1 199 137 211 107 17 56 251 26 26 130 38 171 163 200 200 35 139 65 251 239 215 216 162 141 231 230 86 108 66 141 29 148 166 89 45 23 120 31 16 104 223 76 113 241 125 114 183 204 110 25 210 118 205 127 133 159 169 121 145 232 8 113 107 209 45 148 70 27 69 10 11 235 174 199 139 4 247 124 110 74 48 117 236 217 134 217 20 237 117 38 112 38 163 113 54 127 107 172 29 235 105 42 120 102 163 41 12 204 57 236 161 48 169 159 131 205 54 108 43 184 53 179 199 166 87 245 1 189 179 62 38 34 69 10 80 112 136 255 113 90 26 250 239 114 146 20 5 253 145 235 79 69 186 56 223 254 92 6 29 232 193 175 88 76 162 54 164 130 70 16 158 83 122 3 23 83 228 58 98 128 128 212 238 230 108 205 231 227 221 26 103 130 71 99 79 45 199 103 19 3 139 138 162 37 114 194 154 52 165 177 133 79 83 38 215 82 131 219 68 203 74 111 133 48 89 169 18 100 111 212 75 122 106 176 132 203 18 44 208 89 49 239 138 140 67 180 59 208 185 39 190 50 81 149 25 231 15 27 165 98 29 112 109 73 220 192 192 182 91 38 207 166 17
217 157 206 48 250 199 246 1 94 203 59 83 199 190 239 46 2 78 182 21 192 250 166 67 100 155 95 4 16 87 10 85 68 146 122 20 178 152 22 126 240 92 56 40 11 151 208 208 248 119 210 85 102 240 60 58 90 78 239 82 2 48 34 48 209 26 26 119 127 196 99 62 204 177 171 184 145 135 129 89 186 216 47 84 156 188 237 77 211 241 181 176 157 112 15 92 133 162 170 99 116 103 186 12 180 215 3 95 175 96 221 78 77 162 102 151 212 105 196 244 147 198 96 0 63 13 7 176 74 204 35 54 199 216 54 212 123 50 171 46 145 90 237 225 160 210 55 131 249 21 100 146 229 27 43 121 142 167 125 147 219 92 41 47 11 160 235 233 33 107 112 200 42 66 89 104 86 218 103 112 191 52 223 3 253 244 239 70 124 175 157 168 78 98 189 171 173 94 249 100 162 64 241 2 235 180 77 205 51 51 43 76 63 163 136 30 87 40 119 123 237 104 138 88 85 218 109 249 191 158 227 110 244 233 61 192 150 167 145 49 147 83 27 68 133 96 33 2 231 8 152 79 152 74 218 31 6 85 254 233 97 168 26 237 13 235 206 56 228 173 158 227 98 142 172 55 11 231 88 2 244 183 8 168 162 231 173 142 187 33 157 94 252 152 245 209 145 16 176 131
52 33 252 78 63 205 66 195 164 205 180 164 242 240 73 44 27 63 239 113 33 5 92 131 16 100 250 146 177 222 7 201 66 193 252 21 61 137 120 209 200 185 193 119 240 248 15 4 243 214 38 64 99 117 80 41 212 46 77 226 74 73 143 24 52 123 12 63 79 119 134 37 58 98 123 198 83 81 65 88 40 203 2 61 200 92 129 83 88 237 12 235 164 212 152 38 46 144 220 245 160 73 14 7 147 2 246 115 33 78 68 224 89 23 171 185 65 170 217 183 116 224 111 84 211 244 210 148 228 166 160 238 135 71 5 61 129 1 174 141 147 151 182 136 254 243 75 58 60 184 141 7 55 151 201 200 218 121 49 127 214 176 5 206 124 151 233 7 204 239 188 168 147 10 165 255 86 123 54 206 19 147 28 105 115 104 122 194 36 197 115 105 190 27 252 237 226 85 76 246 246 158 243 8 63 152 33 81 174 112 249 192 175 247 58 11 83 121 72 195 41 157 102 244 36 54 158 204 106 67 98 25 107 100 42 88 82 190 232 170 165 72 178 217 234 213 155 32 36 28 177 20 70 250 31 122 4 37 142 100 146 154 187 201 220 251 176 145 58 140 93 76 193 227 245 23 142 232 118 113 48 100 55 184 101 16 129 159 52 250 236 202 57 52 88 222 151 168 10 73
156 40 94 177 27 55 5 120 159 70 56 36 241 181 26 132 224 171 225 162 230 205 0 14 176 5 156 167 51 189 73 59 30 41 153 184 164 13 94 12 174 154 15 52 132 186 10 188 57 51 238 180 207 131 70 180 33 23 11 56 237 39 124 108 159 43 155 234 92 223 115 2 234 89 143 114 6 139 224 45 246 102 111 36 254 70 104 161 29 250 122 70 53 190 250 147 201 250 156 193 20 144 77 162 167 92 60 254 132 119 252 234 219 48 40 30 136 37 56 33 254 152 76 236 152 165 242 244 19 31 122 130 25 133 36 132 255 94 173 122 191 237 25 250 11 82 17 170 22 185 11 51 95 37 161 80 181 7 180 200 195 210 74 242 234 142 197 32 229 44 123 112 151 155 56 243 101 189 133 41 69 111 115 214 172 222 133 189 222 105 133 57 224 212 100 75 92 0 219 101 67 111 243 187 216 251 176 120 121 31 134 187 116 160 124 148 82 191 186 125 237 191 212 230 107 159 237 33 1 9 101 81 197 196 255 110 2 94 143 244 113 27 146 57 88 46 164 29 103 94 208 202 12 111 133 217 95 34 49 238 43 150 211 210 215 169 239 240 187 28 218 235 105 89 77 40 93 79 214 110 187 90 208 178 251 77 96 105 222 85 26 39 234 137 26 171 126 165 157 172
242 122 183 67 190 43 20 237 122 108 198 12 124 119 249 105 136 249 122 47 157 113 247 82 136 71 209 6 155 20 175 30 47 226 213 233 121 151 68 208 108 129 17 93 147 168 9 142 254 143 240 73 87 110 181 48 192 220 125 28 21 36 30 72 237 190 81 225 79 157 244 131 172 219 245 206 37 50 133 105 115 70 239 79 211 245 237 55 19 211 29 161 43 236 12 231 108 87 172 179 81 23 2 237 65 51 96 179 209 116 220 140 244 211 128 43 50 119 79 200 12 59 11 73 223 41 245 183 181 142 247 232 194 10 41 60 30 33 10 201 223 167 254 105 0 21 137 85 136 24 49 63 181 81 71 212 120 129 195 22 128 6 225 88 45 18 134 60 55 166 72 63 235 140 87 176 207 55 31 94 210 35 10 120 134 94 242 42 163 227 36 249 102 47 84 116 140 87 189 214 203 10 72 16 203 247 186 67 135 24 94 28 133 185 209 105 45 168 67 163 151 220 166 128 93 234 147 57 123 240 211 23 150 90 235 146 237 58 89 213 152 237 82 193 165 126 98 25 226 136 69 94 208 40 1 128 113 99 154 50 56 210 191 14 53 67 84 123 250 82 232 141 84 235 44 96 244 6 137 58 98 19 157 68 231 182 155 168 192 238 107 114 43 215 10 26 199 128 122 124
2 211 166 177 200 100 134 161 221 117 103 12 15 58 108 138 24 25 253 236 28 215 0 185 38 148 254 59 146 46 245 120 130 11 253 76 35 200 214 0 134 43 45 48 222 12 206 90 70 47 111 236 160 152 239 123 99 241 61 58 197 247 104 39 53 219 91 144 32 173 0 42 83 75 250 223 51 237 150 237 37 213 236 229 42 99 36 130 90 53 212 59 133 170 175 210 176 177 135 122 134 108 73 102 226 189 59 135 85 240 249 161 63 55 151 139 220 219 51 98 253 112 171 70 43 100 206 243 16 192 144 126 219 40 142 251 46 77 123 26 82 52 106 204 232 107 154 255 134 118 32 238 218 98 24 18 79 163 231 78 39 67 160 3 13 46 133 166 4 159 175 108 158 164 186 162 119 255 180 125 148 159 216 179 129 137 79 76 85 138 61 123 41 32 91 35 80 194 78 160 238 164 48 254 224 106 81 25 1 163 151 127 171 143 0 211 222 80 130 0 74 143 140 114 47 201 236 148 14 98 86 239 163 123 158 89 47 190 1 101 73 49 97 184 244 81 215 138 192 38 183 11 99 139 114 240 105 159 83 243 155 110 53 163 116 123 156 38 250 26 69 137 31 40 180 237 136 179 85 74 160 154 212 254 169 254 251 79 44 210 71 106 154 55 13 167 44 66 219 44
118 127 50 243 113 233 68 121 197 44 176 176 218 28 169 197 181 165 151 64 125 99 196 58 94 183 87 129 22 129 152 178 139 200 13 173 89 60 145 69 100 3 37 25 62 138 22 113 245 247 229 140 145 189 88 100 186 26 87 210 56 5 14 150 104 241 60 166 233 135 28 112 215 130 80 185 2 42 75 137 219 43 28 63 171 177 145 221 45 63 169 220 145 58 49 66 93 102 19 102 8 100 165 117 172 15 170 107 55 3 19 21 17 238 236 128 77 75 128 28 158 229 10 148 130 201 171 231 146 84 112 120 63 70 10 101 20 46 4 21 253 36 215 180 45 118 185 105 226 4 85 209 250 175 66 106 210 3 137 117 28 177 46 2 164 240 198 167 211 188 178 27 13 242 59 119 74 0 44 8 141 9 17 99 77 100 31 222 65 216 181 253 162 9 124 133 243 83 38 157 225 162 231 53 188 56 244 215 114 110 73 225 241 58 12 146 42 153 102 53 214 186 136 235 246 77 187 230 201 94 255 80 35 233 70 150 57 82 224 68 132 108 106 136 11 209 128 190 180 116 108 241 138 109 172 141 91 170 228 147 224 243 136 9 230 170 69 228 234 2 69 134 224 114 70 174 76 110 46 224 253 96 100 50 134 197 233 46 135 227 107 77 145 202 161 183 166 243 156 108
39 76 38 143 146 247 170 70 199 15 45 126 104 249 70 157 18 181 43 52 126 0 156 215 75 172 156 142 109 206 11 181 96 160 151 90 88 233 75 113 49 81 125 128 179 147 61 74 243 133 118 215 56 101 36 48 131 189 249 106 37 154 250 245 161 166 61 149 171 166 150 43 9 152 178 156 33 53 165 206 249 149 141 251 183 221 188 223 179 16 78 144 252 147 109 163 13 86 154 178 98 251 184 72 68 146 245 241 174 96 44 125 97 194 238 204 127 110 31 160 116 140 47 243 206 214 25 37 224 42 73 246 205 231 33 199 112 63 33 83 232 239 75 184 105 51 5 125 226 241 69 116 125 90 25 10 55 128 198 78 43 96 115 71 212 114 120 57 235 98 69 85 115 5 113 168 170 224 194 0 8 107 89 67 52 200 66 146 100 230 152 105 28 138 176 6 112 179 67 125 27 180 188 15 99 67 78 56 202 107 214 85 195 246 240 11 132 218 139 172 195 181 19 244 170 240 91 122 79 92 212 160 77 189 170 223 150 75 216 204 127 122 56 42 250 120 226 111 115 122 26 90 179 78 149 159 88 168 60 173 6 22 222 19 229 187 77 4 218 114 80 80 166 60 179 187 248 71 116 2 157 136 65 139 175 182 15 60 235 88 238 92 228 42 132 253 135 67 167 119
242 181 26 70 17 16 151 126 17 86 48 229 31 164 146 130 211 71 5 100 35 21 88 240 212 249 55 53 111 179 204 238 44 202 230 230 28 212 150 58 68 65 172 17 189 114 22 29 186 255 181 147 160 155 212 241 174 19 236 232 26 218 103 101 186 75 153 19 71 35 203 222 201 208 138 171 88 31 73 18 237 36 184 42 9 114 15 148 115 41 178 221 162 60 248 106 12 253 142 1 69 16 1 164 193 244 250 229 234 144 147 150 5 237 63 43 190 188 134 95 243 204 196 213 234 118 196 137 12 10 246 224 229 50 41 19 72 161 36 96 135 168 50 185 176 248 156 235 157 120 107 44 41 139 254 144 69 130 105 61 204 239 36 248 173 174 244 41 137 14 61 194 118 228 227 121 171 214 236 213 197 171 137 168 115 191 205 3 215 70 184 213 250 63 244 172 50 132 47 21 101 84 101 126 234 207 27 142 1 102 201 27 236 2 254 150 179 226 152 121 102 102 21 153 157 218 3 112 237 156 93 22 170 177 61 17 166 246 16 238 204 67 129 63 19 111 137 216 97 182 161 14 58 193 207 83 102 203 138 116 253 207 0 51 37 105 104 49 208 60 89 24 160 26 23 159 17 193 5 200 230 106 63 216 227 97 6 131 22 17 201 12 100 41 165 155 38 248 223 164
255 104 73 130 59 43 47 12 86 31 219 147 142 56 201 99 31 210 77 45 103 245 131 134 86 85 155 96 178 190 150 143 235 7 199 222 153 57 172 150 103 52 250 82 133 79 153 24 192 252 192 77 84 217 145 188 108 211 250 63 176 79 98 178 29 174 161 124 148 10 157 239 236 115 6 247 251 193 196 139 126 45 253 171 114 219 118 138 237 214 127 98 96 201 217 225 90 78 211 78 147 116 4 3 148 215 170 166 97 44 132 36 197 73 14 239 127 253 24 214 57 18 229 26 166 190 201 253 101 81 56 131 64 122 92 154 57 209 80 28 63 47 210 217 93 239 149 138 117 222 160 15 199 229 108 77 242 217 3 41 125 147 28 200 252 231 176 149 71 252 200 6 4 63 176 35 98 0 88 150 198 113 220 223 25 135 195 106 72 120 176 166 9 236 24 162 185 47 64 230 129 176 175 227 172 83 3 247 177 15 223 175 186 138 184 167 205 216 252 110 192 146 0 6 96 107 201 175 113 137 236 198 215 55 226 147 12 63 82 36 228 144 148 174 131 239 145 246 137 18 236 254 209 26 234 214 204 61 177 201 6 146 244 244 25 109 188 149 19 130 127 230 1 196 11 74 154 123 207 47 131 119 139 55 44 34 231 37 31 50 59 73 13 59 221 128 100 220 179 190
22 51 42 221 228 126 90 207 43 100 28 22 20 210 26 207 21 250 206 74 213 206 56 129 239 100 43 251 211 55 187 25 194 213 29 167 158 212 243 176 225 181 12 200 62 116 66 224 15 115 16 141 67 2 96 66 247 123 186 139 210 147 222 61 69 189 65 75 192 186 81 26 96 168 179 230 180 176 115 132 3 68 104 159 123 20 217 124 183 189 35 190 254 134 129 44 86 61 240 249 94 218 126 22 243 61 250 131 129 171 76 22 66 13 241 211 22 11 35 28 250 104 121 79 237 184 144 141 199 25 97 10 43 205 14 216 50 252 192 91 36 55 187 139 222 30 251 0 233 109 172 23 113 107 220 153 91 56 131 146 253 47 123 45 247 52 97 211 99 111 105 131 232 213 194 28 157 82 210 227 151 113 184 12 236 39 110 61 53 65 50 120 26 155 215 234 47 32 186 13 226 135 218 15 7 128 84 174 142 48 186 99 146 73 172 101 227 162 155 211 70 160 8 205 187 175 97 112 171 247 229 225 17 210 120 158 30 43 109 0 73 100 38 94 69 63 12 237 205 141 161 151 132 146 165 228 81 86 212 97 128 29 111 70 220 108 93 225 40 71 109 94 112 46 160 238 91 17 73 205 87 67 124 82 167 145 28 187 38 176 63 198 156 252 51 222 162 18 14 236
131 63 129 198 147 67 127 181 116 5 213 227 144 173 46 46 205 158 117 23 60 31 248 104 151 123 188 9 149 15 216 239 215 164 142 117 186 163 129 171 157 19 118 207 75 188 183 56 36 36 87 112 250 117 103 233 101 132 46 145 184 3 150 181 18 167 202 99 225 249 26 156 55 204 58 74 187 148 136 75 238 36 219 167 191 184 151 249 56 122 65 190 185 90 28 163 68 1 254 7 148 43 22 121 25 197 244 20 37 65 118 12 121 2 253 161 109 184 74 10 254 166 218 163 239 223 139 186 56 174 224 152 0 225 104 53 223 208 203 78 49 145 30 69 230 189 180 2 4 85 228 138 133 203 239 195 145 49 52 35 235 155 125 216 70 229 247 26 28 230 48 31 92 226 77 179 143 72 151 28 98 49 159 140 157 40 32 236 239 137 11 195 253 192 144 50 6 83 145 176 98 228 29 240 84 243 192 168 88 166 242 50 221 61 203 196 50 189 87 22 176 218 12 29 125 150 70 216 52 213 117 165 95 81 16 213 87 38 47 137 210 233 6 71 213 60 138 165 123 181 48 67 168 241 163 65 56 7 240 99 255 70 71 16 155 19 98 176 112 99 24 231 75 6 27 226 146 6 167 74 164 128 48 248 89 137 218 95 65 20 20 12 200 232 182 6 220 188 86 57
122 231 220 168 86 18 81 245 228 240 191 157 237 249 232 151 208 69 33 139 170 210 152 225 139 18 184 188 121 171 186 72 109 237 1 224 3 158 104 60 64 123 89 175 54 61 93 240 69 31 103 106 251 115 118 79 249 107 119 34 158 89 215 56 13 178 148 186 47 39 63 211 121 94 202 50 222 196 51 20 219 105 225 247 11 140 144 183 251 67 18 104 196 133 234 253 162 216 17 37 192 141 148 79 241 120 123 26 110 58 97 9 202 82 128 10 5 69 91 46 116 54 249 93 64 30 191 246 230 43 149 60 21 193 29 162 26 65 143 139 42 236 199 254 61 116 3 40 60 145 130 73 5 252 185 55 140 245 10 56 96 244 196 194 180 26 219 205 29 143 148 183 160 86 130 85 180 73 67 209 116 115 197 210 42 200 186 109 132 52 174 36 9 227 6 12 29 21 129 199 198 178 236 192 250 128 237 115 174 29 41 163 53 158 138 176 88 197 136 140 129 32 202 166 198 177 217 196 226 52 239 60 242 91 147 90 196 140 242 36 77 151 239 11 178 140 182 42 136 62 54 146 2 82 167 225 246 183 114 12 37 114 196 159 255 13 206 6 13 29 78 125 100 6 81 104 249 217 14 54 44 95 15 214 33 177 11 16 82 197 18 212 175 139 195 202 6 156 112 25
83 226 201 168 66 240 82 16 168 160 176 50 119 118 244 217 215 45 181 71 147 235 221 149 100 51 190 57 218 237 21 13 101 212 152 99 209 226 82 234 20 86 146 175 229 8 35 41 208 147 119 29 212 219 171 187 167 84 28 28 78 20 179 40 158 229 79 196 151 48 220 184 25 197 174 111 104 12 169 38 111 52 204 252 95 105 189 234 152 201 109 159 75 1 95 137 112 53 56 110 16 146 109 56 162 110 186 247 15 10 249 151 70 30 89 75 192 21 137 218 77 89 182 128 104 66 107 37 89 116 76 172 129 204 33 181 171 24 217 4 7 147 89 221 139 181 220 221 129 61 218 144 104 10 169 241 203 51 201 215 46 238 169 97 97 143 126 98 185 140 249 9 81 71 170 35 27 158 220 196 155 102 228 42 11 235 76 246 69 178 61 211 177 153 248 175 238 175 234 41 167 137 78 176 18 78 151 151 84 24 63 207 110 164 184 140 185 208 97 134 66 119 150 97 144 80 174 62 21 56 223 34 249 80 223 145 137 28 247 24 30 126 102 229 167 186 21 120 177 189 184 213 129 4 227 44 4 62 169 85 195 247 68 110 52 16 63 197 187 250 57 130 82 167 195 219 110 111 80 44 225 126 111 244 183 237 10 81 231 100 204 211 134 48 9 45 63 177 40 179
218 194 101 157 112 241 14 246 65 188 193 133 66 130 44 243 81 106 191 184 142 133 19 43 214 213 234 239 115 154 32 44 135 42 196 114 33 83 119 96 3 195 220 251 38 72 184 184 20 213 55 233 86 205 107 14 225 166 3 43 230 214 37 174 231 207 249 56 30 18 152 248 252 47 131 135 158 158 161 148 11 154 142 203 140 107 90 89 184 252 221 244 45 234 200 198 175 0 73 149 135 205 209 210 242 29 147 147 196 40 188 31 73 56 85 30 205 121 21 29 250 233 199 185 138 74 127 180 159 3 29 27 226 195 218 70 129 70 211 9 245 142 140 186 137 88 0 191 223 61 38 181 161 151 53 22 152 122 47 235 211 168 135 156 169 44 55 211 168 209 221 112 63 105 48 212 121 236 198 22 181 106 174 101 203 100 113 194 226 173 60 102 102 226 63 216 212 67 122 200 49 123 79 36 142 127 204 8 226 126 18 250 96 100 171 226 55 47 21 30 94 63 104 35 240 138 245 4 223 122 115 222 246 138 54 212 233 148 156 91 188 64 61 5 162 37 210 58 96 46 48 0 206 255 172 170 220 175 187 7 166 84 250 240 218 53 59 129 183 122 241 112 112 135 171 33 231 248 111 6 3 141 155 31 178 216 49 84 52 45 243 211 26 166 51 105 244 232 92 238
124 154 110 254 159 39 235 124 199 134 30 217 84 129 126 209 180 184 215 226 39 30 44 144 196 69 244 250 96 1 130 127 226 43 16 97 51 53 212 183 61 62 105 127 5 230 131 159 252 3 113 16 210 99 195 41 74 19 142 29 100 147 17 69 181 123 226 58 38 47 206 64 41 166 168 126 110 214 201 131 153 18 228 98 40 208 188 181 237 153 135 131 37 151 116 42 170 129 164 134 120 216 90 190 241 239 1 252 165 154 4 80 238 128 152 190 38 19 111 159 228 91 82 148 65 198 94 124 53 90 61 158 2 36 238 251 150 177 74 239 240 129 220 72 164 88 114 107 30 93 241 127 130 14 149 203 29 253 116 137 242 39 148 74 149 37 20 3 134 173 125 172 78 136 180 98 244 61 210 52 147 233 141 183 203 91 72 70 15 92 24 125 197 69 122 80 177 135 111 65 21 61 228 193 229 58 47 35 33 180 29 6 91 175 219 6 64 210 65 73 96 60 111 17 94 58 248 207 158 69 73 154 242 139 167 180 219 31 100 162 14 87 198 104 204 199 88 198 203 31 139 178 184 79 177 186 129 188 150 182 198 144 52 160 185 192 99 193 153 92 41 36 53 63 158 108 51 45 204 150 65 200 254 217 131 106 72 72 86 94 8 167 94 29 70 92 38 32 218 46
223 137 247 57 42 111 136 208 71 32 223 121 173 99 176 85 253 9 28 34 152 29 153 61 47 35 192 124 236 142 159 160 145 181 65 38 32 228 240 45 9 97 2 118 231 249 18 26 187 100 61 170 33 225 61 166 200 27 179 10 147 112 154 89 116 185 223 22 202 45 46 90 112 15 243 223 11 210 228 4 46 125 236 82 212 111 1 77 195 126 3 245 6 76 152 38 124 57 255 250 39 160 233 19 126 223 156 139 119 235 46 130 150 186 43 154 210 92 79 77 76 218 196 53 151 239 117 164 118 196 57 128 186 109 178 74 64 42 0 188 81 89 31 186 7 41 232 151 114 150 208 51 38 41 217 19 189 21 162 92 104 9 147 100 234 210 69 46 131 48 122 171 222 225 193 144 38 58 13 250 238 165 215 150 93 234 204 68 95 109 251 4 254 56 241 113 197 159 0 21 79 37 104 10 183 177 192 29 105 60 165 160 205 49 23 103 116 28 1 216 89 77 210 58 155 10 82 195 184 188 213 140 113 189 111 226 243 131 92 233 97 56 89 191 161 164 1 40 128 125 229 221 42 110 99 150 214 209 155 49 122 74 88 145 85 236 227 23 4 37 9 73 119 85 184 216 45 178 178 234 121 32 247 220 65 131 55 181 91 128 92 36 207 220 163 175 168 7 184 53
48 168 110 156 63 208 149 73 166 233 97 164 191 202 200 15 252 119 79 117 50 183 86 241 138 183 198 213 104 22 187 6 104 174 209 83 183 175 157 41 169 128 180 118 52 235 130 187 255 14 41 82 201 200 224 29 116 226 8 254 51 1 112 216 133 3 214 113 70 86 146 36 76 183 182 178 192 247 249 127 47 64 25 242 82 237 15 212 49 175 210 108 176 84 230 192 101 72 210 189 116 198 52 99 186 10 61 224 51 37 224 253 163 140 86 144 231 109 157 195 241 23 173 121 173 128 206 200 247 131 19 5 167 242 63 136 248 181 61 236 104 224 197 12 211 188 152 205 84 41 68 28 172 32 248 232 228 218 31 235 89 61 113 17 131 0 184 27 79 112 99 51 149 90 254 47 130 185 180 92 88 253 234 25 62 179 13 237 81 228 144 102 154 227 112 7 204 243 113 61 5 209 32 10 251 95 159 5 102 6 242 175 123 192 246 147 106 247 210 194 54 245 14 122 34 160 110 98 8 71 1 45 90 92 231 70 89 91 129 255 54 138 25 241 7 202 106 147 180 75 76 33 237 134 220 58 136 47 234 130 108 157 169 106 231 25 155 84 188 131 239 143 83 223 84 220 16 61 92 19 67 110 167 11 178 158 171 51 97 38 118 79 175 78 226 209 128 48 70 228
3 141 143 226 120 169 23 169 185 55 61 41 199 42 184 198 20 20 84 117 37 3 28 235 205 55 248 98 99 251 42 145 250 203 252 217 126 232 90 139 131 65 4 1 179 189 140 143 84 141 154 100 217 46 102 54 13 165 233 141 108 60 168 89 189 100 225 141 122 99 228 38 7 80 146 116 237 207 206 232 76 120 205 26 61 54 154 64 163 211 151 57 191 12 197 11 165 52 147 101 72 154 147 38 216 98 119 8 152 107 218 139 59 207 238 63 44 217 13 148 205 115 80 24 228 207 185 216 245 37 93 192 96 23 50 53 229 170 242 233 126 176 149 163 183 150 76 175 169 31 18 28 108 150 18 182 75 142 212 2 19 56 149 24 248 85 107 247 67 146 209 52 161 90 180 75 100 20 123 218 83 98 127 95 191 253 14 61 75 141 8 180 195 135 187 115 75 79 64 138 3 207 64 101 145 102 128 150 131 219 54 203 22 222 235 61 160 108 241 36 106 180 226 16 93 2 194 155 128 211 157 151 31 162 174 125 43 0 37 32 27 211 209 224 65 89 128 62 151 106 91 214 129 165 78 176 87 82 205 72 56 232 124 47 230 132 86 64 94 29 3 47 97 230 122 75 111 7 155 237 239 161 222 92 104 61 97 235 90 100 215 123 236 127 218 98 166 21 152 143
206 160 23 87 242 223 184 55 82 231 12 49 236 163 76 132 213 47 228 232 131 61 34 188 233 93 136 129 23 224 42 181 36 71 149 143 50 185 10 29 59 78 40 56 6 108 103 153 200 255 10 54 151 83 77 29 135 220 184 168 165 230 154 97 133 73 89 84 68 127 5 57 228 79 8 167 147 231 129 66 149 183 34 103 245 255 224 152 127 119 66 27 138 90 193 226 32 175 249 77 144 201 243 42 27 34 244 125 105 52 106 28 43 32 43 6 99 16 30 93 2 59 30 172 117 94 12 80 136 62 79 233 105 116 61 132 152 147 222 74 85 168 171 236 245 29 218 229 168 129 15 177 227 9 123 170 242 162 75 171 229 212 108 106 139 190 10 34 143 76 239 41 8 103 140 51 46 238 170 4 95 92 246 164 238 177 140 22 102 149 170 82 20 189 96 24 46 237 66 4 183 138 6 251 51 154 159 166 73 0 164 60 47 140 123 243 39 120 25 93 231 239 17 124 202 17 84 71 242 150 103 63 94 163 8 100 40 127 148 223 120 49 36 254 144 52 149 24 150 52 3 67 159 214 202 195 155 223 153 2 122 136 160 201 16 84 136 201 115 54 223 36 249 37 199 49 162 16 243 75 112 61 134 194 65 68 179 151 204 212 248 113 88 14 254 209 7 234 160 156
75 49 126 57 193 148 229 175 166 81 219 239 220 48 183 116 33 220 150 76 217 64 218 22 194 101 107 229 170 205 196 209 135 114 146 46 179 110 224 3 43 234 74 163 132 193 125 15 122 31 93 45 161 142 107 67 61 199 60 168 135 161 78 184 214 133 193 148 171 248 113 204 198 36 120 88 105 145 120 215 237 64 40 252 225 95 12 40 158 161 160 243 177 164 23 112 220 79 100 83 47 134 77 241 50 139 207 176 207 76 49 212 245 78 181 147 8 186 248 112 211 252 12 194 149 203 176 130 68 118 82 8 73 117 157 29 66 253 87 80 222 48 140 196 70 112 196 65 207 192 55 52 178 28 198 147 113 145 6 16 170 32 213 249 7 60 203 34 56 254 85 6 209 93 164 184 150 85 121 202 129 125 134 7 116 109 197 15 165 140 72 211 94 47 140 223 166 71 247 109 181 138 49 36 45 11 243 233 147 137 97 167 140 105 71 145 52 3 156 143 85 2 44 125 199 218 80 197 35 90 68 247 191 146 51 212 39 46 132 59 56 171 9 218 70 7 185 252 17 70 162 193 119 157 194 162 242 18 34 108 109 88 220 69 98 85 198 241 208 52 35 208 47 120 10 157 167 65 2 58 214 219 77 155 101 85 6 215 197 210 150 55 253 126 221 254 69 169 200 123
118 166 109 138 198 237 247 40 151 219 235 222 75 95 31 64 119 212 208 181 177 149 106 106 133 159 228 17 11 170 232 18 12 238 201 98 135 83 192 30 7 182 196 133 105 25 103 48 198 155 228 209 13 164 159 33 13 230 151 99 45 204 77 236 154 166 42 127 189 255 40 111 77 25 49 103 211 243 39 26 76 234 32 90 231 222 46 103 187 93 14 45 59 132 226 14 78 82 72 145 169 101 133 106 241 85 94 130 55 247 253 115 177 174 31 196 195 201 160 135 244 2 88 197 184 47 53 125 139 149 36 227 53 54 16 92 34 89 3 126 57 98 97 60 100 98 33 2 244 131 112 248 100 24 186 168 52 231 138 213 31 5 206 213 133 123 151 171 143 225 17 43 54 161 219 138 192 100 115 12 71 156 106 161 255 7 177 248 100 0 11 55 12 212 98 13 251 223 159 209 189 214 135 64 230 209 171 55 128 147 212 100 90 197 185 243 154 202 84 215 166 40 223 114 1 18 131 183 115 74 58 57 42 76 75 169 203 9 246 70 35 251 56 184 219 27 48 175 152 165 15 16 240 160 58 84 65 72 154 129 197 151 138 22 218 97 225 147 224 48 193 84 130 136 204 177 3 251 120 16 147 219 157 181 200 243 250 163 92 247 162 213 35 102 118 199 7 216 216 2
60 10 199 81 227 245 84 116 135 196 91 248 159 234 15 167 177 182 216 116 106 156 251 207 188 201 21 252 200 246 55 115 4 187 196 111 105 199 102 187 80 94 154 199 248 81 98 215 145 171 148 239 30 138 151 212 153 70 43 230 50 67 246 107 32 240 135 232 124 224 237 217 71 248 220 123 91 251 18 24 77 174 96 241 58 67 252 31 147 8 48 125 94 221 187 21 74 62 252 121 44 66 185 230 53 15 219 164 250 25 226 134 171 110 85 211 77 216 20 221 164 78 121 191 6 148 210 7 70 200 116 13 121 182 63 36 61 25 55 141 184 79 82 132 102 71 119 10 223 173 20 191 127 62 109 98 67 143 20 112 245 58 15 87 197 10 217 185 182 0 125 37 141 146 115 231 240 96 161 236 64 178 151 155 125 122 186 69 95 7 208 191 230 227 17 68 213 103 239 171 171 248 55 154 147 150 66 197 49 42 155 30 252 197 245 183 81 189 107 238 5 185 145 58 74 139 236 223 0 18 253 255 75 149 107 91 18 114 188 245 212 6 242 252 34 107 185 89 120 65 45 84 236 234 161 84 183 101 214 9 172 7 105 92 171 27 186 40 248 216 196 142 44 57 94 154 54 171 40 64 252 29 33 57 67 120 33 4 139 95 220 244 250 187 230 81 191 149 141 168
55 243 67 133 229 220 194 1 49 22 11 179 189 112 111 153 98 252 129 33 148 155 56 127 23 66 124 22 166 204 99 189 182 239 137 209 157 229 82 111 108 198 36 148 240 78 180 8 200 170 19 181 42 104 58 127 128 86 127 212 190 120 54 154 34 0 175 55 241 200 106 218 127 193 235 182 6 128 213 49 136 107 42 190 29 74 160 16 94 246 135 85 161 217 40 79 24 153 226 62 167 21 27 238 236 235 89 163 96 211 209 24 204 121 109 14 79 41 83 96 125 173 215 39 158 41 209 43 251 164 0 61 9 102 187 70 196 88 82 183 113 189 5 5 129 18 163 89 199 129 247 206 144 30 78 200 152 65 133 18 208 226 190 35 121 78 247 164 68 23 219 206 170 29 196 44 79 188 129 246 172 171 125 238 38 165 186 108 73 194 28 156 171 252 11 12 114 132 251 194 225 217 234 136 157 170 75 192 70 148 75 199 107 250 232 44 73 209 188 62 161 47 240 128 70 121 27 65 128 5 235 5 54 70 241 81 249 234 105 18 218 107 82 216 16 172 4 141 182 8 196 93 159 100 247 56 3 24 207 206 181 89 202 146 68 139 30 70 64 81 75 108 36 148 178 220 133 120 48 101 102 3 155 75 181 175 218 53 46 53 98 195 112 225 127 113 232 50 70 251
79 193 117 16 26 75 54 243 2 55 96 13 187 30 254 221 254 200 18 162 177 195 196 161 244 140 22 236 137 11 177 68 100 73 27 94 106 103 130 90 205 52 32 200 11 92 41 10 60 149 175 189 234 48 118 247 31 182 76 247 126 47 61 94 123 55 166 102 133 211 159 77 140 19 32 221 165 161 229 161 36 95 100 38 42 38 143 9 201 114 161 106 185 246 104 46 43 3 30 181 9 36 174 136 225 92 200 232 77 105 220 206 231 73 161 245 117 75 48 162 232 145 174 209 230 32 132 198 28 71 238 158 157 55 209 89 88 176 134 243 135 199 160 210 55 220 163 215 5 140 255 8 226 35 237 171 180 246 79 84 133 164 101 115 71 64 153 146 99 186 195 76 133 49 169 191 9 142 23 103 0 226 172 40 213 98 186 73 191 194 209 165 161 33 137 19 123 255 58 20 186 252 205 13 177 36 17 247 136 233 114 250 162 62 46 199 8 167 55 129 62 225 138 150 16 167 247 30 159 198 187 117 75 158 174 85 209 67 85 185 219 203 63 91 126 223 156 29 11 12 178 238 163 74 169 159 210 86 161 49 127 235 208 6 184 218 223 242 183 188 102 207 132 137 189 130 140 153 28 138 172 80 160 162 254 48 136 174 121 175 75 143 186 74 23 108 160 172 100 101
191 241 168 175 211 19 251 11 42 138 182 113 22 189 254 176 16 135 171 0 198 133 222 40 230 143 98 253 4 11 142 101 201 217 83 213 21 19 35 19 84 122 236 195 219 248 224 64 253 113 230 124 162 71 2 30 47 14 89 10 77 74 220 12 60 27 78 241 40 232 45 211 72 148 82 231 52 6 46 58 232 27 0 101 32 150 253 8 174 247 21 229 48 201 16 27 35 240 114 23 95 78 234 40 133 103 167 140 24 210 195 45 40 95 223 13 6 64 178 222 106 69 221 174 165 223 179 76 85 221 245 67 145 164 201 91 15 121 34 80 85 181 17 227 210 230 32 242 114 37 244 0 167 67 83 209 248 110 162 10 154 3 46 205 185 43 252 40 240 167 92 156 80 210 172 118 214 90 94 105 76 68 243 18 144 157 67 51 12 57 244 104 155 39 48 255 161 29 27 65 90 70 185 75 157 248 12 234 2 126 25 25 101 21 58 106 229 235 57 71 156 242 220 0 198 43 40 158 238 151 137 210 28 164 30 74 50 6 195 136 139 113 102 101 4 81 63 31 143 36 142 130 228 35 216 209 163 70 202 123 50 8 55 213 16 140 150 0 144 187 210 24 109 241 153 162 184 5 116 48 108 244 55 107 62 253 70 198 191 11 169 225 21 208 30 221 248 20 191 226
37 146 87 136 55 236 52 6 87 77 177 169 95 143 222 183 118 247 236 7 65 40 19 165 104 75 241 12 26 222 107 115 90 67 252 152 242 4 112 11 169 221 135 156 33 75 134 202 232 196 124 62 183 113 229 53 34 61 73 49 202 110 144 65 176 121 88 101 39 57 197 51 164 103 76 93 44 155 90 188 139 207 145 164 111 96 32 90 113 187 57 225 74 178 47 133 193 161 53 127 233 154 84 140 55 60 191 35 59 30 121 7 213 190 29 77 35 46 128 101 219 70 105 203 234 79 184 202 163 212 246 155 162 150 44 229 142 172 22 176 120 18 13 73 232 222 222 255 205 127 99 46 245 31 191 105 221 57 86 79 162 48 148 24 71 58 43 92 153 209 252 109 30 224 31 241 233 53 216 110 43 24 63 197 160 30 79 188 115 135 103 233 224 65 159 11 253 171 116 147 44 225 160 238 12 127 75 54 143 165 93 236 183 38 142 215 92 183 231 230 96 7 80 31 33 215 45 254 79 45 204 210 132 141 31 232 144 219 223 168 181 93 184 209 114 242 234 207 124 167 166 155 137 92 101 228 31 211 170 153 148 255 1 82 0 14 111 10 245 121 93 78 179 138 231 23 219 145 148 12 70 250 106 213 25 141 189 229 83 139 80 227 87 79 88 223 234 172 102 216
145 100 10 73 119 43 29 57 118 31 11 17 196 184 214 153 83 214 16 136 93 59 105 18 152 253 102 116 154 43 49 251 241 241 231 239 222 141 212 35 130 24 145 83 61 120 2 239 12 230 194 55 128 193 186 41 57 178 88 77 215 145 46 7 185 99 176 233 52 224 73 197 54 149 36 168 114 87 3 64 35 117 138 159 97 194 100 25 217 70 69 91 79 145 145 135 235 54 165 10 197 97 193 199 140 68 28 118 187 14 102 98 123 102 199 98 227 131 130 31 158 7 225 169 103 30 155 240 213 42 150 221 220 198 164 184 63 51 147 70 56 208 222 224 116 93 27 128 45 78 138 154 99 39 28 57 86 208 32 139 148 37 174 52 37 73 151 152 46 111 206 24 228 125 194 102 217 182 114 223 207 109 111 178 196 208 181 217 237 220 131 93 190 71 156 139 65 46 65 166 95 90 132 123 50 49 51 156 140 212 123 119 222 81 215 234 216 83 122 24 202 159 222 250 213 76 133 248 19 255 136 29 188 91 39 110 136 77 159 184 112 17 223 72 233 30 195 80 59 7 117 74 190 16 221 57 123 96 210 85 217 38 230 79 131 140 23 24 223 235 177 56 207 56 73 58 4 110 213 138 30 24 85 41 68 179 101 108 198 128 62 54 38 89 45 135 100 233 132 34
105 136 218 188 118 220 38 141 230 116 71 171 19 250 85 212 176 50 115 188 119 6 161 68 134 87 192 230 134 22 242 250 31 33 177 217 172 178 11 222 81 96 215 33 19 101 53 108 59 247 253 94 252 175 52 202 20 33 234 200 192 165 152 185 135 45 139 13 126 150 42 213 43 234 197 137 65 243 204 210 140 41 191 133 104 139 21 111 29 26 105 66 199 191 153 121 126 145 157 80 88 181 94 230 41 143 179 158 145 15 156 7 49 140 0 136 128 85 222 82 145 54 116 161 40 147 161 219 4 64 253 78 98 244 143 122 39 90 157 9 177 234 210 139 170 107 213 115 198 128 51 96 105 149 58 19 100 188 190 158 165 253 72 200 9 142 63 47 61 18 156 127 182 190 249 59 87 89 32 59 198 179 152 198 108 71 227 36 98 137 53 229 201 223 168 161 19 249 72 209 29 136 35 141 1 96 227 138 152 125 184 177 86 126 215 87 19 44 30 102 125 197 214 230 62 83 8 149 138 91 97 234 73 236 154 53 232 235 78 28 222 179 5 56 105 135 74 18 115 191 109 252 144 118 57 3 157 133 71 40 37 232 166 37 55 109 106 176 162 97 70 195 94 177 231 179 104 57 58 94 179 145 55 0 1 223 63 210 72 106 128 106 224 40 18 52 236 8 236 181
107 248 206 199 206 231 94 88 56 90 10 166 78 28 26 115 202 244 84 244 222 254 180 111 89 166 134 219 39 11 59 164 162 142 149 26 101 183 186 117 109 134 86 31 253 122 73 140 104 97 110 156 217 216 10 98 168 152 145 137 102 137 220 91 239 9 247 27 250 119 34 129 168 194 49 249 33 246 71 34 205 62 92 223 206 120 114 245 26 109 26 71 112 235 144 37 220 62 28 245 162 48 115 188 54 131 0 66 111 188 9 190 107 181 170 22 255 244 226 180 66 36 97 249 192 43 134 219 186 230 109 206 243 180 63 146 94 119 180 99 44 233 202 94 186 255 108 5 15 179 109 183 242 9 125 147 167 237 110 113 151 216 207 228 6 29 170 102 60 143 139 176 207 80 144 88 94 11 6 136 236 252 33 32 226 233 36 100 105 156 143 124 215 239 142 14 137 154 117 100 73 224 143 121 71 117 90 129 8 226 215 39 145 132 13 0 139 48 23 195 85 147 222 218 193 75 246 211 175 59 161 54 96 119 106 73 144 163 87 233 163 176 177 202 13 0 50 61 8 163 141 54 196 206 88 61 20 204 91 16 135 155 214 21 4 87 255 179 151 222 10 163 114 37 22 164 211 197 26 109 60 123 68 33 44 172 141 223 110 90 226 140 118 153 181 179 141 168 33 17
75 142 153 198 111 149 127 171 70 191 205 235 179 44 148 147 120 216 206 243 29 55 72 149 215 124 239 141 35 202 135 58 108 249 251 237 231 118 237 26 37 75 201 23 22 243 236 200 52 3 25 2 223 251 183 9 111 174 217 196 159 13 197 31 7 169 232 193 115 160 107 55 40 198 170 60 176 4 131 233 85 225 217 44 42 125 243 133 122 42 49 193 11 22 182 77 151 170 65 217 250 57 16 102 225 213 138 130 145 252 206 186 244 138 184 74 244 5 109 103 120 147 168 205 63 229 8 145 175 110 252 27 155 149 183 92 233 183 45 132 63 224 100 220 211 90 230 245 168 251 148 60 221 181 219 66 187 184 237 153 22 172 104 8 0 235 242 64 204 95 124 81 222 246 178 50 100 132 102 109 184 54 0 139 129 154 93 217 36 8 205 142 221 25 96 170 252 59 85 15 8 196 227 198 180 65 37 20 120 248 146 201 131 158 30 49 224 174 105 3 141 236 97 239 55 87 20 168 18 222 166 150 217 242 73 224 196 233 199 67 92 33 175 252 185 124 255 135 63 18 163 166 161 194 59 33 30 8 204 254 200 43 168 238 43 215 34 237 217 192 152 110 37 160 86 128 158 21 170 42 102 84 205 229 162 60 132 137 248 166 39 162 127 141 34 11 234 224 12 231
206 126 133 66 133 213 125 31 40 92 70 4 14 199 161 58 182 149 58 54 50 240 146 159 91 142 197 107 62 246 76 108 214 224 145 251 122 252 15 58 179 29 77 253 41 188 31 201 106 123 205 19 46 161 104 18 187 149 212 38 141 168 11 176 177 188 18 150 203 234 59 118 156 70 215 178 148 230 85 64 213 154 27 144 191 205 31 74 22 161 251 13 146 95 196 75 153 37 113 247 161 33 238 218 100 183 88 166 245 96 95 60 129 67 14 170 161 130 126 249 247 89 110 249 123 180 97 68 134 47 98 26 1 171 149 218 113 157 180 178 219 136 164 14 186 184 204 236 127 184 31 136 187 18 199 117 93 117 192 89 112 174 33 98 226 195 47 118 85 78 177 201 109 42 63 119 239 14 53 199 112 124 152 203 168 130 145 96 239 69 204 193 247 35 254 180 108 70 112 141 115 15 110 146 76 108 148 163 94 221 144 79 232 54 128 76 195 245 250 95 160 8 32 166 148 127 237 175 50 82 249 30 104 4 101 199 69 20 230 133 223 132 246 149 131 74 40 62 25 242 129 83 252 122 191 22 93 235 64 62 161 220 143 217 194 24 98 94 171 148 133 240 224 187 142 38 59 198 147 92 224 13 173 219 240 206 174 121 121 58 95 62 79 0 252 248 106 129 43 175
223 24 110 17 36 73 221 129 240 244 183 148 242 70 28 122 194 212 245 119 213 234 42 95 252 120 134 75 27 153 118 214 248 230 67 54 201 59 246 151 76 171 178 234 97 253 207 226 254 104 75 36 141 73 46 48 142 133 145 218 169 101 167 52 99 75 88 59 236 58 224 100 145 192 28 23 187 190 240 83 83 134 26 232 107 229 199 114 240 120 223 196 163 12 14 232 119 103 228 125 105 56 193 116 58 46 0 195 204 178 244 24 82 140 6 144 108 14 27 100 15 108 4 147 42 238 93 222 49 131 168 164 29 254 17 197 7 156 117 45 40 172 14 11 211 35 199 164 85 189 162 190 201 227 192 19 181 4 8 162 245 114 85 159 67 70 251 45 123 65 66 185 158 243 169 182 243 221 178 5 173 175 192 86 97 235 113 40 237 207 132 118 52 108 148 254 194 146 199 184 199 138 2 28 180 133 240 154 73 231 12 173 207 55 116 126 38 228 140 193 14 7 91 59 158 45 60 180 223 71 142 82 108 108 1 218 32 37 93 44 185 72 57 236 41 119 169 182 124 207 38 249 214 208 143 170 17 77 224 138 251 188 123 23 135 159 60 52 134 228 141 182 114 71 102 233 210 236 175 28 109 143 66 237 113 11 38 16 8 202 43 89 66 86 149 72 188 88 29 67
61 156 210 198 93 18 220 191 60 95 111 162 72 219 98 96 205 223 26 205 27 214 29 33 108 129 219 196 42 9 95 44 12 48 201 251 101 250 179 214 64 36 93 151 137 215 44 113 96 108 210 117 230 217 213 205 27 60 91 107 205 8 10 1 14 244 12 42 97 238 215 254 42 246 101 78 28 211 86 185 127 83 226 47 156 69 58 239 87 79 80 155 87 62 0 224 134 117 139 242 218 38 56 40 83 249 4 249 149 83 161 206 141 88 239 84 245 23 87 121 241 24 122 107 203 39 86 224 64 144 40 243 228 154 85 221 20 19 55 16 137 6 144 34 148 221 71 8 52 127 144 163 204 50 173 112 183 190 55 170 236 66 99 239 165 199 118 35 58 223 44 223 254 9 252 109 6 230 234 201 240 153 130 35 5 210 212 170 47 155 49 30 6 144 120 63 181 38 187 126 97 223 7 137 108 21 178 90 128 143 11 124 70 17 250 183 83 38 31 218 184 196 203 133 26 3 20 126 154 247 97 113 88 6 197 102 132 112 87 23 234 190 60 253 209 247 29 31 91 6 10 37 34 126 212 219 156 126 242 113 147 10 69 108 102 107 218 37 213 25 239 189 49 144 37 11 99 212 61 228 210 32 118 146 111 202 57 55 167 66 91 15 39 56 69 37 39 81 56 175
0 107 183 40 37 228 221 192 34 212 74 66 6 238 224 5 236 25 79 142 192 243 25 31 180 219 49 216 9 35 92 12 97 92 168 187 92 42 170 71 23 60 171 215 195 212 203 173 51 28 23 28 109 44 234 81 49 157 237 42 88 178 104 43 179 197 183 37 34 140 134 252 254 35 35 153 9 163 205 34 78 126 5 110 221 243 23 98 51 152 139 227 14 18 89 44 236 37 57 245 31 35 30 14 112 189 203 217 15 133 44 235 83 210 168 204 133 100 138 14 13 215 11 5 244 163 164 18 57 104 117 9 47 178 180 115 102 166 31 93 251 54 75 74 64 208 120 229 76 81 33 93 210 61 140 189 79 74 141 48 25 206 133 251 164 136 246 208 110 26 194 75 147 152 27 251 21 130 189 7 49 193 226 210 27 161 27 167 123 89 120 82 209 149 22 240 101 1 53 236 44 162 186 222 142 39 7 103 63 96 151 176 35 10 53 200 81 211 126 7 231 190 247 250 45 59 30 103 192 144 72 239 155 197 16 30 131 181 19 223 218 64 126 52 165 249 37 140 186 182 16 53 54 40 166 155 107 87 132 172 243 170 75 19 230 144 68 255 105 174 251 220 253 14 72 207 22 184 106 27 246 60 70 197 228 147 95 101 3 197 191 50 58 219 15 129 254 32 133 30
173 239 109 213 209 52 139 211 168 205 126 120 213 76 1 94 143 157 175 238 162 18 228 59 15 136 235 158 95 127 29 157 147 153 149 134 146 184 180 64 47 7 4 212 223 88 178 50 59 133 214 193 155 65 245 5 77 178 0 51 81 235 11 91 23 189 134 132 112 114 30 58 176 70 110 133 58 11 75 87 66 187 155 212 123 39 253 26 139 9 72 22 171 221 154 241 201 186 148 196 156 212 218 207 136 70 162 87 136 8 74 37 76 222 136 140 29 26 110 7 169 245 84 67 84 94 182 226 35 169 30 101 78 250 128 233 218 222 191 76 132 227 189 224 176 63 64 184 206 196 118 185 252 45 199 221 245 1 143 35 199 48 122 170 185 51 137 58 153 235 244 6 69 104 179 8 75 33 2 72 21 86 31 250 151 250 128 93 87 34 137 6 19 87 164 64 227 183 194 131 118 216 67 123 92 1 11 169 221 40 98 57 199 46 166 234 186 216 178 42 158 123 239 157 24 20 163 151 181 28 139 150 81 38 196 160 6 240 159 22 211 17 22 76 15 179 23 2 224 24 9 255 171 37 56 65 44 1 150 179 47 180 76 158 36 206 169 249 217 195 58 252 220 141 164 213 209 182 3 190 90 162 219 115 206 15 31 163 50 174 107 191 63 21 152 235 42 37 161 66
86 81 196 234 129 104 25 56 141 42 207 74 206 147 102 4 8 91 42 102 47 4 28 250 77 162 20 0 249 187 29 89 72 83 140 20 47 83 250 175 248 97 15 95 94 108 67 161 216 105 166 120 110 58 123 17 83 194 182 239 106 168 135 107 97 118 82 190 31 116 234 230 52 20 26 68 0 250 80 123 81 3 34 206 29 69 78 88 205 212 55 216 118 2 91 90 98 96 215 244 217 210 18 131 57 212 18 217 72 100 209 196 124 199 236 80 225 87 206 6 181 142 83 72 202 119 120 26 56 70 20 183 150 103 216 47 214 206 59 189 221 205 248 238 236 164 33 174 63 104 117 50 116 3 151 114 126 64 71 249 151 122 140 1 73 154 64 175 124 140 174 2 225 35 208 82 104 110 132 118 149 195 68 43 222 44 127 25 204 172 203 189 175 145 25 205 218 219 34 139 106 154 182 84 45 114 232 149 124 43 20 213 182 157 143 28 109 30 208 84 65 109 60 128 55 208 233 254 45 106 61 11 30 116 242 141 136 35 166 193 105 219 126 193 78 164 192 116 67 97 34 198 62 201 229 98 147 237 84 43 162 28 156 72 190 72 95 130 211 246 44 166 207 112 114 70 40 126 88 76 213 129 231 28 230 232 253 254 172 233 190 80 6 223 236 254 16 87 59 16
241 104 245 122 60 162 206 128 88 45 236 118 78 39 250 237 84 243 232 0 154 163 29 234 182 237 92 199 101 58 189 128 72 13 172 83 204 0 45 23 75 108 208 243 95 176 241 159 180 59 121 225 150 138 122 66 158 247 76 52 229 169 95 137 9 193 74 224 29 52 0 8 64 57 174 64 15 208 126 29 239 106 131 231 227 121 174 0 233 25 148 243 195 142 18 15 169 255 198 228 104 90 232 103 201 60 29 99 21 224 232 197 231 160 143 12 71 106 123 37 183 106 175 234 65 237 30 238 30 220 253 127 173 138 234 210 101 53 192 104 118 5 244 32 59 201 16 140 96 151 209 103 178 166 81 190 34 235 146 134 131 62 205 159 223 73 206 182 158 39 225 143 85 1 11 229 79 95 135 78 160 68 188 77 184 215 186 178 89 118 245 61 22 94 254 43 166 97 94 238 141 25 218 96 86 33 16 96 41 187 43 89 145 147 214 235 223 121 30 77 59 39 128 207 58 52 170 173 179 165 238 253 213 11 161 62 147 229 80 125 176 121 125 65 98 72 116 29 96 100 252 139 79 23 230 15 246 61 29 218 140 210 12 234 12 235 199 180 170 188 173 30 89 118 155 211 225 237 47 81 184 43 193 234 19 179 52 178 239 43 75 67 182 198 128 174 153 92 211 36
184 89 120 10 114 185 151 228 97 105 195 208 140 50 155 73 42 29 160 18 251 228 196 169 143 4 146 191 176 219 16 43 217 79 76 248 104 253 244 244 202 24 78 35 164 89 43 147 160 242 161 234 154 98 94 95 251 31 165 25 232 239 14 2 29 81 178 175 136 163 234 191 139 52 138 39 1 204 24 177 145 37 26 38 213 223 145 91 193 16 93 77 129 230 196 165 156 176 75 19 38 65 195 126 0 66 237 190 145 193 120 114 168 187 162 10 177 58 209 88 232 59 28 126 63 244 197 251 45 195 30 246 93 51 39 224 215 224 143 115 95 127 216 114 178 223 176 59 145 215 247 34 105 251 207 210 250 84 127 21 237 44 90 18 219 201 56 144 160 200 77 245 1 205 41 89 79 240 87 112 145 204 209 6 80 162 76 175 5 97 209 146 46 69 160 142 109 45 207 187 152 127 174 224 111 126 93 229 228 138 225 81 108 205 12 76 129 85 118 233 100 34 214 117 165 215 124 3 48 10 49 78 138 253 35 241 176 28 223 147 246 17 78 93 122 74 74 48 155 122 163 164 124 180 17 66 41 247 168 202 222 252 153 201 182 222 63 0 124 145 18 102 218 52 109 95 155 228 165 6 226 77 155 146 252 125 155 251 141 58 126 183 125 228 30 254 224 63 212 239
233 6 179 249 15 78 151 203 35 149 128 121 213 132 226 252 112 173 131 0 32 0 223 40 58 172 208 104 211 241 201 53 21 246 28 150 138 180 143 102 107 109 24 75 69 1 213 150 11 37 44 105 14 234 182 210 232 129 226 207 83 178 110 222 242 172 248 56 185 139 225 135 213 1 210 41 45 164 0 152 42 138 145 22 142 57 171 1 81 43 58 26 216 130 216 175 127 84 153 240 196 233 224 39 158 229 250 6 195 152 64 104 14 219 4 48 231 111 180 26 48 50 194 126 87 85 150 164 206 146 125 159 73 141 135 126 212 165 89 77 121 201 218 250 3 47 163 3 91 46 42 7 136 79 125 250 245 211 209 147 194 62 171 34 223 42 26 156 246 93 98 178 243 230 173 104 66 224 92 0 157 222 129 156 18 233 57 239 1 30 109 81 114 91 46 48 125 198 14 130 179 206 230 137 222 166 28 74 33 200 121 76 167 253 90 48 161 247 154 233 224 194 84 14 215 136 5 245 208 208 234 123 175 89 130 201 82 207 191 246 136 165 64 58 191 244 18 210 20 18 35 167 112 57 5 53 227 69 91 6 63 159 244 98 186 218 202 237 82 104 244 243 55 35 148 92 79 138 236 202 214 30 249 76 87 162 106 106 61 40 149 4 229 208 235 120 201 108 245 147
205 187 236 47 107 166 156 219 213 121 202 10 186 234 23 223 189 241 162 90 87 223 100 0 156 208 7 232 21 103 234 152 45 246 136 13 122 51 75 138 101 90 77 48 76 148 75 152 186 190 18 4 213 140 214 86 253 125 164 150 130 108 32 214 145 229 73 189 220 78 13 232 166 228 12 136 216 207 119 57 132 120 147 185 213 158 8 248 101 45 250 122 240 87 223 114 211 8 204 28 195 243 231 111 194 111 0 234 79 52 4 160 76 23 8 105 39 71 36 99 85 127 218 74 50 114 56 237 138 44 154 172 135 62 147 145 54 46 200 47 65 189 103 250 72 245 182 70 133 34 132 134 35 0 125 248 51 37 25 53 51 136 170 211 69 221 203 38 43 245 15 94 195 22 150 37 225 201 24 68 61 104 248 212 103 128 243 93 79 85 73 90 109 239 41 228 224 92 228 41 237 221 227 90 21 147 102 188 244 73 51 164 57 251 114 234 201 202 128 41 203 27 219 68 111 237 183 208 3 44 222 49 31 91 230 160 84 14 170 11 47 254 144 223 46 201 108 77 229 193 191 243 1 3 53 118 82 130 222 25 201 43 13 209 218 122 219 23 54 199 81 25 74 164 7 209 173 227 186 111 37 160 129 86 19 212 75 75 233 192 212 173 154 182 244 180 190 114 87 19
102 243 225 38 115 124 181 174 78 26 11 124 15 100 206 96 94 99 33 114 107 143 74 174 208 168 114 217 75 64 31 177 130 181 205 196 40 8 108 45 236 158 112 56 224 176 203 13 124 155 62 159 54 232 94 181 26 23 156 74 183 171 178 107 122 121 243 37 214 160 128 198 209 104 196 95 83 173 123 248 84 145 245 102 127 50 194 52 120 109 98 62 12 173 33 59 223 162 141 61 219 23 147 4 188 241 118 201 229 45 83 115 176 77 72 221 185 234 87 170 111 221 200 33 157 221 220 32 6 223 208 153 235 247 56 166 190 221 128 208 47 89 40 10 191 15 33 112 54 215 73 29 130 185 127 9 160 69 85 10 88 20 177 22 138 62 210 179 247 13 106 50 191 68 61 10 154 91 222 69 2 196 211 228 218 101 107 18 63 251 140 61 181 113 118 77 152 51 212 221 38 32 122 152 69 165 136 45 236 231 96 85 32 15 126 61 48 197 251 213 18 255 36 5 128 118 55 154 24 10 90 175 107 74 180 212 58 183 76 94 42 60 139 75 16 127 222 34 41 77 154 45 164 112 19 55 110 54 41 39 153 185 25 247 208 18 25 73 37 88 203 50 240 73 178 51 203 64 36 191 153 77 155 167 68 189 153 122 172 233 153 206 249 51 243 169 110 199 135 190
156 22 60 28 52 209 140 173 100 248 91 0 196 175 226 120 73 25 5 111 196 75 229 53 167 155 59 220 118 90 85 179 62 230 117 150 50 131 83 175 18 26 69 15 63 69 52 162 73 149 138 114 38 16 21 84 116 164 213 14 108 52 109 150 186 166 219 74 49 122 211 76 220 115 116 111 15 241 63 95 151 69 205 172 233 1 246 239 145 19 75 97 52 203 141 154 226 191 248 244 90 42 113 28 250 126 211 228 96 231 244 86 233 210 37 223 47 200 240 143 121 234 6 180 254 90 89 102 51 214 100 185 140 204 196 103 182 31 240 206 84 145 27 148 29 117 128 140 25 180 181 43 68 226 84 230 211 136 124 104 106 130 145 69 209 80 184 47 131 81 202 89 159 174 90 62 231 49 159 61 122 62 57 230 254 61 69 240 118 80 66 44 172 20 199 220 202 35 187 29 2 166 179 5 15 132 23 196 19 220 44 182 67 181 127 41 112 33 241 51 20 177 220 23 59 107 159 109 87 105 181 5 61 118 50 24 97 216 242 121 47 226 63 211 29 163 228 4 11 101 242 31 35 128 135 136 75 30 32 224 77 152 189 124 24 150 8 123 27 139 225 203 161 4 203 107 60 176 80 148 204 50 198 105 82 15 13 76 236 47 69 247 199 16 204 163 70 132 178 84
7 48 231 22 144 79 221 169 243 79 62 117 107 110 110 62 241 176 74 194 56 79 8 78 178 169 233 166 216 242 235 95 65 82 164 127 196 199 72 36 97 129 71 8 167 252 103 152 6 154 101 115 54 167 149 196 34 9 163 121 163 47 108 229 194 176 31 20 168 207 211 98 68 94 80 168 217 251 225 249 184 17 19 199 75 55 232 84 253 164 23 211 115 47 137 243 25 225 166 64 72 6 194 219 75 14 201 10 228 24 91 38 46 127 76 211 0 194 134 186 141 48 198 104 90 78 245 203 20 105 135 5 135 81 30 78 61 160 134 27 107 240 110 155 174 225 91 69 227 96 170 100 126 38 254 61 83 178 82 211 206 38 240 203 53 37 118 7 17 151 105 207 176 80 162 93 105 65 102 139 162 163 222 80 223 84 238 81 8 39 9 114 145 94 157 237 174 16 47 89 251 194 22 17 38 54 67 95 39 96 154 172 175 118 138 217 237 194 74 164 94 2 138 102 198 130 109 161 77 5 59 41 174 72 86 112 237 168 61 62 145 149 67 184 24 53 91 119 59 167 146 222 66 87 232 168 204 120 149 136 91 35 217 70 216 2 49 171 67 105 175 6 232 219 224 47 148 110 232 247 90 12 194 66 98 179 103 52 204 27 200 26 43 199 32 186 159 137 174 127
113 124 105 189 255 8 169 223 126 240 238 6 186 73 231 39 222 165 75 71 173 53 110 90 252 238 203 107 138 98 236 80 12 178 146 147 127 145 143 116 239 246 171 23 128 168 189 207 150 123 195 128 60 28 124 136 133 134 137 138 77 247 116 6 10 125 225 186 86 148 181 85 62 13 90 9 182 129 220 255 11 212 95 138 56 190 77 111 28 219 228 178 100 219 174 45 215 120 174 194 60 194 28 7 133 6 115 144 125 190 157 98 250 116 215 222 242 149 252 205 60 149 10 166 85 245 13 183 36 97 191 10 187 165 221 227 92 116 26 110 208 0 95 206 223 209 239 89 16 159 180 184 15 82 26 53 217 186 12 199 250 130 205 90 117 141 72 220 219 47 54 115 23 136 136 32 178 138 38 171 18 110 222 244 52 61 87 61 45 184 206 29 179 138 252 104 196 140 46 176 131 209 239 70 222 231 82 124 200 185 101 165 45 69 20 47 37 181 91 151 233 154 215 95 209 64 32 7 30 155 87 230 122 83 58 30 185 255 113 28 240 84 192 143 220 45 80 237 12 174 148 252 247 93 64 212 236 149 89 17 75 50 2 120 18 169 142 15 91 72 210 97 220 207 57 143 81 190 120 141 243 237 136 54 194 237 106 203 103 207 43 219 223 72 8 38 171 158 105 14
142 10 184 119 139 167 35 88 90 230 21 145 232 195 5 8 226 120 66 167 253 240 121 167 45 148 67 58 146 206 157 13 1 152 84 212 227 140 212 21 182 93 241 195 178 112 179 74 216 202 164 224 94 216 199 206 130 99 198 232 253 63 170 1 240 203 32 183 179 255 38 217 36 220 25 202 89 176 223 247 47 156 189 219 186 181 10 47 97 111 95 137 230 50 103 243 91 35 58 246 141 84 200 248 68 247 140 63 199 209 163 231 158 44 5 71 254 214 123 183 221 204 204 14 214 102 49 56 203 38 18 221 107 46 59 60 83 181 183 242 118 84 76 1 165 62 222 155 125 42 108 130 74 163 84 67 51 237 196 207 233 226 5 195 190 121 61 111 155 95 152 46 241 225 185 214 1 225 60 63 222 27 4 210 49 137 103 106 178 34 143 134 136 150 89 99 203 94 2 137 215 106 161 148 129 125 124 106 126 52 252 170 235 222 63 122 192 157 93 74 28 195 195 241 238 247 195 217 93 94 63 19 110 120 160 253 37 157 148 220 112 158 22 182 217 199 43 54 22 66 202 49 180 74 107 41 189 82 232 153 36 25 158 41 132 49 199 37 225 193 51 237 134 132 107 249 85 152 7 98 95 71 109 123 82 26 66 42 65 165 240 159 43 66 152 196 175 101 65 77
93 177 19 124 229 195 180 90 172 164 162 190 28 179 137 129 203 20 4 96 107 67 221 27 231 128 128 3 105 197 56 122 225 246 69 20 149 42 119 73 238 195 83 141 245 20 209 0 81 84 116 16 8 214 249 96 65 52 30 24 51 247 46 9 253 221 111 59 109 97 127 229 100 128 84 248 39 162 29 128 15 228 95 152 100 183 5 229 63 224 191 230 111 94 0 224 34 173 149 93 188 231 91 249 66 41 18 233 232 230 140 78 238 57 215 168 94 151 19 168 46 170 136 250 184 68 22 252 186 43 173 135 50 6 77 89 126 83 152 215 254 139 55 174 21 180 204 82 9 240 141 146 59 254 37 32 148 106 201 0 131 115 191 120 115 186 22 26 0 224 182 76 227 233 147 18 74 64 120 153 162 203 38 134 220 143 93 10 71 241 9 243 252 33 146 4 77 202 176 184 150 150 89 73 214 92 111 88 57 177 136 186 221 189 85 70 73 254 208 225 244 86 227 242 165 195 229 56 202 6 76 87 39 170 247 42 84 217 244 237 236 92 94 104 214 82 242 138 122 185 87 147 13 191 72 172 57 248 59 216 106 185 56 36 65 25 219 124 128 209 68 166 83 29 34 74 163 77 176 127 209 118 184 91 151 93 30 245 87 250 175 148 135 83 234 200 118 14 114 158
28 213 137 228 119 70 178 227 210 194 170 163 171 137 29 33 141 49 255 53 217 16 171 153 173 99 38 5 237 99 7 193 54 29 120 128 192 38 20 94 40 246 42 86 126 39 160 99 83 70 110 254 52 191 169 46 38 219 93 249 170 253 160 236 139 209 250 195 144 140 106 208 115 246 62 246 117 72 222 171 213 52 49 236 68 0 206 52 104 205 140 129 182 236 232 56 3 213 82 13 165 209 220 35 60 207 71 50 139 42 48 72 181 14 166 255 8 242 73 66 227 215 167 37 210 209 16 196 28 68 106 200 49 252 153 74 28 223 235 45 9 100 77 203 96 29 65 167 6 94 1 33 246 88 95 3 246 76 0 62 68 117 160 99 45 9 56 116 215 123 48 75 133 6 133 251 152 115 56 199 106 180 72 172 49 93 46 235 13 229 127 43 34 31 221 157 64 101 47 241 140 142 51 14 109 27 176 200 92 194 195 152 236 115 128 139 66 83 204 184 204 24 201 98 176 104 211 221 139 235 254 114 103 80 34 131 204 109 180 130 148 142 104 97 176 148 204 239 152 121 37 76 226 200 54 160 169 109 229 254 25 194 104 98 175 15 18 112 163 188 197 48 81 152 3 141 46 230 21 143 83 206 139 31 8 37 195 250 145 232 214 183 55 102 216 151 125 149 248 211
221 213 168 92 65 199 126 38 60 114 72 80 172 56 141 44 163 166 117 188 52 90 74 227 10 133 80 45 91 249 27 172 246 41 244 84 60 75 167 55 96 242 138 210 104 172 114 155 146 125 159 120 221 110 137 49 31 206 142 167 249 198 17 161 84 8 68 132 52 122 198 148 170 175 228 166 182 12 218 242 9 55 234 250 219 250 71 247 74 61 50 159 164 84 31 223 56 82 236 97 181 165 34 51 178 157 56 28 144 103 58 74 7 194 175 191 80 8 64 248 226 68 24 221 68 12 134 9 73 156 92 123 148 67 195 128 225 1 69 161 176 18 51 209 105 135 28 205 140 207 228 204 238 85 200 34 126 0 190 226 169 119 215 193 194 101 45 56 187 220 76 236 139 18 124 86 125 45 153 145 230 26 221 92 157 226 128 137 185 230 255 27 255 188 229 75 175 104 92 22 144 111 152 90 14 218 72 235 28 146 180 78 113 28 134 76 214 210 123 200 222 203 20 34 119 2 207 61 20 241 140 201 228 253 58 222 231 234 228 161 189 118 116 137 1 181 68 58 141 85 117 56 46 223 17 26 216 38 107 179 127 177 228 49 185 22 153 232 98 62 47 143 12 107 255 118 168 209 206 213 236 23 117 73 186 3 53 201 127 183 72 19 133 202 198 82 10 162 35 18
243 101 188 247 251 157 170 197 143 58 122 173 102 126 225 116 84 183 57 49 234 9 129 64 64 41 33 72 23 8 219 218 58 131 8 48 193 215 249 229 202 49 189 117 33 117 147 229 25 30 18 138 10 24 96 18 39 27 51 164 78 211 200 163 92 241 75 133 214 228 126 36 136 216 51 120 184 190 96 16 127 217 180 45 74 123 27 15 115 102 178 18 174 161 93 237 117 11 73 223 166 112 35 39 141 50 114 159 255 131 44 171 124 99 45 163 198 203 30 215 192 2 223 210 254 62 59 226 40 96 23 219 56 49 132 225 79 45 243 32 95 225 165 50 222 2 92 116 151 28 205 88 186 197 151 111 102 118 184 217 3 54 82 18 143 194 238 87 24 55 97 87 15 166 233 40 112 157 214 110 165 105 166 7 95 233 234 214 143 217 65 220 48 242 41 251 119 125 183 120 114 26 85 22 16 214 51 17 95 75 3 193 214 238 75 169 10 70 136 189 140 106 47 255 241 252 107 195 199 125 171 243 184 135 13 63 56 135 139 103 235 19 57 214 10 174 231 178 52 153 131 169 168 95 138 17 54 213 241 121 156 135 222 92 78 188 248 235 78 146 71 169 146 175 228 91 206 44 232 175 9 118 59 30 31 180 209 127 83 242 27 118 6 255 242 11 7 80 49 146
241 246 178 113 210 67 91 227 219 124 192 133 17 24 213 250 96 103 80 133 68 101 80 78 75 140 172 1 3 172 80 205 94 68 74 254 148 144 28 208 158 102 3 51 100 67 185 214 242 181 55 231 228 74 3 244 177 216 129 171 13 77 119 230 205 185 172 176 204 153 214 116 236 100 24 144 107 135 198 150 128 215 116 18 56 249 104 69 77 223 95 21 42 172 104 118 191 117 84 33 85 65 65 138 30 75 54 127 144 197 229 34 133 26 244 15 131 96 124 57 98 66 144 81 132 79 155 64 54 168 242 84 12 116 200 192 17 189 208 148 51 104 64 65 174 81 6 66 79 172 111 161 92 60 93 112 87 80 128 115 92 176 81 214 251 99 199 33 142 255 26 154 53 85 106 72 172 118 176 230 208 194 39 136 223 232 253 248 189 9 30 237 255 43 114 197 186 224 219 70 5 98 244 135 192 65 147 124 71 31 199 124 27 112 136 107 114 85 82 77 52 87 46 210 208 199 48 133 101 70 131 3 209 176 170 92 51 129 95 20 190 14 165 119 61 248 164 24 253 225 228 151 65 87 47 180 194 190 74 136 19 133 11 21 195 98 50 77 184 102 117 65 141 231 201 89 48 61 121 62 174 245 73 48 88 203 208 151 176 170 95 241 137 42 90 220 43 199 11 96
121 36 92 242 173 173 43 189 255 253 62 60 62 199 238 248 62 197 13 248 212 224 137 153 80 194 58 12 103 106 122 207 30 244 100 135 8 90 224 240 89 202 193 9 217 234 81 101 80 147 4 221 51 135 167 250 222 135 61 83 166 28 6 22 210 65 250 98 235 208 213 182 145 239 200 201 33 193 188 154 121 218 142 168 48 180 49 148 71 66 246 98 123 209 240 161 28 203 21 247 186 14 239 142 115 171 156 251 179 23 207 90 87 0 144 168 14 80 141 120 40 151 148 221 34 138 134 1 42 254 146 103 152 183 210 150 237 149 186 206 193 99 177 109 36 170 81 89 210 250 226 236 136 141 164 159 103 171 153 86 81 49 134 161 173 215 243 148 25 45 175 225 229 17 60 241 181 158 35 165 77 221 130 70 91 143 137 239 139 88 97 47 91 195 204 208 43 58 119 174 153 154 95 74 88 153 100 17 255 135 119 77 56 198 86 160 227 13 208 243 7 152 177 118 227 33 15 109 204 230 153 176 249 62 243 238 182 73 22 252 197 184 235 87 110 235 72 146 177 112 108 226 3 204 254 148 91 165 85 183 173 116 31 230 146 10 182 203 71 72 27 156 191 68 208 173 210 2 212 132 85 75 97 247 68 163 39 44 111 123 200 164 255 165 65 134 152 2 56 61
163 42 26 63 226 32 218 94 165 143 115 66 69 145 180 47 147 109 88 86 58 98 3 30 180 17 115 177 83 169 101 185 88 236 9 5 183 55 240 153 174 54 153 73 183 235 51 194 31 131 15 80 215 83 93 79 201 127 209 235 253 117 106 212 242 247 92 148 171 239 165 207 134 122 98 248 129 154 208 137 180 223 201 159 54 97 180 56 83 138 221 94 215 235 196 123 251 228 37 245 118 8 158 93 186 40 212 233 172 133 246 24 189 10 137 100 205 81 102 116 148 165 165 230 57 197 73 138 234 20 20 197 163 171 15 218 159 255 133 117 158 49 15 213 10 130 223 231 134 137 153 89 218 0 197 1 113 206 43 214 77 116 46 89 241 18 161 228 224 209 46 158 41 237 40 21 44 202 190 101 243 79 194 72 182 33 231 13 205 54 49 236 14 230 184 90 189 242 216 190 150 40 74 134 44 59 18 91 143 207 152 80 174 2 243 125 250 186 119 74 12 101 121 248 53 0 190 81 117 204 64 61 188 141 95 234 26 47 173 49 92 177 118 139 179 83 68 55 237 1 162 150 17 57 51 186 136 61 138 32 195 84 243 225 143 195 164 154 43 16 140 121 251 36 136 246 168 83 48 132 226 188 238 3 232 192 191 29 193 238 228 84 23 169 245 82 6 189 34 111
94 50 65 234 219 49 239 169 206 140 95 121 61 165 158 232 249 97 218 176 106 98 115 75 130 90 187 159 145 174 140 101 155 170 5 20 70 158 194 244 70 4 209 56 206 161 222 89 33 136 192 69 90 156 60 98 10 220 90 162 162 225 107 3 209 162 116 176 177 67 203 74 103 135 55 254 71 111 232 227 101 230 190 62 15 47 243 34 57 69 154 94 140 137 194 102 9 119 88 25 13 218 26 21 107 15 200 246 87 177 78 93 234 86 250 145 159 142 160 111 115 40 243 126 184 188 81 255 157 47 9 137 209 28 214 237 191 212 53 81 219 201 74 109 31 227 81 116 74 56 77 196 50 163 29 138 115 187 235 145 16 199 24 94 179 29 131 144 254 16 221 45 198 223 226 200 243 137 154 164 97 72 138 6 59 30 121 219 156 51 143 208 5 182 192 89 10 63 57 124 115 41 60 76 211 152 131 136 249 179 126 137 21 140 238 195 61 67 156 82 167 22 224 252 219 115 142 165 48 251 92 62 191 93 3 126 88 237 109 191 78 154 241 140 195 223 91 134 97 57 51 11 184 17 131 251 193 238 23 139 167 155 151 111 249 233 92 214 71 55 154 191 192 227 242 208 244 214 163 30 226 36 187 70 182 239 221 190 236 119 138 114 166 73 100 29 66 11 130 86
244 168 153 218 133 210 77 68 208 75 185 74 4 21 0 161 137 188 117 183 25 222 246 71 83 81 91 54 25 97 91 56 105 232 38 69 69 53 114 80 39 104 23 124 100 104 235 59 14 128 187 153 234 25 242 8 145 61 179 187 5 240 132 222 81 0 173 72 132 241 188 92 247 80 163 74 132 224 91 98 178 19 213 46 182 206 68 97 179 182 67 48 82 133 67 149 104 199 112 208 181 188 238 58 237 16 159 0 180 28 98 108 66 246 22 162 25 76 145 179 167 56 20 175 164 3 191 112 193 3 169 239 205 174 139 255 61 74 213 2 125 10 234 119 160 213 131 7 135 33 163 57 108 200 170 201 28 217 252 10 53 193 218 192 58 204 177 226 188 214 73 57 87 133 186 221 19 19 134 56 86 2 93 146 160 94 119 67 127 62 242 204 27 28 1 90 183 215 122 105 53 213 135 156 191 156 218 248 245 51 5 33 107 12 72 160 255 61 196 178 250 204 207 36 23 111 37 90 223 28 95 149 91 248 226 223 100 82 195 147 163 223 216 214 143 120 133 129 228 181 30 154 26 77 111 7 53 189 177 131 130 34 170 174 120 217 183 232 145 135 249 57 135 121 84 62 231 251 66 241 25 182 154 179 110 110 95 8 50 42 97 105 9 104 44 212 162 230 35 179
85 160 61 65 113 165 190 121 172 39 252 131 212 167 39 5 94 12 156 129 92 83 191 161 109 131 72 62 21 248 154 97 163 71 220 164 185 169 132 36 50 236 46 220 136 11 104 236 155 224 229 224 202 169 197 190 82 227 67 78 204 158 43 199 28 232 114 185 46 180 161 214 246 89 102 211 136 40 105 10 143 16 56 176 246 149 81 70 158 45 52 83 172 213 149 114 185 133 72 181 51 65 64 38 163 216 69 240 41 199 8 189 235 84 72 255 243 240 229 127 177 66 10 61 147 179 201 38 127 96 28 39 84 66 196 178 243 73 223 229 172 112 198 11 137 192 218 153 100 63 225 121 246 247 93 203 209 109 42 234 152 170 60 28 64 4 44 43 187 166 226 17 48 194 227 200 38 237 107 79 185 3 178 3 188 61 200 212 172 253 148 222 36 205 39 209 40 59 241 205 210 21 242 232 40 81 142 151 133 27 244 190 177 219 5 139 35 50 15 12 6 193 162 221 63 187 240 6 29 93 195 155 20 108 19 56 41 156 52 145 73 70 81 252 1 197 253 137 54 187 118 235 133 35 167 231 205 234 84 159 208 184 18 228 76 161 177 32 132 48 58 133 173 200 199 147 144 179 196 35 177 130 202 54 199 76 78 219 219 140 65 75 55 81 237 120 43 6 183 56
17 234 179 229 239 181 2 62 200 233 136 152 11 169 251 35 31 115 79 201 51 57 89 104 188 176 202 237 25 249 250 127 18 19 9 212 99 81 184 135 81 70 169 33 71 132 78 155 74 131 158 156 49 48 174 159 126 227 80 147 54 66 151 113 109 43 2 151 98 53 6 73 157 190 112 92 28 69 37 23 27 202 59 212 62 174 8 88 65 26 80 35 18 92 230 200 148 170 143 154 155 168 213 72 205 73 193 14 186 241 31 207 80 171 142 159 1 158 28 174 29 125 0 90 216 249 135 39 209 49 184 15 100 174 9 35 148 57 2 40 78 253 10 253 201 61 122 79 134 141 173 131 57 104 122 90 222 103 10 227 185 24 237 44 65 15 242 219 75 117 114 67 253 189 16 208 23 72 60 253 169 234 150 163 20 183 189 157 50 223 101 242 242 88 60 210 135 154 214 159 13 128 45 116 171 130 237 68 39 146 116 166 73 195 169 59 71 205 244 61 220 118 22 37 174 120 250 211 207 3 128 209 229 226 38 164 99 225 50 155 138 146 15 235 11 119 189 171 12 208 121 238 245 32 226 110 75 103 149 20 69 245 154 204 219 67 9 231 60 218 241 234 223 26 35 238 165 203 103 234 35 233 211 36 245 55 79 193 44 125 213 188 64 147 59 36 140 90 12 48
58 42 6 246 99 58 133 80 179 169 109 218 40 235 36 222 174 237 56 101 202 1 243 175 106 102 74 218 192 145 68 21 158 146 239 246 231 51 105 254 182 3 113 104 237 235 82 131 9 7 114 47 150 90 223 231 6 241 8 6 76 191 65 187 40 151 54 158 6 15 97 195 181 88 208 156 64 13 119 51 218 113 169 231 98 82 215 184 190 152 231 173 153 229 126 135 232 51 49 117 159 228 174 74 94 220 172 34 151 20 192 251 226 24 32 171 6 244 203 243 205 230 165 86 187 88 30 53 98 8 105 142 171 12 149 116 57 42 60 87 94 87 23 252 123 217 134 4 106 44 230 6 6 249 87 108 158 122 67 68 188 94 184 133 192 220 139 232 186 3 28 152 215 99 82 145 227 238 221 15 52 133 244 117 181 46 15 171 140 12 181 210 5 210 40 116 195 187 103 246 128 171 8 51 156 226 157 171 211 215 83 52 22 4 237 236 14 165 31 106 12 75 204 158 12 52 13 128 122 116 20 136 201 212 77 118 241 125 11 154 56 228 250 49 158 214 242 108 190 27 233 166 93 221 55 235 168 131 138 29 224 115 163 48 68 151 151 76 245 71 204 39 225 132 252 68 11 196 118 23 194 137 169 171 102 88 42 57 206 200 111 32 105 20 198 72 106 190 21 226
136 87 106 23 49 203 99 183 113 132 106 112 121 198 92 166 74 157 216 248 120 36 52 72 240 202 234 178 223 131 254 9 103 230 36 14 116 232 165 6 250 181 154 135 217 11 119 197 34 226 53 53 88 146 25 147 21 72 67 127 190 45 41 189 208 184 203 168 113 224 184 114 225 100 82 226 62 33 251 156 92 63 24 206 179 230 31 59 160 250 140 35 111 163 237 139 84 211 39 46 188 101 184 43 26 121 176 129 89 214 44 227 142 253 228 94 130 79 58 164 127 147 170 34 37 57 28 239 241 120 173 132 44 67 20 25 180 114 179 79 214 23 70 196 22 142 79 154 108 30 189 5 72 141 93 31 62 222 10 236 154 112 39 125 110 163 22 78 20 18 37 190 241 133 54 58 70 119 50 15 201 240 80 77 229 108 230 109 140 181 93 42 14 64 76 22 154 193 34 85 142 29 69 119 239 120 99 54 57 3 13 64 35 205 214 57 224 166 15 49 247 143 156 141 0 106 127 24 136 217 141 245 199 68 31 205 5 103 121 60 58 214 197 216 208 200 206 148 109 89 222 229 94 28 234 62 42 135 70 121 50 193 28 4 24 35 164 72 0 143 180 232 211 186 125 45 232 187 23 92 127 48 132 138 241 61 66 208 123 31 232 132 111 194 214 13 179 17 208 85
180 47 8 2 28 32 158 135 29 73 206 158 96 4 166 185 202 70 36 1 121 98 93 196 244 80 149 67 242 85 210 94 91 197 47 176 254 103 235 20 102 121 7 94 237 26 225 36 166 224 188 242 186 113 46 117 37 90 71 164 65 250 58 180 133 223 168 173 94 219 126 114 47 25 225 187 127 231 17 79 164 151 196 142 220 235 232 76 100 135 10 185 106 254 201 152 88 184 244 182 187 113 182 183 40 106 215 28 96 135 87 91 98 169 183 167 183 85 173 229 89 225 237 169 9 9 94 238 240 82 193 101 202 51 197 204 94 118 152 119 73 203 149 142 100 121 250 226 176 137 218 40 3 95 238 233 90 137 24 54 129 67 157 78 10 69 51 102 54 84 71 107 205 139 133 148 247 44 31 157 226 129 57 57 158 152 93 61 236 232 166 104 190 73 179 209 216 174 60 83 145 78 248 52 182 180 178 87 97 64 118 30 163 227 8 111 93 115 229 35 174 211 83 221 89 15 28 96 223 192 249 151 137 191 75 112 19 219 229 86 156 55 100 127 135 103 49 163 151 46 88 61 233 219 16 188 11 162 143 231 26 238 100 113 163 96 234 113 209 215 96 14 152 45 47 72 29 120 73 28 217 75 123 9 110 36 103 186 12 92 221 206 117 158 23 161 232 174 51 10
106 114 185 28 63 74 179 164 147 139 154 161 209 95 239 200 254 103 250 82 167 129 153 81 60 37 170 179 95 11 82 212 217 133 193 153 175 215 211 229 136 141 237 148 54 233 59 219 20 227 88 187 71 107 211 6 109 11 53 19 141 242 22 15 120 187 160 250 103 29 159 93 119 177 49 206 2 142 68 25 209 123 101 194 219 52 3 100 106 208 221 213 73 136 11 117 119 223 154 82 54 147 161 13 74 140 251 161 84 130 197 77 79 158 20 30 192 157 231 111 173 176 192 149 166 150 19 46 200 54 78 11 96 35 243 212 211 215 174 221 132 158 255 169 67 140 250 224 113 215 46 242 62 46 32 174 32 42 132 117 100 199 73 112 244 6 137 228 163 229 252 184 111 165 78 220 51 255 43 82 51 157 225 231 171 83 71 26 27 80 155 50 143 128 184 64 166 23 66 110 151 25 20 31 48 101 98 4 26 158 102 29 19 103 65 231 54 17 240 129 152 244 142 23 144 63 226 180 159 88 136 65 112 35 160 90 196 122 138 12 59 119 4 203 129 140 54 172 98 15 253 159 21 167 15 113 231 15 185 245 186 53 236 187 182 211 223 246 234 197 115 132 33 80 174 6 85 55 11 208 40 0 207 83 199 34 239 130 123 116 204 187 191 198 102 93 197 109 208 245
217 63 225 150 180 247 228 244 82 112 91 0 52 43 245 223 45 102 244 253 177 181 195 210 33 5 83 54 214 129 21 63 11 112 63 45 128 42 50 67 10 147 186 52 236 76 15 68 97 231 73 177 250 99 84 154 75 6 6 255 62 199 36 150 181 152 212 133 227 229 130 162 66 97 255 45 19 10 110 118 158 192 18 161 51 208 75 14 209 249 7 21 91 107 183 143 205 226 107 74 69 8 88 22 34 120 147 215 9 209 103 246 171 109 124 149 126 23 254 190 123 213 245 119 211 166 173 220 73 220 2 177 55 37 103 54 91 235 241 195 155 66 151 141 62 135 79 198 55 11 182 237 217 57 196 52 235 42 237 114 147 177 221 128 78 176 104 155 131 88 221 205 117 44 120 151 234 238 61 209 142 127 98 183 25 56 82 159 97 162 194 75 90 99 144 110 47 78 95 175 58 90 233 187 201 194 218 83 101 35 163 93 73 254 81 136 251 29 44 231 37 222 50 157 80 29 150 206 204 93 33 171 4 41 222 44 49 68 168 230 171 102 108 54 60 99 175 181 111 203 18 250 140 248 208 94 69 53 222 120 7 150 11 160 76 44 188 100 23 21 72 215 22 178 159 86 51 140 130 225 9 49 117 165 127 248 34 222 142 26 253 229 164 127 96 65 67 119 157 168
98 117 174 180 32 57 218 96 189 115 61 24 158 113 202 9 255 249 130 78 88 178 133 116 196 252 141 124 124 170 99 157 28 8 205 96 80 7 1 175 176 165 43 130 119 219 61 4 51 54 230 187 168 7 121 146 233 21 240 246 82 168 6 54 103 177 83 220 182 79 128 109 54 49 16 242 107 51 232 251 4 225 156 108 48 150 90 51 205 54 206 100 252 108 138 79 214 62 53 181 107 116 148 170 130 197 153 246 111 107 154 127 113 133 255 187 19 98 246 205 166 236 108 107 160 191 181 240 182 206 139 236 5 41 202 140 239 155 117 179 77 31 205 175 235 87 9 204 53 78 110 228 46 9 99 107 98 124 236 247 65 88 129 72 25 21 202 16 91 77 99 176 61 53 137 226 109 204 115 191 0 221 219 146 71 160 183 8 190 102 179 15 148 65 34 86 225 237 15 188 192 49 139 190 78 92 157 87 175 18 254 190 216 0 131 196 253 195 232 40 19 181 144 93 200 163 143 144 239 229 35 32 237 65 217 119 29 4 136 94 120 169 201 197 34 154 248 148 95 254 120 117 132 14 104 15 14 57 100 236 211 99 80 246 50 3 93 245 210 154 47 1 210 47 11 16 31 152 62 205 157 177 25 231 246 229 19 178 0 64 184 168 145 76 251 41 187 55 125 58
15 85 170 246 108 22 44 97 50 67 162 168 168 13 36 205 97 234 177 148 149 187 207 147 143 36 12 119 42 26 132 237 128 186 226 46 129 119 121 93 33 40 244 182 186 99 89 120 216 226 255 33 83 100 64 185 49 140 94 204 139 222 87 161 90 66 3 4 145 208 184 25 72 81 90 68 177 48 171 23 183 134 140 19 164 117 249 147 252 36 255 59 42 37 80 19 162 4 81 211 107 54 220 212 215 231 137 49 167 23 169 23 211 90 35 172 209 34 14 80 17 95 126 109 119 232 75 178 71 186 9 122 154 141 174 170 17 69 153 188 188 135 234 253 46 168 164 4 66 201 66 142 215 87 100 109 166 44 196 133 6 157 202 17 104 189 31 76 98 211 233 21 168 149 143 143 52 67 253 37 192 140 115 76 15 6 222 197 105 203 248 1 22 215 144 199 122 81 105 251 142 53 212 73 15 108 251 140 69 7 252 180 12 13 189 103 37 242 231 134 143 197 66 15 216 197 197 120 85 159 114 124 10 183 170 99 235 19 41 70 232 120 243 161 140 79 108 132 171 90 61 171 111 160 75 160 95 92 172 176 116 156 223 41 205 81 43 51 173 164 22 158 213 249 96 160 217 91 186 97 172 116 119 182 99 220 84 241 39 105 113 29 105 2 199 190 195 118 69 31
53 205 14 159 24 6 215 107 159 125 134 91 42 222 198 38 155 182 58 11 243 29 179 78 192 133 45 155 53 226 240 48 25 180 241 49 213 88 219 40 190 249 187 18 108 109 149 94 234 117 23 62 135 150 70 71 213 37 53 22 191 182 98 165 11 94 45 90 255 14 198 186 98 210 191 7 79 45 3 166 199 75 84 128 156 205 147 165 213 181 153 114 39 36 29 63 0 166 187 183 38 53 86 21 249 77 52 0 110 4 166 14 98 93 55 77 164 102 1 30 228 0 241 248 225 198 126 160 53 227 232 182 176 217 67 141 32 153 115 242 228 183 140 233 28 72 121 19 207 100 32 193 127 138 28 63 85 189 1 207 98 102 226 217 171 181 168 222 5 239 223 47 249 126 204 234 85 18 68 250 188 22 167 29 163 98 173 109 116 233 132 138 44 116 91 127 27 239 90 175 21 142 27 217 158 43 165 106 144 29 44 67 200 128 155 11 55 211 139 184 141 15 164 34 2 221 169 199 90 176 165 54 8 105 184 102 131 41 112 36 123 1 47 194 15 186 91 169 70 79 105 133 22 97 229 45 149 174 42 85 193 241 226 0 58 30 59 27 18 18 113 73 211 123 117 203 136 20 214 253 75 231 26 176 101 112 152 238 72 27 164 95 254 99 95 112 55 248 118 169
22 223 111 201 101 2 54 29 59 99 255 38 236 33 9 223 61 40 173 113 65 174 242 125 110 127 50 250 67 114 237 242 21 40 142 142 113 73 2 203 44 19 188 171 209 171 204 63 22 134 223 231 159 229 225 183 41 103 240 7 194 178 72 19 65 98 40 129 130 208 182 164 64 229 239 62 246 100 92 8 47 141 3 64 27 10 48 8 150 111 47 23 21 192 186 62 154 62 90 155 13 172 75 126 219 182 201 119 45 28 45 14 34 70 35 157 250 75 120 181 208 227 221 63 246 142 219 16 5 23 27 118 251 10 32 163 242 70 148 192 189 198 214 121 203 144 50 180 104 109 133 80 65 26 181 179 12 172 134 238 146 84 201 232 125 162 141 195 208 103 186 37 107 76 58 106 49 219 194 95 211 232 116 183 227 91 164 94 9 144 6 27 182 205 24 53 147 174 88 9 236 246 102 143 227 232 49 18 134 252 158 193 35 130 183 145 113 153 248 69 168 8 214 86 126 135 182 41 80 9 96 236 217 243 37 133 135 106 59 122 21 169 42 171 223 20 164 119 152 191 1 232 185 225 142 230 73 132 244 125 81 49 247 37 188 49 133 43 21 238 15 177 218 62 137 116 217 10 164 120 30 91 137 186 162 77 92 4 1 167 102 63 227 72 28 76 233 89 175 67
160 56 191 149 55 201 43 82 242 139 15 222 141 150 174 27 145 183 226 63 72 222 199 69 140 170 66 192 251 214 84 16 130 142 174 44 39 55 106 29 131 182 182 12 25 242 177 123 81 144 120 11 77 102 144 145 138 236 151 17 218 138 185 255 85 218 108 11 205 202 132 206 120 79 216 207 185 3 74 197 79 163 37 217 98 151 41 254 63 85 88 226 122 70 196 238 156 132 138 59 111 147 236 179 132 160 96 207 243 67 40 225 14 28 214 232 79 137 53 110 46 247 80 55 206 4 39 34 9 36 235 127 234 190 22 234 158 65 53 220 247 186 234 200 209 166 28 74 120 15 137 50 207 201 98 145 84 248 213 134 155 193 250 142 209 253 4 85 234 8 70 62 137 183 51 82 180 222 211 238 48 186 94 51 158 97 29 54 37 183 204 203 53 186 193 10 27 210 119 172 254 121 239 110 255 57 26 199 9 93 128 108 136 202 22 217 14 68 227 172 17 193 11 113 113 216 67 181 35 18 30 12 80 194 209 242 183 66 126 204 146 115 212 1 81 128 131 223 233 244 56 214 162 69 50 125 95 243 222 87 31 192 218 249 156 30 81 175 229 49 152 100 29 142 160 200 12 67 9 127 19 45 182 3 134 243 207 201 28 46 229 184 219 119 11 87 131 13 177 163
69 199 225 91 212 93 209 31 110 3 16 51 224 174 99 168 79 117 61 38 162 167 135 145 145 117 200 127 45 212 94 19 148 57 162 21 209 38 81 11 171 23 78 51 91 30 32 83 123 38 40 73 234 219 194 130 233 96 51 29 54 51 57 81 68 8 166 226 83 222 160 31 239 17 222 255 244 50 208 252 230 231 61 177 75 50 137 7 109 242 21 180 108 110 29 39 165 154 57 112 164 243 81 111 119 44 209 95 105 59 156 214 242 6 124 131 167 143 169 169 131 184 54 31 98 252 21 60 169 210 18 135 227 116 54 116 72 106 107 100 155 195 131 17 218 114 101 148 246 133 89 39 161 203 158 218 38 247 112 183 50 119 207 50 178 147 50 160 117 142 11 141 45 234 61 130 235 72 254 66 252 180 193 69 39 236 201 23 156 251 119 44 184 178 215 139 79 233 108 208 5 36 185 83 60 157 59 134 128 224 137 6 179 100 16 159 250 90 32 142 80 52 238 77 124 192 58 232 249 168 196 89 96 235 167 182 53 171 229 124 248 92 104 65 101 109 118 176 206 245 53 199 234 210 162 251 185 0 17 92 155 89 86 38 175 116 130 32 72 66 129 126 170 40 136 199 168 203 79 158 59 155 229 188 224 209 127 29 22 59 27 133 167 237 8 96 14 55 4 68
174 94 73 238 10 238 63 146 162 127 74 225 104 207 137 198 96 189 39 226 171 126 254 201 73 254 0 83 245 117 168 89 205 231 186 193 4 94 191 113 78 194 245 195 140 183 198 144 232 252 251 229 53 184 218 68 40 54 141 122 27 62 107 59 60 213 45 5 49 228 135 88 244 177 134 56 52 172 15 249 144 230 181 227 186 178 243 242 57 76 95 120 48 81 66 161 196 179 90 142 57 109 112 92 154 63 116 140 251 142 186 249 79 59 125 48 193 190 126 244 113 161 102 123 165 186 150 31 181 218 96 83 72 158 165 127 53 125 183 204 1 115 39 34 251 46 104 138 169 75 117 174 73 40 218 242 80 21 127 28 243 25 42 169 189 100 241 120 35 141 120 96 136 4 135 115 94 158 171 2 213 245 156 145 95 109 80 53 16 226 137 212 171 136 92 57 2 75 78 74 5 36 146 226 191 212 133 40 174 85 87 4 76 145 84 23 239 194 144 140 102 229 114 235 172 9 35 82 76 68 245 113 186 200 22 171 122 216 209 226 237 59 39 19 146 72 103 47 102 146 72 144 217 150 143 136 193 197 116 25 137 231 217 173 74 223 110 51 130 28 132 217 202 30 100 46 184 125 113 42 184 227 192 70 180 53 221 148 38 150 190 167 190 2 212 76 71 205 41 153
28 129 37 31 166 213 83 95 54 35 0 12 23 216 155 132 187 145 176 12 45 191 240 63 111 215 86 114 76 253 72 200 110 102 4 28 195 251 130 52 67 204 113 249 10 88 71 187 21 34 52 152 72 9 139 12 182 40 241 194 102 222 19 25 225 169 5 121 166 202 88 78 49 12 93 69 40 109 156 127 26 83 1 225 219 112 16 135 162 135 219 182 179 16 101 221 24 168 218 249 114 53 222 41 237 138 157 81 211 241 207 155 76 1 183 99 228 97 166 65 146 87 208 119 42 39 207 110 33 74 62 174 145 176 203 171 66 183 43 223 140 138 17 227 191 236 102 161 85 146 52 0 18 12 151 197 143 149 145 17 83 136 254 236 213 215 120 172 122 166 71 90 142 4 14 206 161 154 76 185 240 48 113 163 96 6 206 175 239 98 213 21 236 217 241 197 103 16 95 233 6 70 248 223 103 45 122 14 242 228 105 1 194 187 31 234 178 141 191 113 173 2 206 37 141 179 195 163 60 167 100 230 194 198 76 118 100 155 170 81 11 160 72 125 121 216 202 180 118 219 94 71 99 107 72 94 84 11 57 15 239 84 207 145 247 69 154 68 127 249 38 219 188 196 148 201 111 79 64 158 9 52 202 231 12 57 110 181 129 146 91 238 14 19 10 9 94 148 212 130
108 172 73 144 86 32 88 188 187 246 213 254 84 91 142 73 229 152 187 157 116 68 118 215 202 18 56 54 26 67 102 248 113 73 91 132 253 26 22 94 209 192 84 51 213 119 23 169 20 167 33 93 252 103 25 5 216 136 181 153 137 185 156 244 25 220 80 135 154 17 172 135 225 33 245 135 64 246 71 250 12 172 90 142 66 44 247 238 181 111 1 26 13 182 30 24 200 243 11 245 35 204 192 94 3 193 1 109 139 139 12 151 72 6 31 47 99 41 243 160 219 152 59 156 29 128 68 64 70 126 102 236 197 135 220 251 110 234 36 178 140 19 51 106 91 28 18 85 23 229 56 65 168 106 203 252 84 208 174 72 38 61 154 42 162 110 75 153 176 214 185 148 181 224 120 222 193 151 73 120 204 225 113 100 0 226 43 49 238 128 108 19 182 47 88 154 239 44 145 47 101 223 139 77 191 32 81 109 186 225 208 240 189 160 216 4 33 107 17 197 104 227 72 101 93 207 175 221 238 148 112 102 178 164 128 220 179 115 217 223 166 131 190 86 159 105 99 85 90 230 48 54 41 29 187 183 243 214 184 211 19 86 181 80 9 45 166 169 191 127 171 152 50 157 203 118 43 122 41 1 136 128 63 219 155 117 119 154 229 89 169 212 240 9 196 0 97 92 147 134
13 120 149 54 254 1 28 177 189 168 14 19 4 198 125 87 121 73 50 158 165 60 82 193 127 171 240 243 28 126 247 168 196 40 56 92 8 93 134 162 106 14 163 171 245 231 232 222 143 106 83 83 187 187 217 143 243 152 98 184 38 166 172 4 207 228 173 126 35 210 41 124 137 90 167 85 195 62 218 59 98 166 97 59 248 179 144 59 225 186 144 255 20 120 74 119 155 244 54 108 48 231 229 77 153 147 156 16 39 184 101 11 235 9 229 73 144 249 14 211 117 17 106 149 73 86 112 52 134 75 26 253 48 21 66 143 27 56 163 51 173 139 36 83 6 232 35 99 39 47 118 112 67 55 132 144 72 180 39 46 53 120 210 60 170 248 146 6 55 130 87 1 203 34 88 63 42 57 231 137 200 107 21 163 21 26 19 216 157 118 214 241 118 40 49 82 183 155 73 40 253 61 27 102 23 110 119 79 222 55 106 191 31 97 240 37 184 78 200 122 32 89 14 230 127 248 177 83 156 100 206 89 170 3 10 113 34 192 190 7 228 97 90 121 4 148 33 168 0 219 51 123 210 192 43 110 1 148 32 113 68 204 131 182 13 206 110 165 121 161 85 124 150 111 4 172 246 138 233 34 19 174 47 172 90 41 187 217 219 133 43 17 252 237 40 49 118 79 48 203
244 213 122 187 149 38 137 50 141 201 80 160 138 223 71 239 103 57 127 221 114 71 195 35 163 235 140 135 171 104 157 130 67 55 99 218 147 250 227 173 215 181 246 190 152 205 138 47 63 39 77 36 27 33 189 81 19 174 146 206 94 0 88 207 230 41 91 135 237 248 69 15 251 65 206 70 251 77 178 12 252 34 59 157 209 169 71 151 93 113 44 69 178 95 115 56 110 136 52 71 212 243 39 62 124 56 252 225 111 61 204 211 213 10 147 7 219 33 10 30 117 197 233 244 246 14 163 56 231 158 104 215 32 210 244 13 10 165 153 85 0 201 180 234 186 114 160 248 229 39 38 205 127 158 188 209 189 96 167 136 6 120 92 2 71 148 72 255 70 35 104 148 38 22 108 203 155 160 19 156 241 33 105 23 100 64 174 149 218 77 93 138 51 21 136 5 160 36 6 223 235 103 113 202 177 112 250 127 3 219 119 85 151 130 234 234 61 209 207 229 104 65 172 214 164 50 113 0 200 60 122 86 161 251 169 246 214 91 130 202 135 209 163 5 83 192 24 60 184 159 25 37 116 89 251 201 141 101 232 180 238 46 19 14 14 127 60 162 229 192 30 118 10 243 153 101 242 143 66 73 56 43 127 210 209 3 87 157 13 16 82 128 69 31 207 192 186 160 34 221
160 211 160 188 125 56 201 85 6 120 14 127 206 212 254 123 90 1 3 97 50 35 91 202 210 24 85 171 57 86 244 177 113 51 45 32 171 223 127 27 1 154 177 206 197 196 241 206 51 157 149 126 21 110 229 108 55 228 104 203 226 98 89 242 220 234 222 222 58 141 80 156 197 17 72 96 203 214 117 83 216 225 100 228 199 150 19 1 69 170 144 136 28 158 58 242 57 209 221 105 205 198 101 48 127 77 90 38 14 249 80 98 247 10 166 115 59 62 1 166 252 144 192 74 75 139 74 122 97 192 36 170 66 30 179 18 214 72 214 57 24 148 250 96 19 195 7 222 138 187 250 204 254 212 177 71 204 170 45 148 12 5 8 89 183 203 167 64 205 160 125 162 48 145 217 182 219 158 165 197 237 70 158 156 44 111 214 169 208 13 138 226 218 45 228 186 120 211 229 11 80 28 140 77 132 40 228 196 138 98 140 168 64 9 43 155 76 127 191 34 16 57 3 151 36 46 137 52 197 245 75 214 110 168 68 139 16 195 41 203 59 148 242 61 230 141 141 202 142 1 58 50 45 183 209 5 95 209 42 41 209 227 109 168 235 127 51 7 156 24 110 130 95 152 60 159 188 248 140 183 47 129 28 219 88 209 4 26 251 108 73 120 8 194 77 241 184 143 84 35
138 96 191 255 79 163 108 89 99 10 243 67 255 191 238 0 102 40 116 14 119 119 30 92 175 44 180 97 91 143 129 103 234 117 101 33 161 89 93 120 155 50 210 104 62 236 175 169 204 216 184 106 160 246 6 99 27 41 1 39 177 111 176 82 10 13 102 79 33 136 47 1 101 163 240 48 142 59 82 168 0 19 103 6 41 189 214 188 19 75 201 125 101 8 140 105 182 63 95 89 85 21 178 239 11 174 189 254 41 7 117 152 42 228 6 172 254 156 159 24 65 144 123 58 48 102 109 10 135 22 33 227 135 237 251 163 246 173 168 106 90 177 221 137 25 237 5 178 138 160 137 66 118 160 134 90 53 194 130 192 166 62 158 120 235 85 64 141 100 202 90 188 142 201 53 15 2 108 242 174 140 212 3 16 92 45 72 124 16 180 190 97 177 76 103 253 183 243 134 51 46 9 208 157 88 107 240 81 130 71 108 140 67 21 28 47 249 233 255 215 244 47 154 175 131 111 220 14 28 110 14 81 127 250 141 255 87 125 101 145 115 127 196 116 164 167 86 160 221 30 215 86 182 58 66 48 92 150 58 214 81 33 0 249 198 63 55 211 226 237 184 175 124 92 4 49 223 252 89 195 6 69 220 211 98 191 210 203 240 241 51 146 165 68 94 237 71 192 120 63
43 89 176 154 132 161 154 128 91 150 151 183 169 136 73 147 87 98 166 68 248 163 79 152 117 80 202 134 39 214 65 180 61 206 123 84 108 141 241 183 26 161 65 30 244 213 66 248 144 139 42 47 129 129 87 139 37 195 228 182 118 130 111 36 226 195 130 248 185 116 204 53 62 171 37 252 221 233 188 212 137 180 113 131 92 194 179 86 2 30 160 141 155 42 167 110 40 86 251 239 228 246 140 73 117 14 32 215 88 45 156 174 226 74 244 153 75 183 188 26 150 143 238 37 132 107 18 85 134 235 125 175 132 28 200 100 173 67 138 64 104 131 24 34 253 187 58 253 215 155 242 57 224 83 243 15 45 156 17 42 57 155 18 246 186 65 177 122 40 255 38 109 143 250 76 31 140 160 192 73 231 211 64 83 144 243 98 34 224 161 240 86 251 202 13 186 153 44 36 225 184 55 23 81 102 213 149 95 212 248 25 50 241 115 120 83 63 151 248 27 114 1 126 133 58 5 113 168 80 20 43 35 139 254 35 182 40 8 201 171 5 12 150 202 33 150 152 224 178 39 86 6 31 27 106 148 227 88 85 65 206 71 130 195 79 248 122 231 25 21 168 127 171 64 46 240 4 127 60 178 78 157 114 245 244 167 219 8 216 154 66 46 176 68 48 24 238 207 108 8
65 195 146 2 19 251 191 154 111 83 36 219 233 178 237 58 146 31 244 251 18 54 32 94 11 233 184 125 130 233 251 22 100 13 53 203 56 68 199 174 176 186 21 45 167 241 69 129 104 71 235 245 92 198 11 137 138 88 105 187 214 180 175 227 102 82 104 239 118 238 147 62 142 154 185 226 99 188 47 169 68 185 238 85 193 185 251 97 54 124 11 191 230 240 43 59 113 35 111 207 122 240 17 47 96 37 97 211 119 156 244 31 124 65 54 30 8 80 118 127 142 228 13 144 0 174 180 249 201 64 51 80 222 86 109 199 123 137 19 48 86 181 51 149 177 37 68 140 245 224 236 201 209 45 134 135 253 206 162 252 8 244 237 33 147 113 216 131 56 214 228 170 1 52 78 168 238 193 77 182 218 13 138 149 42 219 113 238 3 223 76 181 86 224 92 190 115 246 221 251 146 243 16 120 17 17 7 233 32 187 50 213 235 140 199 158 120 255 33 139 16 54 147 167 221 75 60 251 171 83 191 197 123 13 242 199 164 192 84 5 167 195 78 188 104 77 188 64 86 104 231 248 49 26 11 178 97 118 224 167 81 255 167 10 55 223 110 129 197 211 99 204 207 131 191 77 88 15 118 55 147 248 238 228 251 65 189 132 77 149 241 89 46 200 194 62 44 168 95 192
51 158 240 19 177 4 97 177 209 221 15 170 254 187 166 220 32 110 28 77 245 22 56 87 123 5 231 130 24 109 1 213 83 169 72 170 144 110 23 156 112 2 171 111 0 212 150 110 78 35 234 139 68 249 13 209 11 230 79 78 209 64 28 217 24 127 19 23 255 52 5 61 23 240 243 236 229 215 17 231 142 47 27 149 81 233 146 73 253 250 223 209 124 109 30 215 170 201 51 79 142 250 177 44 243 123 103 26 12 110 51 61 203 139 242 0 22 244 243 183 188 116 24 186 200 132 102 5 74 28 22 20 192 49 13 185 249 80 250 252 58 198 192 92 14 170 25 131 203 100 153 54 141 179 58 17 170 209 32 210 138 117 24 196 176 172 112 170 240 231 50 38 28 47 137 167 234 179 138 137 40 65 246 199 25 1 24 208 119 207 26 70 18 180 186 215 121 215 177 202 160 38 217 235 202 130 27 227 9 117 21 15 72 25 206 63 9 143 164 234 155 10 246 110 87 199 212 6 23 26 10 192 204 107 171 250 85 160 17 56 47 215 93 173 204 199 95 165 104 230 130 50 204 66 165 67 127 166 217 166 19 7 220 183 73 150 4 11 116 200 121 171 252 73 60 53 181 194 5 234 239 130 169 192 223 87 253 173 193 80 11 238 220 168 224 171 248 134 11 110
200 196 222 231 199 166 193 238 179 168 190 186 7 178 191 60 40 162 183 68 247 41 40 74 254 77 103 218 19 3 94 93 172 123 239 22 133 125 127 112 86 25 42 180 211 146 136 16 230 34 24 134 5 7 160 7 113 18 21 124 147 232 136 28 242 213 190 48 167 222 220 39 174 23 88 178 186 213 199 231 141 73 167 39 217 81 247 129 219 28 13 0 246 212 14 207 155 250 61 36 16 75 180 152 231 255 102 248 119 184 103 79 151 66 139 84 197 231 55 159 34 182 155 152 8 72 93 35 145 216 27 209 30 65 44 254 60 91 227 252 210 41 203 226 37 199 149 54 55 21 234 29 72 80 148 84 18 128 24 48 5 38 41 185 111 221 59 85 162 227 150 247 239 66 41 17 191 203 251 157 252 191 32 33 46 169 41 92 214 65 14 145 1 110 43 82 121 181 202 84 99 20 163 90 28 72 49 111 218 190 181 147 154 24 118 101 29 4 151 79 136 67 133 162 114 202 59 62 94 224 143 212 73 66 4 219 105 34 252 231 78 35 55 163 177 243 212 128 29 17 87 24 187 75 60 45 220 112 133 124 33 202 101 91 151 94 194 220 60 68 30 204 71 24 195 77 14 204 146 62 251 199 215 234 95 102 73 239 62 193 69 47 135 2 150 31 10 231 245 57
141 153 20 215 105 63 205 50 249 109 2 251 219 37 79 30 146 140 238 234 151 228 195 68 5 253 101 190 161 189 248 173 59 128 86 78 21 110 95 220 167 244 72 12 46 109 59 103 78 178 64 117 77 50 106 184 58 88 194 160 73 175 141 131 209 248 141 179 236 106 228 84 254 112 238 25 101 165 190 149 61 73 24 1 69 249 155 121 5 39 30 181 252 73 5 32 12 178 224 120 49 13 247 50 177 143 78 129 244 239 252 190 42 220 8 153 92 204 70 104 154 35 210 238 35 233 18 134 145 28 122 135 141 39 150 96 43 195 41 60 198 198 24 52 31 142 77 180 250 40 152 146 77 78 176 20 121 173 216 109 84 63 231 50 228 149 151 202 43 138 31 248 0 14 120 77 111 209 121 113 200 184 131 91 113 57 27 144 138 190 136 241 36 48 236 232 214 12 71 83 64 193 151 8 65 17 232 226 117 224 120 213 115 98 34 219 215 248 6 175 235 197 128 185 32 237 188 144 83 243 76 246 205 193 194 95 66 202 26 111 98 113 84 49 250 127 98 81 165 45 26 191 222 91 25 151 213 126 93 36 241 69 175 22 107 213 60 125 46 155 114 149 58 52 124 53 78 160 45 137 166 59 193 170 62 189 120 72 146 186 39 38 87 82 24 87 154 113 70 96
233 11 45 125 53 174 246 195 9 91 68 41 182 78 98 247 129 188 171 17 75 80 251 68 213 112 137 141 113 182 208 244 178 146 85 94 79 238 214 238 197 169 122 82 202 181 99 215 118 69 212 19 193 122 205 163 127 8 109 221 99 127 161 114 94 61 182 67 106 222 117 124 78 202 165 62 219 190 50 64 232 74 63 184 211 144 223 178 250 220 90 96 164 32 244 206 241 106 169 43 174 223 110 177 194 144 47 174 49 74 226 206 145 163 227 146 9 99 156 119 186 247 4 210 200 68 42 186 220 40 78 225 43 49 172 150 173 180 247 105 111 124 127 242 143 227 100 211 123 216 109 76 167 15 32 154 148 127 218 16 198 146 242 251 1 83 208 110 127 209 96 55 90 15 68 40 76 135 81 5 152 199 233 63 163 28 27 213 220 182 115 228 145 215 72 131 31 37 178 221 86 21 227 136 172 77 50 144 180 237 43 190 53 42 139 188 206 208 137 118 246 212 65 99 243 196 23 102 49 172 39 221 147 35 193 36 30 234 62 121 199 24 237 91 96 41 38 37 238 28 180 213 151 142 163 91 19 103 93 121 138 178 3 152 254 123 174 224 166 66 196 142 30 226 149 50 110 43 236 149 38 208 73 18 179 19 90 243 139 18 98 51 50 135 233 237 127 119 118 84
62 155 231 12 5 32 187 196 160 46 54 88 215 212 134 4 51 107 146 38 199 38 183 214 53 61 68 1 72 87 220 133 121 45 138 88 152 243 177 181 94 214 71 182 108 69 17 131 91 91 192 24 119 127 119 124 192 81 146 226 19 13 224 47 9 205 221 128 167 200 55 120 188 218 228 144 118 245 89 203 78 24 68 168 153 185 192 205 23 96 119 249 187 151 93 82 38 63 61 126 221 159 86 191 152 235 248 224 87 254 210 182 180 125 231 168 63 62 60 215 32 142 231 191 73 88 65 73 218 75 246 8 20 102 111 215 225 187 168 10 218 12 45 226 137 135 155 40 169 163 45 138 123 34 204 45 127 99 175 84 35 1 67 82 199 32 132 106 192 98 152 155 0 157 231 64 192 195 12 72 190 166 12 78 1 97 173 115 213 218 31 242 102 92 85 139 199 152 67 47 77 241 106 218 100 37 37 116 214 192 93 134 83 42 31 227 228 99 124 234 35 92 98 32 254 243 4 47 201 56 40 146 217 229 44 164 82 64 166 158 80 19 83 101 139 28 63 235 178 75 110 43 30 164 153 101 213 105 54 125 1 32 225 55 211 131 37 140 98 141 153 233 229 27 185 116 1 109 194 104 73 115 87 99 158 79 243 172 234 84 137 202 42 195 214 222 38 107 215 76
82 70 98 124 221 36 44 163 20 168 145 57 222 116 113 195 171 90 0 94 221 156 40 128 10 56 112 189 150 125 14 102 79 36 236 161 94 6 37 238 18 214 59 61 3 206 200 3 161 89 5 204 160 0 223 43 214 255 46 15 139 119 48 94 20 1 32 77 220 74 193 96 236 152 97 168 30 127 231 55 179 171 36 137 100 249 98 48 238 231 226 101 164 0 131 95 184 147 176 249 3 228 22 238 226 59 5 38 158 217 114 47 254 208 236 155 135 13 137 87 19 222 40 157 37 248 145 227 168 73 2 81 87 18 102 131 231 147 77 161 26 20 11 60 46 140 123 96 170 144 83 62 208 145 9 20 119 209 189 208 211 187 60 207 135 132 99 66 196 91 11 61 8 75 222 185 64 252 62 215 204 211 18 200 84 15 35 34 86 166 249 9 131 71 50 132 128 16 31 38 193 115 216 118 219 184 38 166 76 231 82 248 68 38 39 233 79 149 109 202 50 114 214 5 14 79 212 191 52 71 32 111 92 137 157 96 62 106 227 77 44 122 16 174 215 116 17 129 80 109 17 179 195 226 8 241 138 34 150 172 93 1 4 113 0 159 192 157 97 112 50 101 81 226 190 176 199 117 71 63 56 90 93 143 120 251 92 47 232 250 56 7 129 199 243 196 171 44 51 142
253 231 23 242 28 16 40 102 206 184 39 231 7 71 74 62 150 246 161 161 7 191 254 171 205 245 16 40 140 136 119 7 49 169 181 34 234 35 164 154 32 24 132 230 4 171 105 254 191 75 22 199 140 249 80 76 254 97 9 99 43 237 233 8 197 85 171 134 63 225 135 169 203 227 60 217 56 134 128 137 60 189 193 209 145 3 161 9 48 193 149 109 182 196 28 25 231 29 116 251 159 4 199 152 25 224 186 225 169 186 10 131 36 156 252 97 47 9 216 50 105 232 248 151 7 192 67 251 167 233 179 118 212 111 180 74 15 218 22 184 94 148 233 53 38 136 186 66 0 141 57 131 177 93 207 227 16 20 141 220 57 192 220 244 106 70 26 46 111 44 128 158 9 219 96 79 72 96 189 139 116 32 244 214 230 131 214 203 8 242 229 12 22 164 29 63 80 40 209 247 251 132 227 18 36 27 234 154 128 144 179 53 100 38 43 248 65 110 59 166 60 160 17 232 137 110 72 78 5 202 250 94 225 208 132 148 79 116 98 111 64 20 148 143 101 93 52 245 173 169 244 69 236 76 27 80 156 64 158 124 73 156 9 83 0 202 39 187 7 211 31 255 24 67 122 31 136 230 89 68 46 20 193 22 183 109 193 169 70 20 84 174 230 168 55 239 91 211 229 134
