P3
100 100
255
163 141 73 171 216 248 145 16 216 230 19 229 66 28 252 49 185 200 170 193 121 93 163 36 59 165 163 78 234 7 123 68 139 215 244 15 33 106 215 106 36 113 178 93 89 46 245 190 232 207 125 126 49 112 116 227 66 67 131 239 179 197 212 248 182 88 51 55 5 18 78 88 57 150 89 16 14 99 101 143 233 141 171 98 64 94 99 182 176 208 211 197 185 125 230 125 38 218 95 12 83 61 210 180 72 11 238 17 199 50 218 92 121 139 148 19 2 77 4 10 221 169 229 103 236 83 135 10 69 52 58 36 19 118 145 158 67 104 154 103 20 72 220 244 41 191 144 33 131 184 14 14 193 55 106 189 179 61 32 217 84 168 165 61 44 155 112 240 94 205 216 214 10 249 129 37 74 238 136 253 248 221 132 173 132 154 211 243 236 153 233 139 112 238 75 188 175 243 212 213 75 41 101 117 226 209 222 60 251 230 225 42 53 79 234 172 108 87 129 94 230 55 161 73 186 44 75 50 139 152 13 47 15 102 43 236 248 238 235 84 171 242 229 55 32 196 48 6 73 20 229 17 174 168 51 20 213 109 185 195 52 142 51 85 73 214 21 25 70 197 56 21 71 57 136 73 118 147 184 202 113 180 73 90 114 47 67 176 102 3 31 227 6 156 194 163 225 34 177 132
96 45 203 242 127 186 129 92 56 178 40 175 222 133 131 248 122 197 86 117 148 202 150 129 103 226 162 111 121 21 133 193 68 114 87 77 134 67 200 155 230 193 102 13 6 224 10 198 162 164 246 246 191 113 170 132 83 106 209 135 212 100 88 151 155 130 109 110 142 87 143 29 18 231 183 76 179 36 20 28 251 69 38 232 126 72 229 12 232 216 143 246 158 153 193 181 74 250 128 210 95 147 0 225 30 244 94 107 34 5 223 40 0 91 60 61 207 27 186 230 57 39 192 102 117 48 156 202 100 39 121 213 109 217 144 204 72 90 49 60 30 101 76 55 248 149 237 231 111 105 121 46 197 234 188 189 158 234 47 143 195 220 105 32 82 17 66 83 135 135 177 178 131 89 156 255 230 82 76 55 128 197 249 87 38 127 59 126 63 89 151 108 210 130 19 253 200 1 22 19 78 49 243 3 178 218 128 175 162 33 245 10 110 58 119 25 247 156 33 43 180 212 121 207 200 72 39 119 211 92 154 177 128 106 167 65 163 183 48 163 137 28 16 144 250 79 146 51 36 169 9 88 154 240 114 184 75 55 240 129 152 27 163 205 3 33 181 80 53 116 161 113 156 24 162 254 144 125 7 117 65 76 26 87 119 34 135 141 78 25 79 247 170 82 230 120 120 195 206 60
70 165 169 168 178 35 212 153 39 103 103 233 214 157 79 82 14 249 212 174 181 50 253 5 7 59 226 42 1 151 78 228 35 215 208 26 202 15 123 111 8 90 86 153 17 81 126 189 200 245 81 165 80 100 42 20 149 177 4 194 28 25 117 160 115 22 137 98 174 211 213 144 54 11 24 72 204 247 190 197 109 64 139 152 186 103 111 0 144 50 127 47 147 107 152 166 53 155 252 50 85 158 81 60 96 72 84 195 57 215 221 234 13 27 94 120 10 218 139 68 205 181 242 21 36 117 8 113 27 175 232 187 120 151 191 92 148 210 110 196 80 233 235 36 98 43 205 64 185 237 174 131 177 120 86 173 96 233 112 0 206 7 132 186 62 92 32 253 166 8 116 35 63 42 33 171 31 118 30 199 120 248 217 46 115 117 124 161 7 153 137 138 219 79 219 106 145 250 136 247 227 245 253 204 93 21 118 16 161 35 96 100 156 167 55 24 3 49 85 32 193 138 182 169 85 154 235 160 162 143 81 220 240 152 75 222 72 109 237 10 72 180 244 82 92 37 181 189 227 183 78 173 206 118 76 233 143 234 180 3 192 140 204 52 69 201 146 22 62 248 58 103 69 116 121 115 180 228 229 109 19 104 86 102 47 155 38 175 146 184 92 131 103 57 215 109 48 217 150 181
209 246 23 14 199 252 39 240 232 231 46 54 189 215 218 235 138 152 13 174 78 5 110 242 152 167 252 253 27 134 139 85 211 135 107 96 186 2 110 188 234 105 114 63 210 119 187 122 151 84 130 228 203 69 5 115 151 146 218 110 209 70 191 203 193 181 214 121 64 142 131 73 134 86 253 191 114 172 35 90 118 86 33 13 167 58 225 203 25 96 210 125 128 245 72 63 84 93 203 195 17 198 206 212 5 240 36 67 252 202 117 5 173 26 3 29 51 182 224 44 17 185 225 239 123 63 133 245 27 188 151 250 40 205 144 214 1 161 66 143 88 35 7 9 249 4 113 52 60 99 14 69 9 177 30 201 179 26 206 234 254 167 202 80 219 88 251 241 116 79 184 192 108 166 214 148 192 55 236 139 153 82 92 55 236 104 41 108 20 93 140 103 117 127 199 81 225 197 38 225 151 148 15 10 99 120 138 181 123 224 31 88 93 11 124 31 25 65 15 67 78 9 157 70 110 64 210 144 225 225 152 66 90 59 122 107 137 7 232 249 206 58 16 242 31 140 119 62 45 14 160 27 181 208 74 198 81 0 255 196 59 41 159 41 102 41 45 4 193 122 168 153 65 239 65 81 116 93 229 180 213 188 62 76 55 3 229 66 3 93 69 122 106 209 188 185 60 76 215 99
135 4 118 59 25 181 151 203 171 148 255 139 118 80 56 31 4 140 187 231 80 177 149 122 36 187 196 158 251 245 70 245 20 251 135 198 106 157 1 39 135 91 147 229 47 127 210 168 33 12 8 13 246 137 208 65 220 13 181 132 83 231 172 32 235 34 195 121 243 82 32 39 14 187 145 127 236 65 139 15 126 27 61 155 160 222 225 223 83 221 128 100 190 207 196 254 239 119 51 46 250 119 87 242 139 83 187 71 57 104 23 131 222 177 38 164 25 103 6 245 33 183 76 21 185 118 52 212 165 239 103 118 79 117 169 55 158 163 175 73 251 3 249 227 177 32 94 235 103 67 30 40 231 109 14 1 39 205 132 172 218 207 224 247 132 223 244 240 132 79 41 136 181 177 223 221 201 36 32 87 148 118 43 126 201 116 114 207 79 11 168 103 49 161 225 109 67 66 178 115 204 173 203 222 167 184 218 61 84 111 83 2 228 221 209 40 123 104 49 246 76 206 242 70 1 9 179 220 178 133 158 50 237 39 236 58 147 30 127 87 249 99 218 47 25 247 68 123 228 221 13 182 43 211 5 16 249 52 120 77 85 152 10 225 249 53 176 96 234 82 146 47 73 232 249 26 197 59 117 202 171 88 29 52 103 174 40 107 81 75 112 35 172 142 2 181 110 0 165 181
73 134 179 4 41 191 7 50 148 180 141 230 74 141 145 41 19 242 106 46 251 78 54 4 170 225 82 30 251 62 108 37 184 229 98 35 95 174 154 231 93 55 16 193 187 181 222 145 201 219 187 51 151 125 159 213 79 250 158 225 97 255 12 94 1 55 116 76 100 237 251 206 177 155 117 92 233 193 30 22 113 105 46 243 191 234 90 176 39 79 40 89 132 229 33 70 179 228 217 213 144 219 102 174 19 61 80 231 62 240 255 171 36 97 239 15 213 107 232 11 185 90 207 17 174 201 197 198 145 236 188 228 246 161 192 187 247 55 47 61 193 159 28 174 160 186 134 154 71 108 22 75 200 64 174 113 229 165 2 23 36 113 39 145 93 34 37 226 109 197 18 12 80 121 25 83 11 243 209 52 178 158 67 221 209 235 137 74 103 177 54 150 191 216 93 39 111 244 12 1 193 244 128 37 177 188 196 193 156 210 115 16 123 87 140 226 111 199 168 108 198 72 18 87 34 134 239 184 100 145 209 135 112 46 146 163 197 140 243 42 158 51 134 220 203 34 86 90 24 149 199 178 75 140 226 242 220 129 204 80 250 63 190 7 182 133 172 109 203 208 128 254 245 5 200 242 231 101 78 220 85 61 212 39 44 113 220 87 111 97 147 238 236 180 213 6 163 167 146 106
170 188 160 1 217 62 154 35 146 233 108 46 194 195 170 51 49 221 94 196 161 170 109 233 145 88 79 146 93 27 50 250 117 241 50 94 4 11 82 28 198 118 5 227 4 32 192 154 200 45 187 104 140 226 90 173 139 39 49 176 198 251 113 156 156 170 231 154 49 241 66 233 68 32 236 168 178 38 60 12 149 214 218 143 160 46 120 218 125 108 65 129 126 176 205 198 18 183 174 37 116 195 45 92 217 123 1 240 195 235 92 0 59 215 68 74 62 216 252 69 203 254 220 209 74 246 180 8 87 67 87 153 1 132 68 44 183 168 244 9 35 37 71 42 172 228 18 138 162 44 243 116 236 181 197 67 32 153 111 143 242 254 74 217 134 117 3 98 110 245 215 158 55 166 235 192 182 80 104 112 253 247 93 129 69 4 112 240 59 108 116 45 249 198 152 34 178 83 113 67 180 97 20 147 144 20 42 113 160 127 141 64 205 247 107 148 0 115 117 14 240 103 93 136 99 32 50 32 61 192 48 41 102 117 28 221 192 14 31 43 77 36 9 204 42 237 11 165 9 2 110 38 234 186 10 103 6 102 134 23 110 8 96 103 241 146 97 85 159 76 186 173 211 146 149 107 160 161 135 194 8 155 147 49 22 81 63 130 90 29 247 207 26 0 143 250 23 75 79 103
226 206 193 225 209 21 30 191 217 82 72 35 136 12 174 124 192 122 221 250 41 4 192 14 163 250 76 49 84 176 111 90 28 109 60 255 132 183 157 231 211 11 110 55 66 115 13 213 178 68 58 123 248 106 23 79 234 66 150 239 174 127 28 140 122 185 232 13 160 120 114 131 13 39 129 197 8 47 164 49 67 141 39 150 180 118 82 83 213 100 170 29 217 19 120 9 113 62 103 63 242 42 108 173 169 236 120 37 251 179 49 124 175 10 138 228 126 238 227 33 181 188 164 9 95 82 255 1 134 102 112 185 175 39 236 120 212 25 31 113 53 146 177 61 145 242 201 42 7 200 17 25 158 185 91 166 68 221 199 160 46 166 120 220 133 119 170 109 222 105 162 44 161 252 79 189 204 96 133 199 8 62 119 18 106 25 100 166 27 73 134 54 196 110 6 237 20 231 73 3 124 214 246 10 126 51 171 39 5 209 141 48 223 27 214 149 67 156 46 150 253 253 253 45 205 156 193 180 36 214 0 122 156 193 32 47 151 116 47 109 105 190 172 163 244 249 104 231 163 0 73 16 166 110 179 188 243 85 194 233 40 76 214 128 188 249 3 45 164 148 37 58 26 172 203 132 53 60 223 185 135 90 181 3 25 162 85 160 96 32 88 121 220 122 165 119 198 52 248 235
105 93 24 22 176 59 242 52 71 95 102 228 32 147 71 42 23 165 55 146 201 230 160 55 108 215 233 9 218 144 42 226 19 13 171 64 206 112 41 51 74 115 19 109 162 26 111 72 198 17 125 54 179 139 119 163 183 180 124 91 88 107 131 62 70 122 117 34 202 9 191 27 10 41 155 152 81 255 59 25 170 145 224 58 36 195 29 159 142 193 179 208 160 109 217 148 35 42 145 131 136 4 62 46 76 80 224 142 5 76 78 216 231 182 200 223 1 233 202 62 52 11 76 157 39 46 194 201 212 102 153 115 167 150 130 14 182 243 170 150 160 168 78 80 175 241 133 164 228 88 218 104 210 238 191 182 7 92 245 164 231 170 176 220 149 125 149 115 254 209 35 251 106 200 52 5 79 211 59 15 237 206 213 122 58 174 162 142 113 162 15 4 38 39 196 136 71 214 142 181 239 184 209 109 75 99 141 123 152 74 203 28 79 166 140 26 9 216 136 238 191 16 72 174 41 238 93 164 183 187 113 121 109 250 202 157 156 58 219 16 119 78 1 68 167 26 251 101 195 103 133 29 162 244 161 132 225 23 25 66 31 253 13 112 144 70 56 232 100 145 51 108 216 0 194 255 235 4 109 164 234 240 68 82 94 1 199 201 225 29 167 109 253 249 98 48 57 80 40 179
215 141 161 94 244 6 22 181 194 253 175 178 144 132 67 242 222 195 184 32 207 93 193 215 87 149 168 178 70 231 159 54 226 228 32 12 207 167 59 29 124 80 108 138 174 12 29 105 227 236 161 151 183 126 48 147 43 143 49 107 87 134 0 243 111 133 201 49 240 215 166 111 219 48 61 26 246 193 19 170 183 2 54 223 23 78 41 122 22 207 67 110 235 216 151 26 126 18 77 90 135 58 142 171 40 166 196 238 95 254 25 198 54 225 22 174 169 130 188 251 63 202 34 135 14 44 137 117 136 199 197 175 217 140 205 167 255 150 42 4 224 5 141 0 224 144 254 88 40 34 236 205 234 6 140 206 230 75 90 10 216 232 51 35 63 141 238 224 131 59 42 4 49 160 176 175 156 219 15 233 123 24 171 235 17 221 21 41 235 229 25 108 85 227 131 191 33 105 194 120 170 8 50 43 186 254 58 179 19 213 223 102 111 74 113 168 183 97 237 80 111 62 137 144 249 45 101 66 230 11 41 47 53 5 146 144 208 253 82 217 177 101 29 3 187 232 28 92 29 241 10 208 82 178 242 179 166 80 32 137 13 118 242 211 162 214 213 98 209 46 173 23 211 34 42 211 93 184 42 195 36 255 4 37 82 193 210 225 56 24 57 25 96 137 217 231 250 158 4 36
216 67 118 44 165 101 253 102 0 145 251 45 51 251 130 76 46 10 43 148 71 135 231 105 44 56 150 233 105 61 68 76 112 112 46 117 109 104 231 217 3 189 168 13 148 17 29 227 40 73 241 251 190 141 82 25 205 231 159 191 92 160 1 43 229 65 60 169 14 169 123 119 65 60 55 66 240 224 205 165 2 117 170 156 220 73 216 116 37 111 247 204 78 188 59 150 52 233 139 30 23 47 178 250 79 186 84 1 253 12 9 36 39 176 241 186 72 102 152 7 150 124 151 60 222 133 208 202 149 253 18 205 172 159 100 100 37 235 233 168 72 196 52 152 104 213 224 95 7 24 172 198 247 93 77 152 136 145 203 18 162 49 206 160 95 88 182 227 173 208 225 10 237 88 0 21 130 48 182 245 10 180 23 141 213 220 95 189 23 124 139 57 112 63 3 171 171 202 100 4 255 252 217 221 56 154 244 232 68 234 31 48 95 231 96 68 189 222 195 53 147 249 55 216 200 135 21 3 128 213 212 192 1 81 142 66 64 214 79 220 192 75 151 92 17 169 101 105 136 22 75 10 218 194 246 243 63 30 250 150 64 154 31 10 133 248 186 74 1 78 136 192 83 23 232 14 42 65 171 184 243 66 14 150 153 173 19 57 147 163 61 46 25 78 174 204 38 54 122 101
206 190 223 12 31 92 224 225 242 30 85 226 222 0 55 233 146 24 199 133 181 223 154 170 206 180 226 130 235 170 244 117 29 148 47 41 47 106 141 106 90 18 197 13 242 214 133 156 124 114 82 97 250 201 45 69 164 170 189 46 76 179 253 71 190 235 77 209 46 58 109 74 128 44 207 103 225 154 156 208 140 14 253 221 185 223 15 59 74 11 198 187 45 121 127 204 144 198 26 161 252 2 240 164 155 143 213 252 224 22 49 48 100 118 21 118 102 48 243 208 244 110 255 4 228 49 218 212 131 87 138 101 55 18 70 238 60 17 133 247 61 145 222 251 228 254 88 104 126 120 188 232 255 13 124 174 212 40 126 28 146 17 122 149 63 173 78 247 112 237 112 134 211 127 169 245 173 1 146 254 97 194 65 174 51 187 9 1 197 99 216 26 214 107 70 59 79 253 65 217 37 107 103 175 93 173 123 18 249 138 231 188 242 111 141 40 93 219 53 53 212 102 75 8 56 151 183 20 252 63 132 155 241 156 100 126 229 31 136 3 28 34 87 7 28 30 167 198 143 45 89 127 225 51 90 101 115 158 113 59 195 93 224 25 178 160 110 98 207 140 200 128 28 32 198 154 184 193 226 224 248 48 47 96 130 60 136 47 35 112 97 26 37 243 170 162 5 149 163 170
191 112 20 162 128 199 37 183 76 253 34 53 76 106 189 249 74 181 3 86 46 153 142 221 115 192 123 82 239 222 243 213 21 203 68 148 148 28 236 103 208 236 213 97 240 36 116 235 164 216 158 56 249 240 187 92 188 55 145 202 43 253 245 21 124 251 193 229 108 120 236 83 191 173 121 170 221 159 114 164 147 46 33 218 230 143 236 145 85 159 116 4 77 57 189 48 249 192 110 34 168 139 159 30 138 192 121 106 71 49 85 45 246 99 38 160 231 56 58 124 194 124 209 14 248 83 28 77 173 118 14 202 123 41 239 61 51 63 205 198 168 182 226 16 135 70 251 53 17 155 54 115 182 42 33 250 236 109 158 242 176 162 147 230 159 102 24 144 104 255 240 121 77 195 12 184 186 55 24 250 96 212 180 54 141 0 8 80 164 100 26 202 85 179 102 162 181 30 15 44 102 42 105 225 215 135 68 93 55 172 198 97 175 17 115 214 180 229 135 65 33 174 137 239 165 252 209 9 15 141 103 201 210 97 153 2 236 11 168 52 1 54 138 110 31 68 156 10 234 238 205 221 16 56 83 108 243 128 152 241 131 240 142 137 134 108 169 91 80 128 131 191 222 137 75 21 7 170 149 92 88 229 115 218 76 221 41 173 179 106 100 245 237 137 154 130 45 69 77 98
244 240 36 205 43 113 42 86 38 6 76 13 141 144 236 69 24 129 72 65 36 191 6 151 199 50 236 216 174 231 186 117 222 102 87 24 200 255 36 2 106 76 168 218 35 172 186 244 114 67 31 188 215 194 65 242 63 231 46 96 105 61 9 120 192 54 130 66 113 80 209 128 111 223 131 161 98 91 99 50 226 158 78 53 116 255 148 196 11 147 203 205 153 26 18 238 13 22 53 189 44 234 89 220 231 222 112 132 169 214 110 192 82 241 226 123 189 150 188 154 76 130 82 123 173 120 155 98 182 59 190 183 44 110 90 184 9 168 71 28 133 181 224 46 130 150 133 30 19 132 22 94 47 93 48 113 2 173 27 40 90 11 135 26 99 226 33 85 10 245 44 92 40 194 157 59 193 43 100 153 8 37 195 90 70 133 202 251 21 6 198 151 111 232 13 232 30 42 236 189 62 139 167 47 55 174 13 37 135 94 130 152 175 86 193 109 54 191 135 101 232 194 249 129 43 146 82 8 164 194 108 230 174 235 238 119 226 10 81 37 218 233 164 141 26 148 98 186 23 201 123 14 59 167 71 197 252 249 108 214 49 222 177 7 77 190 67 233 228 242 78 188 122 225 57 254 82 62 24 191 11 88 73 95 74 88 23 213 235 153 33 149 47 29 176 130 46 115 6 114
181 138 164 163 180 7 114 123 115 14 121 22 101 60 7 49 67 101 88 151 183 220 239 42 50 3 37 9 181 222 51 108 247 225 70 213 88 119 165 197 13 23 155 104 96 147 151 245 127 14 66 229 149 131 241 10 35 90 126 12 8 232 118 50 226 2 252 199 220 186 78 184 180 217 225 158 58 97 215 252 62 12 128 56 146 74 167 5 127 50 194 188 96 44 73 27 135 142 83 87 39 37 243 178 91 43 213 188 87 44 220 109 156 60 248 165 89 134 48 126 194 173 5 204 126 50 113 241 248 141 100 229 47 218 11 60 144 125 217 197 89 88 200 178 104 200 179 116 98 202 50 61 46 65 20 147 134 231 233 194 105 229 99 154 28 250 75 115 205 248 77 140 184 72 11 54 245 6 82 9 92 244 246 100 1 143 103 79 30 202 49 213 222 113 81 74 196 147 142 25 147 173 203 0 19 223 179 44 16 146 35 36 241 57 200 75 209 159 175 127 63 16 163 121 211 98 220 24 203 78 4 154 198 173 97 177 119 116 153 94 56 180 27 233 71 146 195 203 135 46 158 131 36 93 171 175 141 114 195 250 14 111 254 147 41 16 202 250 38 253 225 238 49 188 25 201 66 9 126 157 85 105 245 30 129 55 149 196 136 162 253 210 50 224 96 196 75 227 111 253
58 123 11 250 123 137 180 95 199 217 173 28 192 8 138 97 124 100 192 16 225 39 213 181 76 236 12 83 248 162 119 38 66 17 123 224 236 44 202 118 248 203 96 145 151 228 47 51 148 61 105 192 179 151 31 39 225 108 7 192 23 62 52 242 160 60 110 98 233 22 43 108 118 116 188 182 102 16 163 217 69 59 222 195 50 153 41 121 220 33 147 154 166 9 252 192 110 247 188 66 179 237 226 249 242 86 112 196 237 109 121 65 130 213 109 13 198 94 103 18 166 98 249 173 78 181 150 66 119 155 55 238 73 47 141 220 42 15 251 94 6 248 30 9 153 235 195 152 41 18 36 159 64 196 140 239 2 13 192 129 254 48 235 139 36 63 201 36 108 178 159 93 158 125 108 21 126 184 251 180 82 47 169 250 67 40 139 163 150 17 209 129 8 11 183 138 176 248 213 165 144 193 243 53 4 254 158 153 127 154 249 54 232 16 197 202 222 27 209 73 231 112 1 211 6 176 221 34 9 35 58 17 241 222 236 243 170 116 53 55 145 13 175 4 17 0 126 37 246 32 164 205 1 247 32 110 83 7 108 131 241 109 138 232 211 250 41 13 123 188 168 204 103 39 188 9 6 131 198 105 98 224 31 60 196 46 215 218 241 35 149 123 31 97 24 45 94 236 147 206
80 136 251 92 158 61 29 126 5 210 87 120 12 11 42 126 74 79 193 6 133 4 189 224 42 210 234 95 101 148 71 64 149 181 13 88 65 9 71 120 155 211 34 108 149 192 95 168 11 21 118 92 103 62 61 99 46 174 91 94 33 250 16 111 91 103 75 246 151 245 210 34 173 11 181 145 209 121 85 249 121 168 148 131 144 204 168 33 15 202 193 189 112 252 35 203 218 128 178 230 35 176 37 94 11 126 238 20 127 174 25 170 42 118 249 161 100 197 123 135 195 26 21 38 0 113 58 123 94 7 184 4 69 139 35 161 214 32 237 254 63 56 60 65 194 43 183 91 135 17 148 86 191 49 40 40 85 33 182 165 206 7 184 162 220 8 206 44 231 52 30 19 84 51 240 91 200 147 122 167 52 209 238 102 78 9 167 30 181 43 224 83 108 179 198 103 231 113 60 74 72 198 206 243 37 158 130 146 141 230 103 67 98 211 121 2 55 205 131 186 195 188 234 174 247 219 40 2 152 28 88 185 90 195 110 248 62 11 107 251 75 204 56 157 1 118 177 193 120 2 110 33 199 7 61 39 58 84 196 91 255 188 228 246 145 34 32 79 20 124 114 33 186 1 151 31 121 222 15 119 95 135 127 95 223 141 103 236 241 149 239 245 207 139 151 225 101 201 204 236
249 157 35 106 233 6 49 65 85 33 14 156 93 237 42 214 233 195 61 253 168 5 82 243 123 108 147 149 24 100 181 80 23 120 180 32 191 74 95 175 109 130 128 154 47 53 122 221 96 252 194 186 77 101 78 47 76 191 187 125 65 79 32 43 37 194 107 149 103 87 39 99 92 92 70 82 63 151 194 102 156 66 7 244 149 6 224 172 168 4 72 32 211 189 39 176 140 4 189 150 188 160 218 234 197 30 88 31 64 87 87 225 89 193 116 233 26 236 81 122 16 70 217 250 14 232 190 192 59 93 226 190 105 156 174 176 42 91 187 135 23 144 235 102 27 52 67 7 252 73 50 129 165 105 200 214 60 89 221 107 182 174 25 114 200 110 243 142 16 52 152 187 82 112 240 238 84 105 106 33 182 142 15 205 3 33 38 41 220 154 7 249 225 135 111 233 122 122 192 238 60 173 235 56 118 15 225 75 238 208 141 212 196 42 119 186 199 230 81 27 61 72 244 210 22 44 95 44 140 47 168 136 11 127 147 178 162 50 126 98 6 69 14 178 238 144 184 77 89 15 21 100 126 165 85 95 166 225 131 155 99 255 212 132 149 10 104 193 147 246 251 129 129 108 44 229 151 139 152 87 218 130 117 18 168 225 89 235 211 128 126 27 150 129 163 89 195 172 105 176
124 26 230 187 67 243 168 140 93 176 201 245 218 214 211 244 113 95 129 32 81 50 219 141 79 113 13 52 85 215 87 25 28 92 239 133 239 29 8 251 71 13 8 116 70 186 59 239 197 8 84 227 104 180 59 134 237 237 112 17 179 150 222 47 248 30 164 97 141 187 81 188 238 130 55 9 61 5 22 33 195 22 111 173 174 244 99 41 97 90 189 215 76 86 32 9 110 158 12 90 210 142 184 188 112 34 253 189 226 241 7 120 164 48 233 204 149 149 201 253 252 246 235 168 36 240 31 186 170 60 12 237 178 71 18 12 169 132 229 207 207 182 134 123 250 2 61 82 94 141 141 101 158 115 52 19 9 137 242 109 82 79 72 210 205 255 79 71 34 223 155 171 189 97 200 109 169 157 197 157 34 193 89 149 48 9 115 79 51 115 216 165 160 209 227 28 81 15 95 83 91 101 149 88 88 138 186 151 83 181 31 77 239 77 23 67 61 235 9 114 8 210 193 102 12 0 160 255 53 79 198 73 145 12 219 94 177 123 112 137 98 79 186 98 51 157 236 70 1 201 226 133 172 208 15 134 160 190 235 241 103 4 159 34 4 142 62 38 34 15 216 44 127 62 29 228 206 134 132 197 27 104 110 197 140 130 142 223 46 94 61 12 110 81 158 70 53 138 82 83
101 239 98 191 51 94 47 162 183 242 56 89 142 228 143 248 109 138 28 255 28 125 222 90 184 182 43 59 119 241 90 183 156 198 153 130 195 42 198 111 71 109 136 107 25 14 217 7 75 254 234 230 207 248 135 120 91 21 225 205 3 208 120 144 211 221 202 7 80 21 245 97 240 142 79 207 129 129 187 45 159 199 66 90 88 173 151 169 112 207 252 232 81 120 1 76 8 6 103 220 86 223 24 224 121 81 138 118 56 167 195 229 75 137 99 51 102 42 88 100 40 28 196 125 254 154 26 44 251 101 30 71 120 142 197 133 187 70 106 71 234 114 212 51 244 131 70 49 147 178 107 149 22 133 59 195 158 116 106 200 44 222 8 254 38 90 83 249 82 191 141 157 79 42 23 217 221 241 221 148 226 129 199 223 73 82 31 135 173 125 219 2 69 22 66 108 1 230 212 50 142 153 70 79 0 148 202 163 186 49 254 207 136 104 136 145 155 66 79 7 175 247 95 45 143 116 57 33 99 240 17 163 237 241 244 177 13 247 186 152 246 123 207 248 241 43 58 201 53 139 205 105 190 101 248 110 46 145 187 227 208 42 154 150 103 92 110 242 245 36 61 59 131 160 14 53 43 224 43 199 110 213 198 22 248 118 94 245 134 11 131 212 189 83 252 157 112 15 126 27
74 16 79 140 109 154 1 173 192 152 146 98 72 236 252 149 128 27 175 161 135 145 89 234 30 166 151 57 20 125 114 216 226 57 208 200 19 98 255 120 15 233 243 87 239 132 141 185 146 216 206 223 106 174 244 159 195 82 216 212 187 23 194 36 71 113 170 227 243 58 162 20 39 74 100 177 113 79 110 41 56 95 15 63 109 37 69 244 107 81 206 124 41 157 8 207 240 227 237 241 111 207 62 174 102 91 5 86 124 105 109 133 246 208 49 207 152 151 21 175 172 41 142 91 48 83 238 234 66 16 81 29 10 130 161 177 96 161 98 8 195 193 219 68 134 104 110 101 207 162 219 67 10 144 123 179 88 216 253 21 151 44 33 6 185 219 243 200 111 209 93 127 179 235 202 79 103 209 48 140 249 200 188 88 38 132 89 62 20 230 224 165 184 145 228 61 219 165 10 19 25 195 160 40 230 147 7 121 247 154 235 23 48 236 29 103 67 235 103 18 84 27 148 143 93 172 232 34 74 79 86 233 47 72 75 207 220 104 115 189 183 165 52 110 185 234 48 214 162 188 171 24 154 230 252 142 152 174 197 245 136 239 152 193 240 184 150 52 78 55 79 120 29 153 67 97 13 77 170 122 218 253 54 255 202 45 191 204 60 166 169 41 160 45 51 234 57 208 214 251
229 165 89 115 211 184 5 226 14 53 203 192 33 109 15 54 39 132 20 170 235 28 52 162 151 85 246 162 239 30 71 60 92 148 37 132 32 145 146 191 115 74 24 166 152 158 174 86 195 110 101 107 228 128 248 168 102 3 30 124 108 34 205 135 82 60 109 169 85 184 141 148 88 241 194 171 37 209 4 170 228 205 5 2 211 46 240 56 32 171 220 155 189 116 160 82 68 142 130 228 247 35 235 12 220 100 216 18 89 244 113 49 255 11 237 74 57 129 215 175 191 189 90 75 156 145 191 8 137 158 52 73 111 21 94 149 136 156 248 1 31 85 100 148 71 156 206 157 157 41 65 241 44 231 32 105 129 193 222 42 220 31 251 120 104 192 24 135 103 200 131 58 13 169 48 210 115 85 104 113 189 52 172 198 46 117 194 5 121 248 14 156 218 91 15 181 224 228 149 203 42 55 61 141 69 198 72 12 220 179 13 2 103 23 239 128 41 243 2 25 251 165 29 226 225 100 137 224 151 235 190 23 86 116 243 239 39 121 175 48 210 194 82 165 158 125 91 50 141 18 200 159 62 10 22 180 135 238 73 214 244 139 5 217 88 102 233 80 173 135 236 79 93 203 85 222 122 125 35 123 217 244 194 149 66 232 84 76 222 139 141 213 72 89 224 99 110 121 230 56
22 186 143 30 177 220 253 220 166 148 165 199 25 155 109 128 129 27 146 81 194 213 171 111 46 124 217 216 161 153 57 173 57 125 55 83 37 86 92 191 245 63 208 92 184 25 144 192 40 84 104 161 186 95 196 131 166 37 107 4 255 8 49 133 66 217 143 136 239 11 14 151 170 198 46 201 10 217 98 155 205 11 119 50 93 77 53 108 113 188 254 95 220 143 77 236 32 142 39 179 66 48 198 74 189 17 144 115 238 50 163 200 106 171 220 87 5 204 24 212 95 199 24 189 134 158 139 121 62 62 105 34 170 61 182 122 81 195 106 202 29 251 234 60 91 19 1 189 49 94 194 177 99 16 54 67 252 153 151 209 62 190 3 222 232 97 104 155 219 228 133 62 80 151 94 72 116 159 126 31 38 199 100 59 246 55 188 46 112 36 55 185 7 184 125 141 65 4 139 90 17 79 41 143 17 175 79 74 166 133 180 220 58 28 76 114 134 14 223 145 43 102 67 157 224 70 66 43 43 223 87 96 5 193 30 145 199 130 77 57 190 189 0 144 221 252 104 244 100 27 172 196 66 37 182 11 0 51 72 132 228 85 219 35 245 100 130 52 35 20 25 172 115 183 33 60 149 111 52 10 103 46 217 97 121 166 235 171 236 167 116 158 99 61 177 129 60 33 199 221
153 44 191 54 27 26 226 210 125 76 158 77 162 243 88 99 100 170 58 39 171 206 27 236 107 108 181 218 181 187 94 229 228 231 112 13 69 133 165 39 169 47 67 21 191 230 170 172 122 157 150 233 148 111 55 90 164 89 40 145 49 104 143 7 157 124 216 171 126 231 138 134 109 211 64 16 149 222 105 199 125 69 255 210 43 52 51 142 46 133 9 165 24 96 241 90 228 13 62 207 73 110 232 184 57 84 205 8 38 193 83 184 11 205 38 6 21 223 146 238 148 135 101 230 135 159 176 122 81 105 245 186 44 64 74 5 227 25 251 97 124 138 234 18 253 236 172 31 63 1 175 167 11 61 19 170 72 38 12 28 9 189 55 98 142 88 185 168 185 144 39 1 253 145 131 72 205 126 106 223 135 199 45 102 187 78 182 64 241 112 41 87 121 5 27 182 235 63 247 132 122 199 206 161 112 235 233 45 48 189 127 205 209 153 50 210 226 119 117 117 107 251 90 49 190 83 168 219 63 170 212 123 179 37 15 168 149 38 168 235 126 108 142 63 66 105 109 124 230 19 13 242 182 60 241 146 163 220 11 203 57 199 30 108 238 163 5 160 99 218 113 156 126 187 1 212 146 144 155 124 167 36 105 34 249 62 190 208 128 157 210 194 239 239 76 137 160 122 42 173
17 196 199 153 220 249 56 224 169 207 201 42 112 196 121 114 9 81 197 102 41 91 154 136 187 174 197 118 205 232 71 138 255 7 254 99 205 102 84 138 191 73 64 39 57 137 233 151 202 117 70 82 87 165 92 247 83 90 136 230 221 108 223 149 80 9 179 161 66 243 201 224 111 53 10 213 71 118 99 236 165 253 5 242 61 28 56 72 247 156 82 152 17 85 175 147 91 248 84 152 144 133 197 233 63 100 69 249 88 212 40 160 242 1 78 242 10 151 241 163 21 250 91 114 217 220 6 84 214 240 172 241 153 40 180 214 50 85 120 32 91 219 130 39 49 185 108 88 95 35 38 58 216 8 253 255 243 3 193 234 84 124 101 204 243 10 145 26 80 240 235 125 219 126 178 74 216 125 14 204 73 166 8 80 102 55 231 64 55 223 177 66 6 66 188 107 126 27 132 195 36 17 48 131 41 68 214 239 213 229 110 50 229 163 35 232 181 101 177 153 200 110 236 106 3 114 99 66 162 23 87 114 236 33 67 12 230 20 246 44 92 218 52 58 211 188 157 130 91 195 170 237 236 182 68 211 120 253 116 80 170 71 161 87 233 168 204 139 179 66 240 59 129 126 160 43 127 252 28 91 2 78 212 116 162 245 163 62 236 181 215 161 207 96 13 28 160 27 111 153
183 116 180 184 116 181 26 203 242 125 170 94 127 201 45 8 87 134 227 177 120 10 208 100 2 201 2 139 152 178 39 147 158 142 146 102 210 151 159 127 116 8 65 38 31 160 251 94 169 57 24 61 247 100 55 216 40 101 152 226 167 81 41 247 223 36 232 152 142 255 85 159 38 144 253 119 122 189 91 134 210 96 97 241 90 128 243 238 143 169 38 211 252 225 80 184 245 27 80 93 96 6 120 118 173 85 52 111 66 143 243 193 156 191 19 156 225 141 120 138 37 127 4 219 220 207 123 105 0 164 109 140 168 159 197 247 214 73 243 188 251 151 159 143 196 79 227 101 73 190 6 218 43 204 113 154 110 182 102 45 52 193 128 186 116 162 234 33 1 53 249 98 3 37 153 178 7 211 131 9 204 215 86 126 151 65 202 229 246 252 151 224 92 8 210 78 93 44 225 185 253 112 119 132 49 224 136 56 76 145 194 14 88 0 250 70 100 66 35 99 242 115 165 81 227 28 174 134 50 0 63 196 113 155 25 18 186 61 113 180 107 224 96 10 5 95 107 171 169 210 83 61 42 181 124 63 118 148 169 202 208 111 105 43 219 214 84 224 214 186 182 15 12 94 69 198 42 202 212 216 156 84 6 250 173 40 169 186 123 14 9 89 139 145 189 167 33 67 37 222
98 28 74 38 253 25 156 2 100 24 102 92 18 125 11 245 2 216 132 127 63 46 84 3 8 81 100 227 201 97 18 56 158 171 153 7 113 104 112 169 12 199 32 182 80 37 178 39 134 86 114 41 26 178 85 77 226 39 238 215 66 64 81 244 100 247 85 73 187 172 121 105 254 201 58 4 64 121 100 8 82 206 169 163 172 65 155 146 88 50 8 141 18 192 237 0 67 127 82 172 193 19 155 237 244 219 235 123 107 151 120 186 82 128 51 51 92 199 252 228 218 51 7 45 24 205 2 128 34 37 176 227 229 192 126 185 97 58 105 38 8 213 178 229 162 149 208 217 35 149 151 85 166 241 157 187 100 203 204 5 113 66 221 192 101 192 119 10 143 62 93 131 172 247 101 9 5 3 140 197 23 1 143 113 92 111 248 98 236 134 140 248 210 116 202 101 167 215 220 244 44 84 250 34 183 150 142 36 143 83 241 188 58 3 111 249 82 225 95 156 215 62 87 151 46 87 125 23 132 61 93 97 254 171 120 115 208 39 26 142 39 97 126 161 88 5 156 147 134 162 47 40 92 125 49 4 20 51 61 179 215 227 55 1 2 188 43 0 242 104 144 137 254 158 231 129 107 188 182 235 104 245 152 201 252 138 74 169 24 121 235 160 131 183 58 49 171 81 128 110
25 125 115 165 196 91 161 83 221 232 243 44 61 79 239 133 254 93 29 132 213 245 166 76 218 130 50 221 2 167 174 138 135 34 99 105 170 105 191 158 141 223 175 178 173 22 114 38 62 222 76 60 127 206 115 76 249 249 251 21 63 217 75 197 46 19 16 33 226 162 245 87 16 192 97 34 145 59 45 41 189 152 236 194 129 145 48 204 41 90 64 230 94 176 181 122 199 65 38 7 212 103 213 37 183 129 102 133 212 214 101 169 171 247 84 51 32 58 192 70 74 152 217 17 210 194 215 55 112 33 175 33 8 215 236 151 237 247 17 36 90 18 192 239 231 45 32 187 53 121 160 6 249 222 78 65 50 65 8 65 150 179 143 212 117 248 130 96 26 155 90 14 203 216 170 140 2 255 49 102 25 34 186 102 206 248 131 94 14 46 154 81 108 101 127 140 222 35 95 67 178 160 116 255 146 124 250 217 34 185 156 93 215 100 23 66 36 42 252 43 45 3 50 66 36 132 85 168 171 151 90 168 74 39 186 154 204 69 176 106 103 11 131 89 26 81 166 230 206 63 143 45 78 73 122 234 137 117 196 229 87 175 167 162 42 14 96 91 105 42 60 125 251 48 95 164 59 243 118 223 71 145 97 104 103 71 53 2 116 213 24 202 82 150 91 77 163 223 138 225
109 102 47 114 81 174 121 254 249 60 99 66 122 98 108 117 136 16 196 31 34 201 247 254 20 163 17 222 173 88 99 253 151 252 85 7 242 135 74 54 13 29 136 248 191 109 158 14 76 50 216 227 17 120 105 237 248 106 148 174 198 190 210 206 128 207 199 76 172 87 186 107 57 89 24 217 180 28 63 149 92 135 159 200 125 221 117 74 87 52 114 83 63 197 100 124 176 130 224 166 239 144 40 154 143 194 79 218 163 247 37 116 77 162 145 2 46 136 195 24 67 144 143 12 31 160 172 79 138 196 93 132 102 68 207 228 9 2 96 238 70 128 160 219 177 126 186 228 211 59 100 224 44 110 234 21 240 5 194 54 245 155 69 112 112 237 172 75 99 242 74 173 158 181 17 75 65 110 157 228 148 55 192 187 166 218 64 3 175 58 177 239 255 215 97 19 156 197 41 162 93 250 29 46 174 224 116 211 234 183 166 50 8 214 228 82 236 59 214 179 247 111 117 143 167 212 166 130 14 195 91 233 6 81 144 170 84 163 39 224 135 87 135 33 87 174 132 74 35 31 3 191 188 58 87 52 192 245 142 247 163 191 190 195 25 0 73 23 233 116 80 74 196 85 104 119 226 32 181 151 100 13 139 86 70 152 11 224 113 189 75 91 237 223 138 56 153 129 217 72
242 127 184 74 117 248 170 49 243 241 107 121 159 95 57 51 118 149 129 247 102 154 124 236 97 57 178 106 188 162 255 72 62 254 192 169 208 4 98 98 182 2 67 17 224 67 91 39 248 80 217 87 118 108 156 16 49 226 2 207 13 184 197 202 110 85 97 97 121 46 213 117 120 212 22 37 38 188 6 10 114 250 139 227 79 30 170 247 102 53 9 1 127 97 21 173 205 226 14 57 124 150 140 67 220 190 15 207 45 231 176 198 169 71 94 107 196 99 212 130 203 199 225 137 46 89 3 174 103 184 41 88 153 28 141 193 1 156 169 179 60 60 218 130 117 147 126 160 101 60 23 216 39 251 71 252 52 48 179 152 208 34 68 170 125 218 168 141 137 168 82 10 228 122 86 43 178 226 79 45 142 237 199 143 94 74 189 61 236 243 197 64 215 150 20 194 198 163 18 62 152 119 253 157 70 4 25 166 78 112 8 99 255 254 252 97 187 164 39 255 30 241 156 80 25 223 177 180 128 244 239 94 215 10 75 31 239 114 164 185 24 101 243 152 151 61 163 181 167 253 245 131 177 141 11 131 130 50 196 193 243 255 103 158 236 79 22 119 52 229 174 152 144 201 128 179 214 68 8 174 217 247 116 176 69 22 62 210 96 51 30 149 246 193 68 25 124 124 14 25
163 205 170 99 113 221 59 100 196 85 159 242 0 187 22 129 64 225 128 142 235 95 99 102 29 92 129 186 226 41 152 65 169 197 220 68 94 181 1 61 124 171 97 104 162 108 22 218 149 63 189 117 172 82 171 5 18 72 159 128 55 163 163 74 106 115 185 143 208 4 187 174 248 15 93 46 142 157 94 128 57 9 54 87 224 198 246 177 185 198 219 194 235 211 105 99 250 149 127 92 232 49 196 30 79 144 45 12 4 158 198 244 66 111 80 30 123 53 127 84 7 134 135 182 176 209 90 192 249 5 36 232 166 104 224 18 120 255 166 223 94 21 230 182 137 76 232 168 96 244 143 186 180 28 46 56 113 240 225 79 158 23 102 130 206 35 124 87 66 183 107 156 108 213 115 125 223 11 126 109 77 132 221 207 250 53 125 194 132 16 78 224 19 91 218 19 186 220 22 203 158 140 61 118 135 116 162 40 175 153 36 168 93 186 159 67 103 204 234 22 36 106 10 13 178 210 94 109 21 173 58 223 112 84 204 135 119 1 118 116 22 62 94 135 198 201 91 6 23 57 209 108 120 205 81 41 87 214 140 243 40 108 232 251 167 161 28 44 201 89 144 128 134 3 157 160 167 146 103 204 69 27 34 159 207 70 239 16 83 9 20 176 240 253 201 161 34 117 43 234
37 13 158 81 52 19 181 203 160 161 253 207 95 170 228 33 165 151 197 214 95 146 235 196 188 54 86 17 105 116 38 188 18 9 237 55 169 58 235 195 222 202 22 135 22 69 6 222 225 114 152 183 226 5 98 99 35 175 32 6 248 35 34 173 144 224 197 72 8 214 234 14 27 62 188 78 192 169 138 230 106 58 24 124 83 229 227 0 251 119 208 239 168 247 99 158 89 62 213 177 22 147 21 245 208 80 167 182 40 18 244 116 255 25 111 182 228 108 216 117 91 171 4 223 120 235 248 215 240 19 124 121 135 110 110 40 56 236 111 197 224 45 138 169 27 242 102 228 24 135 225 69 48 236 64 157 161 70 79 218 202 235 5 177 156 175 132 19 82 222 126 26 196 118 98 199 97 210 3 29 25 115 59 160 1 35 6 36 172 116 138 230 252 112 6 64 178 242 140 212 82 173 42 150 69 218 106 211 79 208 34 253 33 2 196 151 132 137 190 126 116 229 102 63 16 139 62 37 99 214 217 89 167 252 225 227 84 27 132 190 220 144 157 104 100 142 54 12 117 133 86 237 199 132 219 231 173 42 220 27 118 70 32 227 73 137 92 44 59 187 185 149 210 44 3 162 48 207 217 114 85 21 234 249 63 89 239 199 82 192 168 245 142 217 20 111 236 0 4 205
215 204 45 232 243 14 32 86 56 187 106 166 216 164 44 197 18 37 104 167 48 151 87 69 30 58 245 131 206 109 241 76 165 243 47 159 123 111 58 237 147 83 47 85 193 18 97 98 225 144 57 103 194 74 61 216 157 147 99 113 4 71 58 167 91 84 209 134 29 191 126 46 73 136 159 170 60 4 32 22 37 216 213 149 67 159 235 228 190 73 201 102 33 145 99 225 172 187 163 178 25 5 104 198 143 152 32 121 80 114 129 204 123 249 68 61 70 218 154 109 97 62 250 103 50 240 255 168 166 112 132 193 166 204 197 120 123 193 199 155 74 150 184 182 121 93 115 19 245 206 3 173 10 249 17 198 38 121 135 179 189 138 167 226 133 255 194 211 188 192 29 64 16 160 48 147 124 210 38 43 166 180 125 17 206 151 214 146 75 98 173 37 143 106 12 169 15 199 206 111 93 58 18 171 227 108 48 58 97 187 65 225 216 221 37 57 186 131 21 233 14 78 160 188 59 136 60 4 159 107 194 191 252 188 6 127 55 186 32 249 17 183 208 5 124 63 95 1 196 217 144 45 242 250 164 32 182 231 210 201 205 170 109 50 18 192 192 89 132 184 9 173 88 64 183 160 201 108 211 227 235 167 62 151 13 118 132 115 128 236 55 43 173 148 176 39 225 50 44 225
234 37 92 42 43 239 193 80 183 140 245 45 72 189 104 57 142 114 5 170 159 218 145 169 242 109 224 86 4 145 193 245 175 140 76 63 236 81 21 107 182 20 70 10 6 40 196 213 188 226 225 9 99 167 110 202 59 110 70 178 140 173 252 116 192 159 205 23 98 136 148 159 114 225 184 207 22 61 69 178 206 227 100 58 175 81 190 154 247 39 167 19 163 146 130 173 147 74 131 164 16 122 93 202 28 27 205 26 226 95 92 241 184 235 55 122 122 189 155 7 158 131 96 123 154 152 216 178 183 149 244 222 245 216 242 88 241 21 146 163 156 67 233 243 216 243 247 46 242 15 141 109 180 228 36 65 144 107 130 56 131 22 146 206 243 60 156 171 161 57 14 128 99 82 239 14 137 25 104 169 136 65 6 240 76 118 255 96 16 202 85 154 184 127 114 148 9 199 119 78 140 243 191 174 192 43 229 107 56 168 206 0 104 158 15 105 163 248 211 38 243 29 223 214 24 88 67 143 58 78 12 100 234 196 33 90 206 171 34 205 58 79 134 117 74 252 230 83 243 248 48 233 207 174 203 137 159 108 183 91 244 240 1 255 66 158 146 126 65 113 2 83 8 56 215 5 20 182 95 173 71 111 253 238 238 3 148 73 8 23 59 131 213 67 136 72 12 141 189 199
166 194 12 171 90 24 60 138 240 206 142 212 137 168 10 116 76 45 150 198 9 146 77 70 214 207 179 249 141 85 237 67 168 39 60 59 129 255 63 49 36 212 149 141 103 35 236 21 12 99 228 0 120 146 10 113 223 228 36 157 247 38 66 166 52 11 183 139 244 242 211 183 77 254 106 47 62 5 174 206 37 1 13 162 189 178 162 176 6 156 42 7 69 178 157 216 243 175 112 158 117 74 111 153 181 250 182 251 218 58 111 16 80 58 99 167 63 159 213 31 57 153 224 58 166 23 121 75 89 255 132 67 84 147 163 71 62 38 172 66 69 35 53 142 134 28 42 41 151 130 228 164 217 56 172 17 64 115 38 10 1 244 61 200 25 38 65 71 191 160 171 45 52 207 230 4 235 160 169 210 20 81 162 114 204 242 227 215 3 146 39 103 127 73 100 100 235 109 217 226 85 67 67 113 99 89 76 228 2 186 101 82 129 184 74 152 124 60 163 177 153 251 254 225 177 150 78 244 13 187 25 251 172 142 86 92 209 146 234 246 237 182 140 4 182 229 0 194 176 164 183 157 196 214 252 238 242 132 102 25 96 255 217 204 9 236 50 25 8 108 217 206 25 220 217 217 140 84 73 214 88 23 162 237 246 114 100 137 105 157 94 28 96 85 252 173 232 53 104 162
4 120 93 233 139 189 85 28 34 81 241 22 197 216 54 208 169 62 99 152 123 98 169 241 181 50 240 100 39 213 226 223 132 10 22 28 136 231 195 77 93 160 139 53 199 228 123 22 56 247 242 87 13 252 213 124 135 177 13 29 228 113 75 155 130 21 105 202 86 111 120 173 213 102 232 114 170 182 74 196 249 96 249 1 68 149 132 104 126 42 112 100 151 69 232 254 141 138 8 68 130 22 22 200 149 237 79 36 246 188 75 73 160 144 12 213 222 185 221 5 55 215 86 171 251 144 209 236 157 24 162 73 6 168 202 63 222 234 20 200 82 148 235 103 196 222 111 22 81 161 89 46 98 142 216 126 118 166 26 159 148 231 254 40 113 195 221 223 48 216 70 16 14 65 147 147 10 34 177 0 185 157 126 247 170 216 151 157 130 112 113 67 105 5 245 46 140 36 121 235 216 113 179 31 98 59 211 235 122 15 165 244 87 175 96 62 241 40 137 185 61 245 142 155 22 39 22 25 248 131 24 149 67 8 66 83 167 239 92 16 82 201 84 200 49 146 168 220 197 104 107 58 92 107 229 31 92 76 124 11 209 33 161 18 77 39 0 116 161 32 244 1 235 66 147 134 171 38 134 91 210 128 81 225 188 88 16 143 33 232 189 4 157 215 43 237 5 29 83 211
218 228 42 212 92 103 40 94 84 249 201 125 15 167 230 50 137 255 42 57 100 157 246 41 135 81 243 247 242 68 65 182 84 6 14 227 171 81 78 242 236 211 203 61 158 112 252 74 80 60 204 0 164 246 42 52 250 55 206 221 160 97 117 54 121 238 148 149 194 127 107 3 127 71 188 212 199 142 144 144 250 13 133 98 6 177 77 97 47 212 207 134 24 5 45 80 53 69 216 243 29 60 150 147 86 209 217 147 11 126 106 81 87 120 178 197 204 197 74 118 51 0 113 218 84 151 10 31 171 172 115 183 36 191 133 142 221 219 92 168 166 63 242 242 226 138 237 49 126 128 30 207 5 185 176 109 202 16 159 94 174 29 140 126 42 80 52 94 217 204 116 96 228 21 133 166 182 170 228 156 190 81 199 238 112 219 100 139 213 139 211 140 111 24 58 90 112 94 123 216 71 155 132 228 180 243 232 211 79 231 75 132 253 223 215 234 229 106 113 84 9 102 13 221 218 108 189 74 55 3 250 162 53 43 169 46 168 14 44 99 26 100 203 108 155 253 50 223 58 66 234 164 103 117 215 207 38 249 3 211 5 111 77 23 210 161 60 200 221 89 7 165 238 38 114 244 160 198 30 167 197 221 179 155 243 16 76 233 188 169 254 146 110 207 114 89 118 83 183 186
18 37 147 165 59 152 159 174 18 133 163 221 234 248 78 225 11 202 97 100 237 224 36 66 137 84 53 179 33 35 9 42 27 110 97 239 193 148 229 20 53 0 224 49 104 119 201 55 53 81 246 249 191 80 94 243 13 208 158 114 5 32 152 237 137 219 109 239 68 191 203 253 117 196 54 190 0 26 134 90 95 25 107 42 232 32 207 2 149 253 19 211 186 120 170 9 228 1 96 173 161 198 35 137 79 47 16 110 67 122 231 221 63 177 205 10 130 59 53 9 123 177 167 182 34 37 201 233 62 177 105 77 131 80 29 78 142 47 130 155 76 202 251 199 237 224 194 179 51 14 118 190 143 130 148 236 84 115 86 51 63 49 169 94 180 229 139 68 205 44 4 42 104 223 79 233 70 47 49 119 125 52 109 221 9 225 130 56 51 216 155 144 13 129 19 30 37 65 95 211 130 33 8 218 140 145 161 217 13 98 226 194 43 21 223 203 215 58 82 203 230 246 114 177 119 19 68 80 170 97 253 21 96 42 150 255 137 118 191 1 254 29 138 6 189 230 248 12 117 141 109 13 30 28 57 192 134 127 22 77 71 250 179 82 5 89 25 115 212 184 159 190 186 88 162 134 0 138 219 71 24 34 161 97 141 52 148 59 156 120 163 218 165 247 28 39 216 66 251 54
228 188 172 93 19 254 248 59 17 194 62 147 228 186 134 36 228 242 133 30 96 53 72 240 136 136 38 142 96 188 87 62 126 133 184 223 150 79 221 246 20 137 207 107 23 79 64 23 234 192 177 105 66 233 130 137 147 135 39 44 254 240 148 48 17 228 243 230 146 27 87 182 134 114 106 253 3 234 113 253 163 21 49 84 142 94 82 94 12 229 234 81 202 147 190 212 178 138 154 85 4 114 63 25 47 154 245 76 173 247 59 90 234 55 22 103 3 1 85 168 27 145 15 224 87 34 166 237 23 216 242 248 124 215 55 88 110 171 224 235 173 10 83 199 92 126 101 156 210 252 15 170 30 146 64 181 128 98 179 150 208 126 17 189 203 201 133 114 17 44 207 142 223 254 212 251 200 162 162 246 248 233 23 75 243 254 96 29 71 34 200 235 127 95 215 207 110 198 18 149 75 224 143 94 244 163 115 232 185 87 85 66 35 227 131 248 66 214 188 218 7 207 250 28 157 154 185 178 243 167 49 66 251 151 207 242 74 165 91 16 187 17 38 138 142 239 168 76 33 192 52 129 150 96 87 38 17 50 7 200 117 103 224 84 145 136 20 30 229 45 80 209 234 117 254 119 253 63 249 255 74 112 190 223 134 124 122 15 179 29 204 203 99 60 177 232 35 204 54 187
45 26 14 41 206 136 202 83 95 104 198 5 240 61 199 116 223 88 47 113 55 67 88 137 223 100 142 125 42 215 98 47 85 24 56 184 97 23 89 73 52 31 236 64 177 98 212 166 180 21 210 149 122 206 59 38 72 206 87 130 141 194 42 83 209 170 228 96 9 168 77 60 136 250 248 118 142 143 230 57 183 159 112 201 165 192 59 88 129 185 240 162 36 162 26 6 221 102 77 151 56 117 129 96 63 118 213 49 23 85 17 205 168 49 243 239 186 105 122 246 255 16 23 255 72 159 205 244 148 157 241 89 179 207 54 178 57 25 177 49 72 172 189 46 220 215 156 171 48 188 140 29 154 253 233 83 101 52 191 35 28 235 57 170 204 225 18 29 155 201 61 230 178 92 75 3 151 37 240 185 118 201 51 34 146 52 102 55 75 15 67 189 233 136 159 97 220 5 255 176 133 197 170 248 130 242 85 111 187 177 184 164 250 127 118 181 125 226 106 248 31 132 86 47 125 134 243 180 117 207 51 22 225 51 206 45 8 72 200 191 143 214 95 132 250 239 194 196 67 26 66 108 212 182 169 230 205 255 41 91 229 19 75 136 116 249 202 189 107 102 20 238 68 161 109 104 227 109 236 91 227 237 226 213 28 173 87 3 246 139 55 11 186 76 97 40 53 69 146 255
194 86 47 29 166 82 101 206 114 159 99 115 31 35 126 210 139 102 101 62 42 83 24 49 11 19 172 124 245 91 159 80 201 213 174 182 127 190 142 207 20 177 144 195 8 103 24 169 11 27 172 184 75 59 39 180 30 62 169 64 176 58 121 151 34 17 182 8 97 123 115 29 120 239 51 187 142 205 217 244 137 186 82 70 196 4 0 143 57 171 176 159 154 69 121 137 0 224 3 93 54 142 116 208 249 78 112 146 100 159 31 228 242 164 85 101 138 51 156 53 65 12 68 52 146 219 196 14 190 166 103 35 190 255 245 72 68 1 5 119 30 110 58 201 98 65 12 136 6 192 19 203 103 22 60 180 10 38 46 90 100 21 138 207 61 197 250 197 255 193 167 136 72 73 83 236 222 189 31 230 45 156 153 216 94 192 100 211 21 29 77 190 15 151 117 60 150 60 134 0 205 64 70 246 103 30 204 39 221 28 39 13 45 142 11 245 25 248 230 145 27 136 197 51 238 159 129 19 0 85 120 174 135 68 68 209 137 28 118 55 159 16 85 246 185 192 47 141 205 189 140 18 27 36 148 223 85 250 175 113 127 145 16 121 207 205 84 69 169 10 144 92 149 203 17 154 207 191 2 31 250 152 200 68 85 204 101 148 59 98 182 200 113 95 70 50 229 167 56 83
56 19 90 135 188 186 206 103 186 121 110 150 238 225 183 206 107 6 36 199 181 181 16 226 128 56 146 248 73 66 53 144 169 168 98 235 240 6 35 50 185 124 69 22 106 87 240 43 112 163 53 195 71 71 134 0 241 225 186 188 194 48 77 108 91 18 142 180 35 111 181 10 86 177 107 197 230 95 15 134 110 183 179 7 149 187 22 93 87 165 242 247 19 108 229 75 208 68 87 161 4 16 227 36 42 47 190 237 40 109 58 41 248 253 219 247 182 230 116 218 153 250 216 155 111 54 171 157 116 32 100 154 249 55 78 2 148 172 33 157 99 87 198 62 40 46 42 200 135 28 159 171 35 3 247 59 178 152 108 88 93 87 231 180 38 209 246 67 122 182 244 215 116 218 186 207 45 208 73 135 201 253 20 65 180 164 30 110 216 249 113 59 131 135 99 144 147 234 63 75 65 230 210 83 100 46 77 172 107 122 233 183 32 231 229 124 229 240 41 199 113 225 146 122 46 94 234 8 39 108 238 150 253 194 88 247 201 206 144 167 27 90 49 44 163 192 128 46 43 235 118 240 95 42 104 230 184 128 14 49 109 201 220 31 108 38 227 144 51 191 151 117 168 188 7 30 253 88 250 102 215 143 166 87 193 210 239 158 176 112 230 228 92 223 222 184 215 51 173 242
48 122 171 169 182 106 72 197 193 52 69 212 235 186 84 80 127 247 24 77 138 65 89 149 182 44 100 154 55 19 83 217 141 10 151 236 225 101 200 250 225 196 147 212 105 37 193 42 172 110 141 85 86 12 118 117 73 27 183 69 0 134 150 4 76 205 22 87 152 8 118 102 236 109 210 45 155 255 10 0 84 189 169 211 38 24 115 5 16 251 250 205 109 23 45 19 159 187 150 85 3 216 1 176 161 166 252 15 143 3 90 76 7 111 160 237 190 25 194 194 227 0 23 247 167 242 139 95 71 59 32 239 251 167 125 5 173 55 69 185 52 232 52 175 25 121 174 206 92 126 225 231 175 22 154 21 61 25 104 115 189 253 240 145 15 68 225 45 110 65 230 4 210 196 27 70 232 226 233 68 51 248 68 200 90 34 44 78 135 21 28 201 121 41 165 67 81 87 29 234 224 255 102 212 130 91 198 64 43 119 24 188 109 139 76 40 82 231 184 140 247 52 168 55 13 147 1 219 6 128 242 51 42 129 60 128 60 102 208 41 177 163 234 155 81 238 167 89 135 11 85 252 26 222 83 200 131 56 203 11 249 18 204 223 8 82 33 21 156 132 168 98 188 134 43 184 28 242 53 69 106 116 21 251 139 44 112 179 4 15 238 71 207 133 165 31 112 91 240 203
63 145 29 202 232 73 235 146 243 50 116 21 30 63 62 82 189 39 13 193 200 14 250 12 49 181 95 0 229 80 244 44 103 95 245 196 156 123 138 180 56 78 216 113 117 121 114 78 18 106 33 180 157 42 28 13 55 211 36 13 232 197 95 179 135 220 218 102 23 117 227 101 140 191 116 29 244 84 163 145 18 157 254 181 147 45 54 138 69 119 126 58 0 213 4 1 29 18 15 226 9 124 152 81 69 17 16 38 164 80 34 38 172 140 110 254 253 221 104 153 238 208 32 167 57 23 223 86 166 52 125 9 228 108 14 42 172 54 94 144 225 73 64 22 179 14 46 215 147 107 84 127 114 70 92 248 40 198 234 210 85 34 237 145 192 236 4 11 27 255 137 66 37 190 67 41 110 172 6 11 108 186 147 139 90 220 147 148 237 45 11 80 208 181 15 236 172 229 105 254 20 21 121 119 138 197 91 191 181 100 176 32 68 95 7 22 247 238 184 41 220 0 102 186 119 80 245 76 43 181 118 95 166 172 158 18 35 159 36 114 133 21 68 2 35 5 125 90 206 38 223 249 218 255 35 201 174 4 49 138 237 153 141 122 93 133 242 249 72 231 87 12 226 48 254 200 11 54 96 188 102 69 60 215 201 239 51 124 36 84 70 3 111 175 150 238 102 202 97 18
52 90 59 221 13 11 133 58 114 137 59 41 187 140 37 141 60 9 15 199 92 44 164 217 194 135 39 21 27 22 227 6 164 156 133 91 74 52 17 67 0 141 40 196 137 240 49 231 203 240 188 225 83 43 104 201 193 207 54 93 248 38 145 52 236 50 241 109 247 7 55 36 212 169 10 34 130 193 4 199 206 195 128 34 198 29 162 182 19 180 218 34 223 180 40 223 65 6 111 3 208 112 141 233 35 117 197 140 12 124 253 171 71 171 123 67 150 214 198 31 100 48 149 242 3 215 139 168 64 231 250 123 13 57 22 3 147 7 6 63 17 228 202 165 136 29 91 137 33 194 45 126 128 181 86 145 49 45 77 126 67 92 30 0 99 8 72 239 151 169 45 202 45 69 50 75 102 24 27 16 36 212 48 4 94 97 23 38 167 15 118 120 176 133 186 57 86 110 201 251 201 152 25 236 205 254 123 149 41 19 11 213 172 167 124 55 200 28 172 196 203 71 243 136 167 119 229 73 109 122 111 152 118 89 26 235 193 239 106 105 52 16 158 109 116 213 31 242 52 222 231 38 24 13 174 97 91 211 13 114 19 137 250 79 218 203 217 163 143 78 7 234 202 214 63 105 65 123 248 250 170 17 100 18 233 92 98 79 111 223 60 67 134 107 210 94 198 23 136 104
208 23 122 105 71 159 6 235 114 82 136 229 108 46 144 119 199 195 224 17 57 84 23 235 28 55 117 132 146 4 79 189 80 9 57 230 86 202 25 141 235 42 129 42 10 147 229 68 48 59 45 118 214 83 193 4 173 19 43 187 190 59 63 235 93 190 177 249 193 221 10 144 180 46 249 58 41 196 235 172 188 86 121 43 214 165 216 126 32 16 123 7 195 54 154 42 21 146 131 28 139 217 168 111 233 14 125 66 228 215 145 127 214 7 240 121 240 87 237 68 103 215 165 14 72 182 166 4 222 188 69 86 95 57 68 117 241 34 35 19 248 105 68 6 4 127 200 205 63 7 157 203 238 181 21 252 126 136 146 52 32 38 92 200 6 241 132 51 145 155 136 128 25 33 63 150 233 17 90 63 71 42 143 251 140 207 237 36 4 133 44 212 233 84 213 88 80 140 33 203 238 115 28 102 231 96 174 64 75 12 102 144 35 112 122 55 85 187 231 104 88 160 229 233 56 206 38 66 92 216 128 217 148 135 70 156 237 50 5 116 215 251 178 61 142 169 242 71 211 39 167 206 182 124 153 208 184 246 169 73 48 208 74 103 109 2 206 97 208 189 134 193 198 112 251 60 158 208 36 186 238 14 199 113 217 147 8 196 211 31 14 240 34 53 233 191 1 34 182 236
0 94 162 209 194 241 23 254 20 7 27 225 224 108 224 26 239 162 29 133 236 101 233 104 43 69 200 119 60 128 86 32 86 212 124 227 91 68 85 179 188 199 42 40 141 110 149 154 48 110 9 33 95 164 202 30 57 136 3 126 90 5 231 8 135 156 63 151 135 49 136 236 18 131 52 78 216 237 225 164 182 74 150 101 75 37 143 199 151 143 178 10 16 78 23 91 95 244 164 135 82 229 197 204 230 4 87 221 240 147 132 144 118 160 127 204 100 87 207 30 63 246 211 75 231 47 42 46 81 95 85 225 241 14 242 106 38 178 181 23 21 250 70 66 254 91 237 204 125 175 253 135 246 97 29 235 209 3 49 158 118 159 217 198 34 180 15 247 5 195 144 0 103 231 217 102 192 80 143 95 228 6 223 75 164 189 212 85 156 162 174 226 219 1 223 43 164 115 157 53 1 45 199 116 55 222 30 202 145 179 64 185 176 131 113 139 224 1 63 180 189 220 107 43 158 99 232 213 130 41 173 151 149 177 115 139 114 134 0 212 67 147 169 147 163 186 102 125 114 178 138 92 67 255 205 88 155 104 177 176 230 242 240 41 3 177 222 246 220 217 211 100 246 230 107 226 36 150 239 167 105 196 195 122 165 24 253 193 85 215 37 145 186 184 223 66 146 154 123 48
103 31 95 165 67 233 7 83 108 90 90 91 186 40 24 57 2 97 51 136 174 225 23 162 165 133 233 50 39 113 109 246 210 24 137 153 113 200 124 108 195 226 105 111 242 192 82 148 139 156 219 171 37 102 100 31 173 86 67 142 193 17 201 89 152 235 93 227 75 25 77 21 15 222 163 34 170 42 212 49 133 99 33 85 57 130 140 95 80 201 222 248 152 14 101 25 38 60 59 174 172 134 195 157 40 114 9 237 230 77 238 234 162 47 148 236 127 183 241 92 242 230 231 142 194 103 196 39 183 73 125 246 160 74 171 74 254 138 134 125 36 99 38 129 216 147 229 218 112 60 153 140 87 27 38 98 165 244 147 197 203 146 197 246 204 251 246 157 255 95 154 98 215 193 148 62 169 242 15 221 103 227 136 77 32 129 195 193 205 118 182 206 124 22 214 248 15 212 96 81 24 191 116 158 13 77 11 22 58 227 238 128 246 240 246 31 166 183 206 164 169 85 133 34 211 66 240 242 24 136 103 37 222 255 10 235 176 63 183 218 127 134 17 38 40 131 72 136 152 119 63 79 140 98 175 217 205 247 50 38 37 147 180 149 85 21 231 130 73 221 57 8 229 143 178 37 81 166 74 241 73 19 74 5 155 142 33 62 0 138 137 175 164 2 158 5 140 1 211 44
248 50 151 96 212 123 74 42 188 93 74 0 90 101 195 40 72 8 37 112 178 25 23 201 131 47 121 65 70 236 253 181 160 152 158 111 186 47 65 139 223 206 137 205 184 191 217 105 136 25 82 105 254 98 164 204 240 198 42 56 136 111 162 121 167 196 179 73 180 141 237 23 213 80 5 96 223 100 151 99 251 235 123 25 233 7 114 132 145 58 201 82 42 93 72 64 190 117 245 114 236 137 30 166 78 195 56 242 118 64 187 153 84 83 68 255 228 58 149 246 180 34 232 252 185 169 226 213 115 30 68 25 92 69 41 189 80 146 136 41 176 1 225 220 234 54 22 25 162 136 101 227 62 247 32 67 157 77 143 8 62 60 170 204 230 114 24 163 157 117 171 160 156 202 41 155 58 241 174 199 203 138 10 74 232 74 192 113 6 17 119 233 131 110 247 178 255 147 9 93 241 240 94 171 145 24 9 209 204 105 54 15 245 211 192 112 239 62 230 212 177 220 168 92 130 67 149 3 86 120 173 72 189 114 164 198 85 122 83 136 15 131 15 123 15 111 83 181 56 80 78 6 204 223 204 64 175 17 49 96 200 208 141 190 179 123 222 89 222 194 190 143 62 58 161 103 62 69 49 238 114 0 183 94 133 28 1 193 14 244 142 151 139 140 120 44 73 165 186 142
84 77 107 130 144 62 225 189 179 30 46 253 19 168 33 219 73 145 240 35 212 249 76 118 78 212 84 251 77 1 213 180 126 230 157 66 99 36 46 240 111 151 67 18 121 103 95 247 155 176 128 13 197 77 41 247 215 116 132 28 76 143 172 182 92 1 73 98 128 254 174 68 9 33 157 26 216 35 60 251 190 21 187 68 174 40 23 166 118 89 161 248 132 19 70 235 34 123 173 108 84 167 118 118 249 198 234 16 169 136 150 11 45 146 26 139 174 198 93 100 107 218 33 164 233 3 64 25 149 247 217 48 37 187 47 52 218 79 18 185 78 63 163 176 222 182 160 108 248 134 183 203 128 51 43 218 188 67 95 234 58 250 55 163 231 93 73 62 200 161 67 156 17 174 210 53 135 118 112 192 113 137 175 216 66 0 83 1 157 210 163 238 23 148 193 67 27 173 233 87 142 243 63 141 56 177 107 2 161 116 89 197 46 11 243 61 82 32 78 130 70 247 4 186 83 84 227 220 167 197 158 27 25 36 67 65 202 224 50 156 22 184 191 36 0 51 233 28 26 47 156 141 90 188 37 21 36 217 112 11 167 236 89 177 209 48 82 94 228 11 74 32 29 211 239 119 244 29 195 157 58 13 124 224 130 248 189 100 99 30 6 160 80 202 62 70 80 143 86 54
120 228 150 88 209 254 53 82 15 101 147 168 107 119 124 204 147 229 179 34 215 132 247 184 96 167 101 76 112 81 223 216 134 175 48 91 63 66 82 230 120 188 16 116 21 94 102 109 164 120 188 232 123 94 45 55 93 73 105 239 226 215 190 24 130 44 17 190 255 197 214 1 249 181 172 88 254 236 23 255 38 140 191 14 142 2 85 155 6 140 185 245 200 56 213 20 232 111 206 79 40 114 182 202 73 73 231 182 116 195 53 202 166 251 99 143 98 135 89 183 58 30 236 231 0 8 89 244 12 237 106 112 101 89 145 140 83 43 98 109 235 42 244 7 137 58 50 173 241 20 133 141 114 127 20 58 241 249 210 63 46 193 46 178 85 36 20 50 197 20 91 124 1 135 193 149 225 179 167 0 72 145 165 38 4 124 194 114 243 38 184 187 248 224 248 163 238 168 74 221 81 143 152 89 52 133 36 206 95 36 188 81 171 142 158 50 104 190 219 47 161 77 171 207 70 251 92 88 186 249 153 23 33 244 51 240 97 13 154 205 181 136 190 244 210 157 17 51 231 47 69 83 128 225 129 12 70 160 126 231 175 11 202 244 29 253 34 232 170 189 44 211 37 59 3 215 83 239 108 66 120 200 4 56 173 161 159 117 120 5 72 135 124 31 221 91 174 98 202 156
37 8 74 90 200 85 11 253 119 235 221 11 53 106 60 11 5 28 150 151 117 28 223 155 184 56 68 199 240 220 201 141 128 80 124 107 195 244 44 239 148 213 223 19 208 24 53 160 18 79 234 129 49 108 145 63 180 255 26 13 78 221 253 19 241 79 179 210 95 161 172 74 229 203 187 201 169 38 153 224 77 225 242 68 127 104 146 254 81 235 255 96 161 231 165 46 251 191 52 8 253 120 225 152 18 111 215 59 221 165 145 57 138 208 59 41 133 253 3 235 85 11 168 150 20 93 63 114 195 100 137 250 230 58 146 128 46 11 63 37 120 80 47 192 121 30 156 68 27 145 217 167 57 3 206 94 181 100 178 2 234 160 125 246 215 106 89 31 251 247 75 216 5 125 120 132 229 90 33 114 147 179 210 119 172 219 182 59 112 88 10 14 198 104 198 76 173 7 251 46 226 194 210 58 30 181 8 218 59 219 69 104 127 245 90 219 149 166 152 118 239 155 59 145 183 205 180 82 175 20 83 245 157 227 5 122 45 152 140 32 140 233 9 194 8 120 80 170 144 163 168 218 31 50 173 171 116 54 224 132 151 70 143 93 109 60 195 139 101 41 241 248 245 114 34 243 255 57 131 220 204 227 73 17 154 243 118 183 100 199 147 37 203 175 43 57 140 213 218 175
246 248 25 74 48 214 172 240 9 20 118 134 39 101 23 214 187 214 182 64 97 185 33 210 36 80 145 231 57 96 207 193 52 171 141 219 53 145 140 81 98 224 16 246 100 106 33 79 139 58 136 6 53 26 142 77 34 195 203 213 114 129 238 247 133 159 193 241 139 59 36 74 213 46 97 254 196 251 107 135 175 82 35 10 11 255 16 71 217 67 209 140 167 184 152 31 255 91 161 219 219 250 156 232 88 198 90 24 167 232 113 124 1 114 243 35 139 1 157 1 105 111 183 71 123 227 6 149 167 210 166 220 155 253 84 52 31 214 238 111 198 252 71 87 243 210 210 17 148 217 46 250 52 53 96 217 60 227 134 103 163 69 176 229 253 161 130 81 126 242 6 108 65 202 247 217 55 38 238 189 254 9 1 204 8 97 6 175 52 179 217 135 204 255 84 56 71 136 216 205 247 168 192 192 219 16 94 30 244 84 90 171 114 43 188 66 199 252 32 15 253 108 255 105 170 140 198 159 192 35 233 243 134 181 136 60 84 94 57 190 198 244 55 207 219 0 187 239 172 90 109 56 232 42 132 224 251 71 129 159 35 35 145 19 198 90 195 165 244 42 106 237 18 128 14 219 198 95 152 27 23 178 27 219 109 195 251 66 62 95 187 8 217 252 23 195 141 36 16 192
205 199 39 119 219 204 16 179 37 180 35 62 136 255 223 26 171 181 94 163 7 162 152 72 19 44 213 88 59 65 108 235 182 14 196 71 148 45 82 72 34 45 18 231 105 43 30 95 29 94 13 129 148 23 140 252 220 168 253 139 96 42 219 5 70 227 66 242 68 217 38 59 25 118 41 228 226 98 25 163 16 51 183 8 136 26 152 169 9 15 171 216 28 235 91 148 127 44 60 11 60 88 109 150 96 29 167 66 89 5 54 175 108 91 13 114 165 80 61 44 146 167 71 249 20 219 182 22 209 119 70 10 114 94 62 239 132 7 163 1 80 30 212 247 168 175 158 205 166 65 175 71 243 50 213 108 181 221 159 251 144 249 32 210 167 9 134 206 38 40 96 217 29 15 161 128 41 228 227 165 162 23 170 155 101 253 237 12 80 145 14 77 101 163 210 15 45 99 217 86 166 128 84 73 29 5 33 6 219 55 0 84 35 118 25 50 7 15 246 250 10 55 215 37 68 13 56 45 15 123 102 238 209 224 128 25 50 196 49 251 106 163 133 65 205 106 90 104 51 205 87 73 155 2 89 196 129 74 114 113 66 116 80 188 47 76 194 25 143 18 194 74 50 7 19 143 55 193 150 9 177 98 194 66 220 150 179 107 134 223 167 9 233 85 182 94 137 250 233 78
95 119 74 5 138 250 254 57 120 69 58 136 58 31 194 158 124 59 130 30 223 168 3 0 167 20 68 17 33 127 192 88 238 11 17 161 182 209 221 7 207 255 41 156 26 248 195 163 254 128 96 214 201 182 122 89 156 133 136 174 20 248 187 148 231 114 96 40 205 90 39 48 104 79 37 249 229 136 2 1 240 208 187 227 125 89 8 129 68 239 49 3 84 167 35 4 57 40 140 125 162 222 63 44 64 96 175 41 114 142 227 187 32 15 27 228 178 111 191 78 75 155 26 140 102 182 192 161 221 193 79 93 45 136 90 23 165 68 142 219 191 153 7 26 133 102 46 153 75 29 141 52 23 90 170 167 73 137 246 48 87 74 180 4 215 20 71 30 104 121 206 165 2 213 229 240 3 148 72 83 37 37 2 231 22 94 0 231 197 190 94 220 26 244 143 114 191 221 241 166 79 180 45 90 219 127 159 255 59 220 141 17 137 165 240 24 48 120 182 16 6 223 128 221 173 188 85 141 250 144 186 197 143 123 48 17 241 122 69 147 122 223 104 184 254 53 229 254 224 94 71 134 178 184 245 73 215 87 84 45 50 179 21 13 193 56 19 132 206 17 190 151 227 161 206 40 6 168 78 208 127 132 124 98 244 8 111 220 73 137 225 212 12 237 155 85 106 63 147 149
222 137 46 84 6 197 84 53 198 148 1 196 120 228 152 75 241 236 48 39 98 107 59 180 251 67 60 141 135 124 85 13 3 119 7 32 205 199 79 121 154 183 120 139 223 125 46 25 69 129 125 159 97 157 143 125 247 125 22 119 233 203 209 134 202 143 189 245 195 52 76 87 126 179 54 73 253 214 209 163 129 1 81 76 19 87 9 82 198 185 93 97 170 162 0 185 134 171 99 201 197 102 2 11 235 45 49 78 146 48 235 233 21 62 7 116 179 152 28 173 203 8 26 213 46 111 34 127 143 133 97 121 39 59 170 179 6 83 68 37 198 247 62 168 27 133 7 70 32 74 150 55 94 11 238 100 203 185 148 189 141 210 60 57 55 208 199 143 88 82 200 174 176 73 88 123 201 39 183 171 253 196 83 191 31 226 212 87 163 219 12 104 187 253 128 219 166 223 205 203 196 127 197 70 41 139 163 132 118 52 88 30 162 227 190 197 237 172 190 162 187 155 156 105 61 232 34 175 230 5 45 63 211 182 43 84 210 10 23 186 130 119 95 114 71 44 101 45 86 224 202 105 169 147 216 105 92 230 62 236 197 52 41 151 82 124 50 141 104 69 51 136 197 230 3 233 135 116 8 112 179 12 56 102 16 169 147 64 196 63 2 14 181 162 125 140 104 17 190 171
155 217 194 57 34 180 185 134 19 240 69 112 129 60 153 15 173 173 168 3 154 179 115 114 110 251 70 190 148 48 67 71 246 167 89 81 149 169 186 178 169 124 175 82 251 41 7 214 141 196 163 113 216 13 136 37 95 55 167 35 244 144 50 178 62 20 193 134 139 104 1 16 106 112 8 128 198 33 134 158 93 187 12 240 57 57 146 212 87 129 157 214 113 212 5 69 143 197 48 185 75 214 123 109 119 204 209 239 114 63 77 169 199 101 120 164 201 192 189 60 140 157 179 113 46 229 226 69 67 141 153 212 188 158 242 115 230 209 124 39 128 131 45 102 106 163 204 21 234 178 31 246 53 161 116 7 105 98 155 190 49 226 237 21 241 44 145 252 246 165 179 247 224 202 255 139 151 139 186 36 252 139 100 40 73 142 184 95 200 180 106 80 171 124 175 127 58 245 189 67 217 46 51 235 173 122 183 206 36 162 3 124 141 75 50 176 114 144 116 83 91 67 170 199 23 14 37 135 1 195 123 114 52 88 180 243 158 229 166 162 207 220 175 83 28 246 51 119 161 164 169 71 54 2 119 185 56 117 3 78 128 204 17 92 177 114 43 86 99 253 157 155 152 1 76 134 35 227 47 135 52 51 239 23 169 201 47 150 146 9 188 174 114 8 46 85 34 221 223 148
105 98 53 4 100 64 77 92 85 2 105 74 237 208 12 145 246 156 93 155 215 252 165 14 119 76 15 110 28 34 155 216 208 231 92 184 156 173 86 5 1 247 4 28 208 210 235 38 104 65 239 146 62 47 56 76 86 203 243 58 162 255 37 87 191 188 205 183 237 1 76 100 65 196 54 46 19 122 120 126 114 230 94 53 2 126 137 26 33 195 216 22 76 169 70 109 88 140 202 140 17 72 254 182 106 174 118 164 133 37 28 142 60 181 149 213 174 76 142 5 93 139 43 51 12 159 144 118 160 35 251 217 242 21 39 39 192 157 249 139 53 188 216 187 249 139 172 147 8 72 138 163 173 169 17 252 163 15 60 29 200 109 221 131 218 103 135 247 96 235 189 8 237 179 208 184 147 134 62 209 118 196 51 17 55 124 101 214 69 30 124 236 109 226 78 206 170 240 33 164 168 133 46 174 214 206 233 183 120 47 211 247 83 220 168 2 44 66 97 87 77 98 200 236 120 9 104 131 134 111 228 79 20 143 207 122 129 126 19 110 64 94 92 95 68 37 244 138 97 181 102 53 65 147 20 180 205 150 247 160 215 66 138 222 183 172 99 11 96 36 139 70 246 94 100 138 40 251 118 105 195 61 82 227 33 45 156 157 94 37 179 189 160 160 173 21 173 192 98 244
254 243 10 252 24 119 177 213 116 29 222 205 176 178 166 192 87 5 110 11 143 60 184 125 230 6 95 160 45 203 34 217 49 231 173 172 123 0 84 66 71 120 106 164 7 188 239 92 155 246 243 242 126 202 229 192 75 38 232 122 146 204 36 18 162 17 28 149 174 163 112 194 222 2 14 179 125 19 87 155 217 17 125 7 13 84 158 58 222 221 16 16 18 182 125 157 94 221 62 126 18 166 44 54 22 111 26 4 23 119 107 127 171 178 87 71 176 20 201 175 134 213 175 132 219 18 86 117 223 5 33 25 75 226 145 242 217 178 115 250 27 210 59 197 153 174 178 228 71 169 153 229 99 40 135 21 109 57 123 221 210 74 66 37 197 58 206 233 209 171 196 136 209 197 183 191 27 80 139 5 33 146 185 200 87 73 232 202 158 114 161 146 66 36 26 49 21 234 79 206 226 85 56 132 97 54 33 111 211 145 119 129 160 138 31 134 34 198 25 114 116 83 17 50 224 80 236 146 64 165 93 38 77 163 249 121 165 235 33 49 228 34 226 193 66 191 254 129 43 120 245 170 178 147 226 94 241 174 135 141 184 109 198 47 98 52 178 11 134 222 202 33 227 52 26 87 220 197 251 65 46 196 134 80 242 4 78 100 178 67 2 29 231 54 251 39 123 55 242 110
118 52 42 204 83 90 226 135 77 47 118 7 62 179 10 197 181 11 129 75 172 137 209 183 68 190 234 102 222 185 87 144 84 212 197 91 121 169 209 177 237 192 148 126 233 1 236 109 23 87 70 30 247 248 242 29 109 63 167 53 229 237 128 4 246 234 1 149 132 123 94 20 29 51 17 211 64 169 202 144 254 78 86 139 147 136 186 111 38 43 4 115 124 196 1 119 183 109 61 78 47 25 171 98 131 66 166 194 81 61 93 132 220 228 109 160 31 70 32 255 90 192 36 77 21 58 155 214 19 33 107 113 223 15 97 195 209 136 252 70 204 35 0 90 61 1 251 211 125 57 114 49 245 185 231 221 42 146 54 172 56 59 124 104 248 146 58 68 5 81 44 120 208 216 12 199 153 162 220 71 59 212 6 223 1 91 176 157 225 210 245 82 183 242 95 205 47 90 55 246 61 192 228 199 127 18 32 221 207 183 126 21 179 90 246 157 120 63 7 153 45 90 161 176 35 193 87 81 120 127 95 178 82 15 82 244 77 201 251 39 43 53 188 178 116 206 100 211 20 5 252 84 168 254 29 194 40 60 62 137 130 184 101 143 187 17 13 126 243 134 132 110 235 129 112 200 169 78 236 15 196 124 176 195 96 239 139 31 210 211 213 227 37 28 112 17 168 219 232 108
186 144 86 39 32 101 20 119 220 243 78 254 131 174 203 254 96 55 209 180 17 131 18 10 156 57 147 212 87 98 102 5 126 125 101 5 177 62 53 233 47 70 73 186 81 38 194 4 31 100 123 70 105 233 3 172 146 79 10 16 171 165 39 7 32 174 18 13 11 161 145 156 152 111 123 162 102 74 14 121 95 195 217 186 129 235 165 46 52 17 27 56 181 193 204 168 166 95 160 100 148 16 101 32 10 72 187 115 216 140 47 124 113 88 54 140 10 120 119 97 16 55 236 191 33 92 32 18 24 230 97 47 67 185 238 142 59 35 11 232 46 119 44 31 221 61 128 85 116 117 20 190 227 12 94 58 222 195 255 102 0 250 83 45 101 67 115 184 215 210 132 155 61 16 63 114 246 215 158 4 199 76 153 22 171 84 109 215 230 96 155 14 164 146 149 187 204 19 117 21 145 78 199 21 214 97 161 149 61 162 196 249 216 83 15 237 88 253 142 16 56 237 77 35 28 63 59 154 65 206 247 34 94 38 90 88 40 187 145 98 156 163 101 214 116 168 174 125 215 251 53 85 152 93 201 179 79 130 28 189 51 239 8 241 195 72 56 7 21 186 21 252 187 113 85 208 186 145 141 241 35 68 125 80 21 232 158 91 223 109 211 76 227 172 204 125 218 175 6 2
45 8 128 176 110 121 109 62 139 242 14 82 166 100 193 27 16 9 55 133 115 148 76 197 227 77 124 36 210 74 212 197 51 222 48 84 197 155 45 84 141 60 22 118 52 239 67 111 15 197 77 98 29 255 32 238 35 120 149 127 92 251 127 181 139 212 191 49 165 142 114 172 52 254 52 221 109 155 112 148 60 122 40 147 18 222 27 18 17 179 132 85 40 57 247 59 55 89 246 13 206 121 167 245 111 72 99 49 234 51 249 1 95 2 162 196 205 47 152 136 73 143 88 240 83 231 223 226 49 134 114 146 74 162 28 211 15 146 196 149 2 11 81 95 30 175 233 239 142 67 185 72 126 108 107 41 166 219 16 80 146 69 201 83 163 8 192 102 203 166 181 191 71 169 203 213 141 230 235 82 83 245 33 85 234 225 126 224 179 243 208 215 99 216 112 71 147 62 60 83 46 69 26 24 99 243 162 168 67 13 230 185 145 96 100 237 86 172 50 20 54 49 146 212 94 187 23 28 234 88 43 115 46 171 51 19 26 180 46 130 234 36 9 192 173 210 53 128 56 154 219 39 128 49 2 173 202 125 58 226 222 162 195 221 233 194 5 44 183 193 119 55 79 78 129 57 29 140 130 114 134 78 86 172 115 202 217 201 91 43 42 132 134 29 118 198 148 77 55 118
56 15 113 91 98 117 53 117 99 191 34 137 114 50 211 148 26 21 13 194 216 169 162 196 232 39 9 147 83 99 250 196 239 1 229 24 27 154 65 29 138 67 136 207 137 70 255 77 23 125 123 139 136 153 88 85 137 58 107 6 90 157 133 197 220 160 175 152 171 208 27 28 91 12 49 130 36 111 215 164 154 189 28 90 203 223 156 147 155 152 241 229 153 59 80 188 66 233 188 184 80 45 163 95 150 203 11 210 195 83 243 233 127 184 195 209 195 156 224 210 217 153 115 203 119 59 22 116 180 156 20 51 8 95 1 73 7 153 80 25 95 2 99 90 20 176 45 135 89 241 171 70 106 175 43 62 48 4 73 63 123 221 168 247 197 147 27 133 247 159 217 70 213 220 207 176 8 108 84 138 238 246 174 218 140 100 136 52 9 67 105 0 4 249 128 74 147 125 71 198 131 13 23 83 75 58 46 247 187 78 120 97 77 52 12 34 118 136 34 185 108 101 75 225 141 0 176 172 174 230 60 240 255 135 201 80 33 40 208 3 30 2 177 61 143 2 6 73 10 23 244 25 231 78 106 200 240 133 207 77 217 246 208 215 135 46 200 108 169 36 112 21 132 209 201 67 171 172 6 201 100 37 36 23 214 93 27 11 252 233 227 183 92 239 193 65 48 97 45 59
9 48 56 247 174 25 246 61 102 52 202 27 122 157 194 100 147 208 37 18 133 196 3 93 227 255 127 134 129 246 168 15 245 239 153 116 194 20 156 97 143 57 58 71 67 127 121 67 173 241 95 73 155 37 139 145 3 59 165 214 96 142 15 11 190 248 82 166 44 163 90 118 25 200 40 207 130 26 183 76 2 222 211 124 176 72 121 92 57 2 31 103 203 9 232 129 2 48 157 68 198 206 146 125 78 249 104 176 236 224 108 218 55 148 55 175 104 28 114 188 228 196 182 185 30 23 76 6 52 167 160 239 153 249 155 248 160 27 159 204 241 145 172 135 56 126 122 16 144 181 43 203 19 207 226 241 110 221 113 215 148 63 132 183 101 190 139 91 154 121 169 36 99 83 163 177 199 91 23 6 214 126 102 66 99 104 57 69 25 164 220 37 62 236 239 217 38 41 62 96 119 107 112 187 159 188 131 255 211 27 217 137 26 228 175 2 242 110 183 206 138 41 77 140 157 171 150 142 65 1 240 219 68 97 217 11 92 130 19 80 124 51 45 216 17 236 144 176 215 73 134 50 246 57 145 38 93 191 106 77 73 200 124 45 119 188 13 0 27 93 241 14 123 6 95 41 158 28 145 250 13 60 82 91 249 134 125 39 131 159 168 121 133 175 141 255 194 22 184 209
114 143 182 145 136 135 145 181 16 98 199 222 245 82 97 208 182 205 253 192 121 147 2 49 55 132 151 246 172 146 57 199 202 46 112 182 72 42 247 177 43 207 40 141 162 188 23 48 181 247 61 76 156 90 11 78 103 173 205 188 143 224 231 114 209 84 77 136 148 151 217 14 97 12 177 251 135 231 47 175 93 52 209 150 17 40 247 196 185 214 75 214 67 181 97 132 85 233 35 18 10 18 70 108 218 154 185 156 149 48 17 94 108 88 149 7 212 254 35 36 16 63 42 191 129 156 141 168 58 34 86 201 107 254 211 124 24 237 237 70 128 180 207 168 64 186 172 48 97 252 141 217 79 85 231 156 126 133 39 199 92 163 151 146 97 157 196 167 172 146 126 45 238 1 22 199 162 162 9 3 176 156 115 32 138 193 108 236 213 33 126 166 84 142 166 141 85 195 68 229 83 121 117 49 189 219 72 5 182 186 88 86 136 133 252 243 135 186 183 78 245 17 12 32 180 140 131 87 245 109 77 13 211 63 83 157 73 152 63 32 134 72 37 230 218 29 90 113 41 156 8 164 157 214 224 142 244 236 194 127 4 66 85 151 8 37 119 112 193 16 141 14 206 197 131 58 86 177 62 195 163 92 57 137 62 185 167 105 98 105 113 60 154 60 143 41 21 146 14 100
182 184 35 34 71 233 178 143 9 149 174 206 19 166 53 206 230 139 254 107 157 202 148 125 202 190 227 247 103 129 156 53 239 38 144 104 210 94 129 119 125 238 220 188 133 20 126 236 39 127 201 140 129 14 239 148 39 71 179 117 47 222 118 114 21 89 163 115 121 141 19 106 230 79 39 49 229 13 120 65 201 242 234 163 217 124 223 77 140 131 60 111 137 234 74 218 136 183 178 243 83 96 58 111 19 161 137 2 48 199 49 57 97 93 60 211 246 243 252 78 234 153 83 173 215 216 135 201 206 119 186 22 83 132 86 243 95 30 171 31 109 61 226 70 219 48 198 212 218 147 82 180 253 64 54 186 95 139 119 59 137 81 241 66 4 10 113 120 231 108 22 98 161 73 206 60 119 116 221 195 7 194 172 87 117 7 3 237 209 212 161 209 228 74 160 158 104 106 239 99 110 139 134 78 213 39 32 19 64 51 172 62 80 36 121 152 138 91 128 161 253 12 69 113 188 164 229 156 244 53 128 206 220 23 172 51 253 12 183 113 137 210 218 48 242 84 183 146 210 140 247 57 208 4 142 94 79 115 128 239 186 229 227 73 79 74 251 12 108 85 182 136 33 175 80 79 41 153 124 198 68 117 134 228 139 153 117 211 116 204 168 1 47 33 56 60 84 72 236 29
215 77 24 198 8 131 246 101 245 61 149 215 231 249 250 32 45 100 199 129 89 55 29 211 8 77 47 178 233 178 150 141 195 77 140 255 189 250 83 243 2 218 142 98 130 201 119 13 248 119 43 141 215 196 64 101 214 242 166 61 77 13 139 173 115 101 20 191 163 101 160 195 196 157 232 110 247 83 187 90 183 130 41 96 32 107 87 161 240 249 225 130 117 139 238 179 61 146 163 20 84 191 246 115 182 213 42 33 178 62 61 209 97 236 201 97 224 192 153 223 188 44 52 255 91 228 78 6 158 169 245 97 29 187 73 193 92 122 198 53 3 156 245 175 213 16 63 28 220 200 160 250 49 98 87 94 194 146 144 156 195 161 240 245 38 122 179 129 71 169 17 193 220 142 60 173 145 115 199 191 62 217 99 207 129 186 165 229 249 30 181 95 158 116 60 163 188 4 24 90 199 164 25 14 192 70 85 64 226 194 159 195 171 187 31 226 120 9 251 159 21 87 247 234 232 191 250 189 81 47 159 238 72 244 153 99 66 239 216 211 232 159 160 5 216 33 217 24 106 99 227 4 94 54 41 65 208 141 190 167 148 24 74 33 180 220 64 57 200 244 158 196 143 103 124 212 109 164 1 63 240 230 192 130 85 56 194 63 166 63 253 27 139 119 114 218 254 198 4 28
17 58 223 169 123 5 183 39 168 164 56 198 218 5 137 207 203 71 245 82 86 199 54 179 103 42 180 36 12 42 4 83 170 210 57 17 233 97 36 101 78 225 170 46 222 247 14 68 194 176 230 99 79 83 31 131 251 159 100 61 61 119 148 207 65 214 187 176 47 122 7 37 85 217 246 181 102 113 255 96 226 55 207 56 63 232 203 41 238 171 31 96 171 229 54 111 24 203 35 125 144 125 33 247 4 99 159 125 177 166 139 110 190 71 158 20 130 82 35 253 70 215 123 11 239 20 50 253 21 86 214 192 149 229 104 166 72 168 235 2 70 85 42 202 158 232 126 164 203 10 78 242 241 232 44 112 68 106 126 44 55 145 111 239 141 24 227 6 51 81 224 68 228 84 149 155 17 218 100 81 158 173 12 151 45 179 172 176 115 119 44 6 16 223 202 253 122 223 127 78 194 80 207 120 243 38 165 62 5 25 65 249 85 80 229 116 117 131 44 149 237 13 51 42 157 149 76 16 180 155 46 93 158 66 45 217 14 58 91 3 109 82 213 234 76 123 65 65 87 108 121 211 46 163 96 115 215 95 33 58 175 184 62 238 239 102 196 168 204 204 48 169 81 191 17 95 255 155 246 74 241 79 181 156 130 117 37 91 166 194 122 147 157 189 244 206 61 105 87 201
231 71 167 11 1 99 241 184 212 221 231 46 102 55 175 1 217 157 217 106 1 220 122 114 161 203 46 139 14 15 171 38 216 248 68 184 246 21 36 28 107 218 17 145 224 220 61 68 48 171 78 241 19 181 62 163 203 222 235 89 44 41 104 136 91 59 129 38 223 70 190 174 186 46 63 254 91 170 22 76 251 199 244 69 218 51 82 148 70 37 177 21 20 145 17 130 30 67 120 69 67 222 214 153 105 163 248 15 237 236 2 223 186 11 72 154 40 24 139 50 143 143 213 247 84 247 196 155 95 107 16 101 140 212 178 248 40 189 80 224 58 13 252 48 150 17 7 86 157 185 181 224 28 208 46 211 69 29 182 136 144 30 193 125 64 154 41 188 74 181 160 180 89 93 165 108 199 75 114 163 201 88 55 28 137 22 40 12 145 73 120 182 23 94 57 73 151 230 128 140 151 90 51 65 170 98 96 221 59 207 241 147 5 230 159 115 133 132 181 132 200 43 170 158 77 206 43 135 166 81 116 197 57 58 17 177 53 146 8 29 208 199 46 231 32 165 207 4 26 245 237 108 28 171 223 196 91 112 159 7 210 216 92 79 218 101 170 36 68 37 72 153 68 182 21 227 53 170 168 50 206 83 27 34 111 181 49 246 74 25 150 172 7 168 140 217 188 41 99 211
73 182 89 106 109 227 145 167 111 195 29 107 59 91 189 49 134 97 122 1 172 213 46 130 223 159 137 158 42 194 116 240 179 57 164 15 22 124 184 170 144 10 26 151 67 220 231 56 102 101 30 138 120 16 85 63 96 119 54 229 190 186 212 177 197 173 233 129 18 96 121 159 14 235 68 143 174 222 34 7 239 213 232 85 228 236 185 143 146 131 40 83 13 156 114 250 149 243 131 31 77 193 200 74 101 233 91 27 85 175 139 5 118 69 133 158 183 126 165 188 215 19 209 252 230 98 114 40 153 115 76 190 136 121 123 126 188 117 38 111 179 45 111 119 230 112 232 227 39 243 122 10 8 196 8 57 192 177 100 58 25 64 111 39 4 175 72 188 217 76 142 227 77 147 62 67 137 175 26 178 168 129 51 105 114 243 233 15 158 246 8 214 223 32 170 44 49 209 166 15 133 36 208 178 30 226 4 101 236 18 52 10 202 254 78 149 130 101 154 223 79 249 204 129 75 235 77 215 41 103 0 181 214 240 72 253 228 188 32 176 133 77 42 174 32 22 112 84 190 4 21 141 55 161 169 174 108 184 6 242 253 186 150 96 152 18 139 188 118 171 208 61 108 69 78 41 127 191 87 200 33 38 118 48 111 139 224 215 210 41 175 132 161 22 53 187 203 232 88 230
124 57 167 215 180 43 201 13 236 210 108 98 154 32 16 187 119 46 74 130 242 134 106 180 78 7 87 35 225 207 245 182 14 76 178 75 126 89 154 144 237 138 110 60 168 106 242 243 230 191 245 21 117 130 232 157 12 159 174 83 188 45 64 48 3 218 196 44 173 127 45 53 134 43 102 228 213 128 150 196 113 88 218 148 121 200 38 248 129 41 1 97 49 86 47 237 154 172 157 111 172 95 96 114 102 46 65 13 116 123 113 126 97 242 183 148 240 70 183 104 41 72 141 248 204 77 173 0 80 92 38 79 23 178 43 148 6 238 247 179 223 114 217 218 173 55 26 217 30 39 58 203 23 183 180 203 72 210 161 49 54 42 176 102 158 156 127 28 213 188 213 232 170 33 183 114 249 95 170 176 105 153 88 110 47 96 0 203 69 44 141 114 13 93 215 227 244 19 206 193 191 187 133 106 60 20 3 57 159 187 72 186 96 232 69 29 102 75 184 133 38 134 6 7 245 48 156 15 172 11 218 67 81 153 189 80 184 2 38 56 96 192 117 78 207 45 85 136 70 43 200 25 160 162 28 63 168 36 19 57 96 31 102 214 157 224 150 69 115 30 97 2 196 133 158 161 53 170 200 32 116 200 211 235 31 31 239 8 245 102 189 242 193 248 246 129 204 104 51 158
61 94 14 234 205 247 85 179 84 239 107 132 106 93 137 99 202 51 120 253 169 243 29 127 198 70 54 187 232 93 4 170 28 221 178 221 165 196 215 230 169 166 219 195 160 50 183 152 196 67 183 217 169 196 89 164 42 153 87 123 82 236 134 241 234 53 148 12 88 187 149 176 243 243 130 112 226 66 232 196 161 210 140 111 199 144 114 174 245 49 247 153 157 98 238 151 227 140 20 38 199 201 253 233 75 130 141 159 84 158 164 88 193 155 19 81 153 40 48 215 193 84 117 164 121 126 235 213 234 162 51 48 172 122 68 20 34 214 226 243 109 47 186 136 127 44 27 8 79 248 10 255 54 248 141 157 156 24 108 138 216 250 175 1 10 19 253 191 42 7 151 127 68 164 233 193 231 199 46 29 46 248 221 68 192 159 207 108 25 28 142 121 129 44 31 189 214 99 247 58 114 190 75 2 34 187 58 122 55 24 213 115 232 164 203 246 202 121 105 192 70 26 93 73 250 219 148 155 207 35 136 82 78 211 180 201 224 130 159 178 240 140 245 43 173 173 158 67 87 34 158 199 107 204 189 134 123 99 105 140 37 252 160 182 26 142 159 236 129 147 168 124 103 109 203 106 146 169 118 167 2 154 127 147 117 125 228 12 36 5 109 158 115 12 58 168 54 56 42 233
112 170 187 239 218 63 115 20 42 250 151 80 170 191 175 66 81 224 236 182 36 71 189 110 21 183 119 53 166 27 203 111 10 50 126 102 232 248 13 118 27 39 202 66 24 100 73 6 8 21 6 145 29 186 226 134 215 87 52 99 174 19 151 119 185 167 14 42 149 218 208 119 204 9 220 13 180 164 135 157 230 142 1 203 167 176 13 212 175 61 193 110 238 187 175 51 89 169 109 52 221 102 24 21 181 101 58 121 13 74 44 23 101 179 206 112 142 161 64 112 87 224 163 19 211 24 119 41 128 120 221 133 130 147 195 86 117 226 199 205 247 191 163 15 77 141 6 204 61 241 237 132 234 163 183 215 179 24 155 156 114 185 237 133 225 215 248 148 173 82 216 135 173 251 227 119 230 249 112 56 81 171 145 246 235 189 115 171 43 40 105 155 146 95 106 20 46 110 148 107 51 121 30 28 155 16 8 76 154 57 158 213 241 0 145 223 33 149 229 121 67 119 217 208 188 2 181 150 146 62 99 151 221 246 9 149 245 9 220 168 50 160 120 250 113 244 93 55 132 239 231 137 71 53 114 122 56 59 123 58 215 178 85 254 193 7 48 59 26 123 211 230 140 126 22 59 241 196 172 193 233 158 4 124 213 206 124 225 105 156 65 139 206 67 207 100 126 8 171 7
138 68 143 32 9 37 180 19 228 29 35 209 42 144 33 200 35 119 123 224 168 156 61 143 133 200 78 31 208 70 129 98 147 210 236 246 6 229 211 49 124 149 129 92 147 157 206 98 238 33 203 20 66 24 237 32 243 169 235 178 109 41 226 167 77 77 208 183 110 28 123 208 68 42 121 193 141 136 187 153 160 142 113 1 15 153 244 94 172 30 134 19 239 55 98 114 49 223 145 198 234 97 64 186 213 107 230 54 242 91 60 44 239 216 219 135 63 198 225 202 26 199 17 110 32 82 202 187 204 191 85 19 43 199 217 30 44 191 112 65 223 179 56 224 154 37 239 77 153 11 86 235 186 32 155 57 232 32 56 119 115 36 11 119 0 153 65 89 136 225 188 1 77 50 221 190 242 0 124 222 221 105 105 4 121 224 60 52 178 31 124 146 95 249 43 30 125 77 44 34 222 168 224 186 117 12 110 245 245 199 80 134 242 30 32 19 18 156 178 199 141 3 96 122 185 81 73 253 90 170 184 60 3 139 223 31 76 204 33 181 228 135 155 137 142 86 125 148 103 51 37 43 173 28 208 60 21 83 35 35 231 98 85 123 8 20 106 237 182 138 17 180 45 87 206 23 155 217 26 103 65 130 244 137 218 83 228 95 202 2 175 96 195 88 108 136 253 63 137 142
121 176 67 217 78 88 202 142 53 47 163 54 164 136 48 217 26 207 186 204 187 203 181 114 81 166 71 226 131 143 110 11 187 80 37 108 250 101 22 167 127 172 30 4 252 61 203 16 128 132 154 167 106 1 66 196 24 178 32 159 88 136 217 216 91 35 119 35 73 186 249 102 223 81 193 91 30 115 70 127 165 170 34 91 44 22 161 75 94 5 187 91 144 94 254 72 223 160 229 184 70 56 200 128 114 154 162 209 70 222 62 103 181 148 91 192 195 185 237 255 221 71 36 20 20 181 15 102 2 41 132 11 86 98 95 116 113 113 14 77 250 82 227 212 107 37 192 188 172 130 42 2 124 129 184 105 52 65 240 196 51 107 19 95 191 133 112 237 82 69 66 152 43 52 122 189 167 66 91 84 23 12 108 28 156 131 112 120 9 143 42 207 231 132 218 80 123 117 71 154 77 69 135 145 87 98 218 222 36 56 209 188 156 161 208 204 236 217 75 10 231 64 165 251 3 46 219 116 15 127 72 157 110 196 75 116 215 183 62 197 231 37 117 224 222 49 205 35 112 59 62 233 160 55 180 188 110 165 157 231 8 148 131 72 151 29 165 146 163 44 173 217 57 0 71 7 146 132 8 108 2 104 172 3 128 237 142 151 83 158 118 201 21 60 51 76 29 188 58 46
163 193 172 166 186 115 31 164 56 21 73 68 160 219 65 197 97 15 94 150 90 13 103 183 91 60 18 235 203 154 224 210 92 172 225 28 45 172 226 233 142 218 219 177 131 0 254 209 251 233 161 244 55 149 210 244 247 146 150 58 227 149 98 67 17 224 69 250 8 179 73 246 211 174 126 247 102 95 31 230 188 208 124 95 194 87 184 89 92 141 170 162 190 164 53 134 100 69 170 64 152 66 147 247 166 252 250 212 1 94 155 212 73 22 203 245 51 35 32 135 66 226 122 225 227 157 167 254 179 155 234 41 71 4 245 3 194 245 154 207 233 159 60 36 67 31 177 161 61 114 157 25 196 181 227 4 159 204 122 188 119 167 146 194 183 175 28 252 83 177 194 111 241 227 70 208 6 251 141 228 1 246 160 154 139 90 129 198 179 208 105 236 137 157 85 27 104 115 37 153 81 244 89 169 156 91 152 196 242 69 173 123 176 216 231 138 234 64 201 113 240 139 126 239 9 90 246 187 22 21 212 26 97 104 238 75 250 9 9 28 76 82 157 226 93 179 3 129 142 183 33 1 238 146 88 69 67 86 244 114 203 143 7 252 32 121 46 142 161 5 20 186 79 84 155 116 77 210 72 140 142 159 178 191 158 245 47 118 172 38 219 171 47 198 93 252 80 55 162 178
17 187 119 137 118 103 227 92 235 71 36 151 81 160 52 7 145 67 92 203 8 222 226 165 207 201 106 64 226 66 88 137 251 216 20 187 72 130 40 231 144 56 12 135 148 42 119 187 222 4 145 78 28 130 67 90 165 71 14 122 150 239 80 190 69 83 16 236 169 211 49 192 59 106 121 212 15 108 51 207 126 60 241 216 134 53 19 219 131 248 14 174 191 177 1 201 51 227 254 166 103 33 207 142 205 2 92 83 168 226 67 233 184 91 24 209 162 231 84 119 85 78 115 72 63 227 64 236 127 35 186 124 10 50 239 190 66 30 196 0 199 237 253 20 71 65 217 164 244 246 61 28 20 167 7 218 152 100 215 88 249 238 223 51 79 101 152 242 152 132 111 111 146 19 79 245 140 144 206 34 176 62 254 174 224 32 58 57 204 99 90 137 36 236 9 145 139 247 236 146 183 158 55 38 9 206 229 211 235 23 230 57 194 17 215 220 208 164 186 234 75 63 230 128 141 163 148 251 86 212 128 205 101 236 175 125 151 17 227 246 17 148 126 137 194 185 77 42 28 2 197 76 209 146 141 141 212 196 6 230 44 83 189 213 129 23 3 117 120 71 173 229 98 104 250 74 25 13 133 33 161 34 44 33 132 202 151 132 76 111 43 152 251 126 51 74 33 101 70 153
235 43 155 174 86 25 238 247 112 143 123 185 145 124 19 37 165 196 248 56 181 135 166 218 26 223 94 242 198 219 35 91 90 217 231 78 123 6 218 233 135 226 3 77 105 10 177 192 147 95 54 162 213 30 129 90 168 135 186 245 107 179 192 112 104 39 178 252 50 72 217 112 22 47 65 92 87 143 5 242 117 55 142 67 195 109 62 52 230 106 59 26 180 44 204 16 250 220 189 79 114 76 231 171 219 130 222 32 245 182 33 121 223 116 111 211 72 12 90 243 85 187 59 215 18 116 120 115 15 46 195 99 83 129 96 57 145 53 195 82 237 141 35 23 97 114 115 39 47 238 201 0 74 217 178 251 131 224 253 216 198 97 233 180 15 203 127 193 92 16 79 72 207 92 249 110 128 204 160 192 223 211 241 175 175 231 117 153 104 132 88 144 242 141 51 240 116 0 13 116 74 239 143 76 220 21 82 199 17 142 48 194 172 115 102 19 3 183 199 125 28 9 222 99 196 221 79 121 110 44 214 75 2 148 43 165 89 226 8 178 42 176 133 252 111 45 253 16 219 114 174 51 131 96 206 79 111 83 34 166 192 251 216 3 144 156 24 53 189 243 255 17 39 247 41 85 111 16 91 231 31 217 8 71 78 163 121 163 91 133 155 143 32 225 38 165 68 243 52 115
231 170 68 117 128 240 51 204 198 129 114 115 165 79 143 32 62 166 159 1 30 216 129 163 161 54 254 61 121 21 55 191 16 115 33 165 207 226 52 121 229 244 109 172 114 11 153 143 1 146 175 58 10 254 36 59 167 51 238 203 200 190 137 195 160 42 229 249 124 124 163 255 84 186 135 179 185 165 74 173 18 27 134 240 163 34 165 86 190 195 11 46 176 164 38 34 194 9 10 140 145 107 155 196 34 222 117 212 141 215 214 126 5 17 227 51 26 226 28 249 69 87 108 34 53 137 222 45 95 162 178 161 3 248 140 197 67 253 23 85 199 139 186 29 90 3 147 157 215 197 124 222 59 92 104 71 215 151 52 31 212 250 210 2 71 208 209 201 149 66 123 168 121 78 157 83 213 88 164 64 21 215 111 30 85 91 44 207 17 91 46 179 63 95 173 128 40 146 100 81 83 146 3 168 98 162 130 190 134 237 65 203 207 97 209 49 170 236 26 192 87 33 225 51 187 42 91 153 171 120 94 48 81 173 64 30 28 237 102 106 88 208 171 206 238 117 246 195 178 52 207 76 231 226 147 219 199 111 91 174 152 0 186 185 224 22 55 83 101 136 58 44 55 173 82 145 226 76 88 104 42 107 55 109 169 40 13 95 232 252 161 200 237 102 247 145 185 117 47 34
38 111 160 233 178 83 171 55 199 66 197 190 116 17 116 245 177 179 240 142 99 9 190 14 129 98 92 200 169 121 32 28 12 67 116 100 10 139 39 88 147 172 159 66 53 169 85 53 209 247 81 215 167 222 147 149 68 50 30 238 26 161 193 180 224 43 206 187 184 128 92 170 221 126 105 169 232 57 147 138 16 69 22 191 143 82 148 216 218 212 120 211 36 52 226 200 30 13 212 237 98 0 152 209 153 239 182 176 162 156 83 72 113 202 199 241 224 67 134 7 118 190 94 13 131 7 166 158 237 108 35 73 231 89 190 213 125 6 95 198 137 216 96 123 186 202 102 173 125 188 229 84 109 138 105 35 36 222 69 249 228 43 89 89 195 79 26 147 83 4 8 167 149 122 21 80 78 241 245 148 191 42 225 236 245 74 100 233 53 211 56 25 182 105 23 218 230 11 128 98 70 30 106 206 25 187 251 143 73 152 238 48 108 205 74 126 162 152 222 22 200 139 88 98 84 234 42 165 249 54 119 47 175 253 84 84 232 71 247 144 5 134 97 128 94 47 231 178 240 76 248 7 162 147 20 152 111 60 185 238 111 2 193 173 88 174 237 14 140 12 220 175 224 61 146 255 195 242 56 8 142 37 222 83 144 195 156 183 94 241 99 139 29 62 221 39 212 26 207 178
253 162 48 21 225 46 250 124 76 46 145 155 231 16 230 12 223 106 199 104 185 184 217 83 211 184 18 105 75 202 157 64 231 219 237 18 251 9 237 69 209 189 152 212 43 150 146 98 165 194 34 90 113 103 235 117 29 17 17 34 189 89 119 4 161 239 37 105 153 36 113 6 202 253 58 65 105 74 127 31 28 213 3 126 53 40 16 29 92 148 33 248 147 2 166 177 137 95 189 47 15 140 204 82 126 182 105 210 185 156 232 196 73 190 82 127 73 12 120 159 244 115 6 24 146 30 98 223 66 81 44 74 42 27 224 225 62 22 7 2 185 109 111 237 33 102 66 212 20 29 93 228 227 29 21 173 144 254 124 148 201 87 114 127 120 17 190 51 218 11 245 132 87 70 90 41 146 38 176 67 86 118 244 152 178 6 30 132 113 57 102 148 190 214 9 162 201 24 57 150 179 33 134 25 111 206 15 20 172 80 61 108 159 121 58 172 14 83 160 57 134 246 112 202 231 37 159 241 235 166 229 171 238 34 182 87 197 200 205 221 2 41 192 95 83 44 215 134 102 170 243 223 236 199 142 245 122 135 175 106 99 150 225 59 202 140 130 241 89 53 146 180 185 188 55 244 113 93 41 124 26 38 21 42 163 248 251 147 12 0 205 235 183 46 128 143 219 14 149 117
215 161 235 75 226 13 48 126 175 78 11 60 122 91 252 134 196 53 61 93 63 15 0 210 3 101 176 175 151 200 244 242 51 150 65 223 54 251 102 167 215 120 235 240 241 38 229 251 234 239 103 122 111 176 179 64 168 21 142 143 250 204 7 229 49 231 135 202 9 188 76 81 28 149 245 57 240 166 115 71 200 6 140 100 28 102 225 229 158 162 168 93 47 164 87 216 146 240 249 34 7 125 98 118 136 217 151 108 75 245 158 230 236 100 74 41 247 176 193 195 34 117 214 215 64 153 159 67 150 76 132 13 64 164 52 69 9 222 136 36 50 120 166 91 27 187 114 150 186 108 82 161 4 152 227 102 88 40 0 22 23 114 249 11 57 212 165 215 221 99 144 218 128 36 205 63 108 129 171 204 208 17 91 97 208 4 45 252 204 157 156 202 196 64 219 97 36 149 66 71 82 11 107 167 208 101 99 67 157 172 130 110 78 72 151 109 173 182 246 187 20 98 185 182 218 231 236 32 244 172 246 87 48 108 42 191 249 15 45 236 228 192 127 86 24 26 253 185 203 20 124 180 93 110 156 90 132 1 32 190 5 141 42 214 184 140 149 58 225 179 17 210 91 122 237 228 78 52 82 156 57 161 15 169 44 136 81 241 198 245 192 123 200 197 41 66 114 128 113 228
124 30 150 45 219 57 63 14 243 17 27 29 113 99 209 200 193 49 221 46 103 111 142 95 115 203 253 34 13 133 107 227 232 251 99 82 198 159 189 66 143 190 123 252 206 18 62 206 183 29 159 235 176 170 44 106 55 249 46 255 165 159 228 249 153 190 87 235 248 70 118 243 144 254 36 121 51 11 248 53 233 69 131 190 0 96 219 147 82 64 120 183 221 107 2 89 139 120 244 45 243 15 134 172 139 164 255 21 192 77 182 202 18 69 74 43 128 238 103 2 216 51 162 217 151 66 184 57 53 64 158 134 146 144 49 155 108 254 142 67 253 147 18 239 97 245 181 150 220 37 83 201 215 205 18 69 250 251 179 28 17 98 242 223 238 247 102 89 185 58 212 61 220 216 211 128 55 123 85 143 107 120 53 2 101 223 57 139 63 91 33 168 174 194 132 113 251 216 157 127 3 57 53 209 118 35 240 105 110 120 200 206 92 107 226 129 99 27 247 207 136 143 43 186 6 198 105 50 48 236 134 245 108 144 129 32 235 91 106 199 238 169 55 204 177 177 93 89 75 159 209 137 3 110 197 187 227 183 78 172 74 74 57 80 50 53 177 131 198 5 212 126 99 5 16 108 39 161 88 93 209 96 107 143 135 164 201 41 120 236 91 2 146 101 246 215 161 188 45 109
247 3 164 80 165 119 199 58 30 237 77 190 60 191 178 92 121 72 47 229 181 195 158 221 18 177 204 44 30 179 83 138 149 212 66 182 162 158 97 238 192 61 32 208 93 132 190 47 170 155 6 150 83 180 183 127 205 57 39 228 253 219 113 254 27 103 224 218 19 195 100 177 167 119 89 229 191 253 30 0 137 199 104 219 10 113 76 156 170 93 227 227 153 0 133 55 108 80 216 13 2 48 113 110 105 65 77 180 22 132 167 87 80 143 199 202 130 2 149 181 193 144 179 195 227 220 198 98 204 142 197 102 246 243 132 56 46 7 132 131 34 96 246 51 33 42 155 117 78 201 220 174 233 245 226 165 208 233 186 209 118 252 186 244 99 97 126 233 99 129 248 108 145 228 238 222 42 10 208 131 205 232 121 127 147 7 27 44 78 22 18 243 62 44 60 30 196 33 70 11 203 213 114 27 180 103 140 197 148 68 5 98 22 228 74 47 222 195 195 142 1 81 9 14 159 252 249 135 163 208 66 159 166 183 145 220 142 223 159 178 192 117 70 146 54 104 167 21 219 162 96 94 38 91 153 182 238 2 22 236 159 192 149 166 62 131 83 115 20 172 123 116 61 196 251 240 119 246 53 137 175 210 208 76 96 231 127 155 137 96 220 79 138 254 220 183 36 210 225 189
79 23 181 154 129 223 186 5 152 240 242 54 20 59 40 129 91 146 146 152 6 146 227 122 51 222 229 113 164 33 189 227 8 157 168 23 158 217 106 241 77 46 223 247 119 12 6 35 40 205 159 244 151 187 158 55 150 5 89 247 0 189 94 224 247 122 129 85 196 170 138 125 8 17 192 187 108 216 120 148 173 116 138 72 114 17 90 101 88 177 208 44 76 204 135 18 205 253 155 15 227 28 27 81 110 31 34 187 37 136 38 1 129 253 32 209 249 127 34 57 204 15 47 78 154 102 14 221 16 248 100 41 238 8 179 243 211 154 197 211 199 31 92 7 198 62 122 135 163 131 192 62 151 179 13 58 255 220 246 82 108 103 28 113 254 169 165 100 119 212 255 199 123 19 249 27 78 117 183 214 102 238 14 44 116 23 31 96 149 35 116 251 6 75 135 28 145 243 226 121 108 248 31 183 102 49 67 175 26 84 192 249 196 202 214 9 238 178 84 186 153 174 183 176 193 45 40 154 125 62 44 175 66 15 246 75 179 53 166 25 193 50 164 105 165 100 112 78 214 38 115 202 235 219 168 123 161 88 201 89 120 212 69 67 71 239 8 179 227 48 220 196 113 38 6 54 188 37 99 213 223 201 121 61 156 253 245 54 193 103 185 90 177 154 253 155 201 32 156 31
57 136 1 49 77 234 46 151 207 61 248 46 218 215 147 57 129 175 140 150 108 232 200 241 65 134 219 90 168 135 139 189 250 124 8 230 20 27 184 83 181 53 48 190 48 48 252 30 193 113 242 185 62 153 220 97 164 211 40 212 34 145 129 192 145 13 218 51 48 70 205 62 218 150 86 166 223 71 133 74 245 187 124 108 227 31 167 11 206 56 210 158 49 22 196 63 164 246 113 192 192 188 139 138 81 236 62 11 56 85 212 139 87 107 26 37 7 127 50 40 106 206 18 166 230 158 76 148 97 101 19 147 217 35 185 218 58 233 33 108 56 182 95 50 69 241 176 19 1 107 39 192 141 238 100 236 174 72 173 110 192 135 77 61 29 195 82 82 187 133 104 67 52 43 84 134 171 254 64 168 15 50 133 155 61 218 245 113 223 33 164 163 211 170 74 35 225 228 169 52 29 47 146 97 28 43 250 36 29 151 216 137 87 40 42 245 233 5 214 85 65 97 160 65 44 44 153 129 223 140 85 112 136 19 23 118 46 195 253 82 186 227 158 245 25 165 193 219 3 188 39 230 4 194 236 151 3 74 167 95 247 202 39 193 69 155 87 2 99 29 56 202 190 153 170 24 2 217 93 126 223 105 67 127 34 162 248 182 0 29 0 117 33 93 199 200 163 138 157 184
96 253 81 155 12 110 120 89 183 74 215 151 83 182 236 211 141 141 162 106 0 169 168 74 123 221 193 215 120 220 252 56 181 231 107 61 254 236 244 50 4 176 180 116 136 171 49 173 244 154 208 158 138 47 95 114 123 153 221 5 42 249 179 89 171 126 110 172 243 145 223 36 55 144 22 118 16 108 214 169 223 185 139 203 182 123 73 147 84 2 236 241 224 19 114 34 188 175 85 202 43 42 8 210 200 46 27 185 159 53 215 158 25 192 151 83 105 130 217 124 149 154 43 1 141 36 236 124 164 65 219 171 151 29 254 238 112 218 153 58 247 224 45 46 83 233 112 232 2 201 70 171 12 42 113 236 149 146 114 140 66 90 104 142 105 95 251 206 186 40 86 121 141 83 15 41 232 206 134 200 32 42 63 87 9 26 13 18 51 25 233 190 84 143 71 186 40 129 7 84 194 4 157 133 40 237 36 175 189 206 250 48 181 35 112 128 0 118 142 141 132 169 8 163 171 185 79 140 200 172 152 66 232 113 36 77 19 132 23 74 216 253 97 12 93 45 43 22 192 69 83 200 211 15 161 183 128 188 119 55 216 6 75 82 158 37 169 156 216 119 153 70 128 212 101 15 218 135 182 215 54 179 27 118 97 143 89 200 18 242 22 160 19 70 112 56 190 121 152 157
202 56 98 251 253 210 172 153 104 77 143 85 221 196 49 204 45 232 228 253 66 48 246 173 132 150 184 159 193 214 239 125 148 247 25 224 20 192 147 70 110 19 205 177 186 91 91 34 215 134 149 172 242 118 29 110 120 186 239 179 132 90 249 105 207 50 125 106 184 112 26 95 180 39 72 3 232 183 189 50 210 162 97 179 22 44 134 66 222 5 147 227 111 122 208 119 238 199 101 53 53 208 129 72 217 3 21 204 234 193 188 55 168 227 19 27 129 146 153 146 254 119 204 249 74 93 139 112 100 130 250 32 129 159 30 173 189 23 72 79 228 73 188 251 42 65 86 90 214 229 118 164 19 107 50 172 141 13 87 238 41 69 78 57 8 27 128 255 133 177 177 142 128 156 94 50 231 199 106 37 199 59 91 169 163 239 84 29 61 158 50 228 210 254 208 184 5 17 54 122 4 128 234 95 126 42 221 67 214 172 213 186 237 147 196 192 217 42 96 32 116 156 113 72 171 62 177 216 199 130 74 91 156 227 202 213 171 230 107 48 162 79 163 183 163 7 67 9 167 197 9 178 149 179 230 16 193 28 137 140 118 156 93 66 27 176 192 59 52 143 105 186 195 36 255 176 9 91 52 185 37 252 79 104 201 14 190 46 233 245 63 165 194 34 9 22 82 194 54 74
72 224 112 42 6 181 44 41 21 44 181 61 156 152 168 127 105 247 43 98 17 60 229 206 59 6 143 13 132 127 38 194 48 3 7 229 228 137 54 3 49 140 45 240 223 92 150 20 146 142 139 162 255 18 29 254 165 125 204 162 33 28 151 112 41 66 35 143 211 253 243 221 35 33 81 2 117 52 193 175 36 200 177 199 213 56 221 102 83 197 111 208 154 147 75 221 217 54 134 101 184 50 52 12 123 29 69 191 185 218 97 214 30 250 210 227 247 210 145 151 249 63 195 12 90 3 240 113 0 73 204 248 243 162 187 15 92 3 156 166 71 155 146 116 254 214 80 119 58 0 157 223 19 146 131 177 108 217 245 173 85 170 249 245 220 18 181 213 253 30 13 208 33 213 138 1 126 206 119 144 131 44 144 163 44 221 159 196 215 229 54 28 229 16 79 179 245 48 226 207 128 187 35 95 154 163 51 246 69 159 239 215 172 228 35 172 137 11 231 117 136 44 136 62 46 173 227 35 49 7 106 206 244 229 126 79 26 87 142 108 190 220 14 110 25 219 90 37 203 235 183 128 253 10 211 172 206 160 14 125 217 179 59 231 8 0 13 12 189 200 72 144 170 47 103 165 136 250 87 237 188 206 52 50 191 229 158 48 20 34 255 167 155 110 222 186 114 83 113 9
90 160 189 188 78 49 42 241 81 9 109 43 4 40 65 107 122 204 49 181 24 208 175 236 101 173 43 88 32 255 15 31 58 93 56 115 84 52 199 22 91 2 161 154 202 46 230 243 56 210 104 115 201 47 154 214 123 156 146 74 2 11 5 34 178 153 9 59 88 86 13 85 231 239 162 155 147 166 88 240 169 116 255 48 8 183 120 162 219 67 141 8 95 79 196 42 173 59 14 138 124 251 84 199 233 220 15 109 78 227 186 69 110 157 50 107 40 15 2 164 120 101 86 13 39 71 83 148 52 213 164 83 154 42 2 217 203 116 177 83 83 245 117 232 48 30 195 59 188 238 204 208 216 124 64 149 6 86 50 94 245 63 139 63 58 157 212 239 136 19 212 224 215 254 224 175 191 154 120 58 219 174 98 151 113 92 118 222 110 147 66 69 94 29 134 9 2 216 173 169 246 201 234 82 122 186 67 210 105 96 56 138 120 175 29 30 168 211 22 71 38 193 139 185 243 103 64 14 252 75 211 52 30 167 161 94 10 62 149 162 110 128 62 195 120 31 97 230 63 154 156 28 241 235 34 33 173 144 156 171 109 116 146 242 198 34 184 37 19 162 196 58 52 156 97 132 9 209 103 1 40 194 201 182 153 8 68 27 114 189 158 9 227 194 253 132 217 237 161 9
57 202 90 246 235 251 239 97 143 89 89 87 115 123 9 129 143 70 143 237 98 196 57 113 226 122 6 17 181 180 113 24 157 244 58 141 143 8 164 156 43 10 225 197 214 32 176 216 6 86 118 193 143 140 255 152 173 223 5 15 235 142 248 241 18 141 203 188 231 121 212 74 226 204 113 196 38 120 183 179 132 109 89 212 68 109 198 31 144 107 118 18 14 235 121 178 219 160 82 176 232 34 39 12 195 183 48 48 95 60 67 54 63 165 251 16 135 107 234 41 176 215 88 143 129 164 238 203 88 81 132 155 48 144 20 244 140 173 34 41 170 77 195 104 11 182 189 37 78 153 68 223 82 226 19 57 118 175 194 157 188 119 19 255 168 245 35 238 190 176 96 101 207 76 144 160 34 91 63 188 5 219 0 207 34 186 175 188 85 116 181 47 81 42 70 178 232 166 177 16 70 9 109 218 49 137 226 251 226 110 215 50 164 7 177 141 211 206 90 90 217 189 140 172 112 241 166 89 10 196 51 213 109 205 179 184 129 173 70 94 56 206 55 160 103 90 36 182 221 101 63 106 13 238 146 72 212 86 137 58 162 126 161 27 54 155 61 230 87 171 70 202 56 110 214 132 210 192 111 184 68 201 228 58 210 166 98 202 20 151 11 16 113 216 22 181 63 34 121 233
86 83 3 173 121 73 93 90 187 71 123 105 156 255 172 93 75 10 39 145 249 189 163 243 25 127 93 201 95 220 229 184 92 12 156 167 228 124 81 41 84 111 24 54 214 253 92 210 79 89 234 127 150 139 90 75 153 35 225 254 215 106 44 84 212 184 7 134 102 149 224 79 141 129 197 1 24 40 143 79 173 182 60 47 71 6 113 140 64 95 46 47 144 70 178 76 30 37 78 23 144 35 178 32 26 137 122 2 45 133 201 41 232 43 87 104 61 203 95 20 147 40 172 123 10 236 117 167 213 78 102 205 170 26 220 71 204 92 216 21 166 228 54 214 246 169 255 112 167 212 127 2 95 126 92 82 47 203 68 199 208 106 68 175 12 93 180 220 235 174 243 8 97 188 65 100 214 186 73 15 151 106 224 204 198 197 255 187 64 197 112 80 151 238 138 223 119 174 93 159 1 11 155 109 170 193 201 180 204 131 116 203 123 70 171 186 115 96 131 40 22 173 225 165 75 190 217 153 28 141 16 82 153 60 159 90 81 139 53 69 33 210 148 181 198 17 163 142 203 60 18 57 47 139 53 174 221 125 162 12 144 249 63 112 136 174 123 157 47 209 101 148 234 157 7 94 59 55 179 186 37 236 215 148 205 85 133 194 9 2 203 104 122 120 110 235 69 173 138 245
230 224 236 16 205 200 14 97 218 11 52 87 181 242 215 162 155 200 52 213 250 26 177 233 59 234 71 167 159 195 97 183 127 123 136 158 12 246 13 81 165 196 47 95 126 251 178 52 55 77 222 168 218 203 93 248 190 194 44 91 99 130 192 183 0 162 28 252 144 197 101 15 126 181 112 102 76 38 69 193 231 58 218 189 86 85 174 193 116 244 60 66 73 34 232 36 99 4 220 46 65 131 171 222 250 194 129 127 111 114 0 110 127 222 166 132 219 23 233 212 214 30 56 52 189 71 45 29 98 161 83 228 150 125 57 37 25 21 249 80 253 230 42 55 247 176 47 238 213 240 134 196 112 220 15 205 156 113 65 146 47 64 65 122 73 206 154 23 156 134 238 63 236 101 228 141 119 196 248 54 236 96 244 141 155 138 27 199 96 17 113 144 229 29 106 217 43 78 150 130 238 217 213 212 107 227 104 99 72 214 32 168 209 247 166 15 65 243 224 171 148 33 116 90 145 245 31 76 148 5 239 57 47 17 155 102 70 255 81 15 253 211 39 209 165 111 222 213 87 102 193 142 16 78 136 211 84 239 223 36 128 157 15 89 174 176 101 243 149 154 112 20 163 248 48 253 198 162 125 188 202 245 53 89 249 253 86 16 222 112 246 120 97 51 113 113 86 167 17 181
75 59 132 131 42 26 46 146 243 51 231 46 105 159 214 32 159 190 248 97 47 63 36 60 224 167 99 80 10 162 235 215 6 222 50 20 140 51 20 175 209 28 109 80 219 4 194 4 20 219 154 251 228 100 101 242 135 179 122 138 68 141 56 227 145 243 207 28 134 111 125 17 119 144 184 186 7 38 51 60 29 150 60 217 134 247 183 236 246 73 109 206 136 30 234 49 170 5 96 78 20 150 60 52 188 76 184 133 67 53 63 114 84 200 241 194 133 162 80 94 101 78 148 76 60 199 10 142 222 190 125 132 218 184 28 151 108 6 62 63 42 3 228 216 20 247 36 40 152 23 73 58 158 72 47 3 129 83 36 85 68 25 73 197 135 107 85 160 87 48 92 218 117 217 75 201 177 12 172 85 89 174 185 28 223 188 136 206 88 148 98 214 118 161 217 26 124 54 78 240 93 72 52 213 251 230 67 255 28 244 18 170 59 96 85 55 73 202 147 139 11 63 198 66 45 174 201 141 14 82 140 179 159 113 192 106 3 151 164 16 33 68 191 139 134 110 167 42 233 126 191 100 205 112 228 43 33 141 19 2 2 85 89 129 122 219 216 248 17 144 130 141 210 122 165 79 175 120 250 43 160 113 148 176 218 111 8 107 147 174 220 164 42 221 19 3 0 91 90 175
72 200 148 55 133 252 46 240 22 157 193 76 208 171 206 43 221 92 156 181 30 180 238 173 172 163 108 89 111 217 196 52 32 21 61 162 193 137 122 131 147 102 122 98 82 122 10 192 84 67 132 213 15 37 223 100 182 225 222 91 127 28 84 109 241 4 206 201 246 163 124 207 197 17 47 37 234 34 214 53 27 158 254 9 74 94 119 232 143 164 193 120 238 104 185 236 247 29 253 64 81 211 39 205 156 85 88 88 63 38 199 40 192 76 236 80 255 134 28 2 203 133 102 20 247 98 110 38 255 211 247 196 118 187 244 70 27 197 87 8 158 89 139 109 42 128 78 52 195 160 83 239 8 93 82 143 4 47 96 45 99 140 164 222 76 64 61 79 28 91 66 148 156 199 132 135 5 111 92 56 111 45 143 7 235 18 106 92 24 88 64 34 255 92 140 145 236 179 214 248 250 71 141 202 81 45 28 16 155 61 68 5 170 64 207 203 158 37 195 184 7 252 164 124 86 51 12 3 44 2 237 189 115 155 241 70 185 117 255 2 24 249 114 190 172 141 176 76 218 178 116 81 24 79 168 53 10 16 68 23 79 224 16 183 23 180 212 27 230 21 203 204 77 123 151 129 177 227 74 42 168 126 54 47 223 202 56 41 90 92 131 243 113 79 242 26 136 216 200 133
172 76 160 208 18 52 114 108 122 35 184 45 95 40 164 204 170 235 187 63 246 133 60 44 207 156 222 95 245 164 118 159 18 26 161 155 107 186 26 244 196 251 9 252 120 113 122 25 1 154 238 50 165 49 68 231 147 199 222 211 14 236 132 177 10 0 76 249 245 52 212 150 37 155 216 196 99 52 185 127 61 143 78 49 67 145 107 175 114 249 142 243 42 112 251 237 24 197 255 85 33 21 215 23 141 209 152 243 182 163 186 88 153 135 175 167 44 17 233 11 176 29 59 204 211 66 34 174 119 122 219 233 78 42 197 35 94 119 224 199 175 98 191 42 93 14 42 88 187 252 48 18 225 159 251 131 24 37 147 54 243 191 27 156 126 140 11 157 25 149 140 89 34 102 93 155 94 102 253 23 245 71 136 149 229 77 47 174 24 31 192 152 196 178 166 190 148 245 175 101 88 177 115 122 50 117 86 201 208 245 24 20 99 114 19 33 91 150 217 232 96 1 156 66 245 1 143 12 195 136 36 230 183 49 131 21 247 109 155 208 214 230 233 248 139 39 246 103 88 17 220 46 26 226 168 15 216 218 92 102 133 209 14 66 241 117 159 75 56 14 4 164 68 189 34 150 94 228 191 110 228 60 146 172 15 61 247 7 198 11 164 147 100 134 43 28 34 205 224 88
126 5 222 206 231 39 63 116 228 164 45 118 197 72 93 103 165 187 79 110 9 231 178 14 214 231 46 237 73 33 80 213 78 62 59 145 136 35 230 164 176 31 14 103 37 61 148 125 60 189 13 221 29 154 244 114 28 44 192 139 108 81 53 52 78 194 75 234 103 55 103 219 221 165 227 228 15 95 108 127 181 228 153 85 106 207 89 147 155 5 6 42 3 247 42 81 177 224 26 190 90 164 1 102 240 95 56 165 5 174 159 165 246 183 1 246 233 142 71 45 170 22 132 92 131 201 140 65 79 46 106 20 8 243 221 47 33 3 182 188 217 28 166 128 18 135 63 36 55 29 26 219 42 29 199 230 21 158 192 149 189 144 85 150 209 117 176 162 129 12 93 92 81 158 152 204 93 69 229 85 40 244 46 198 131 203 68 105 20 175 92 174 78 22 59 99 210 37 242 20 45 172 40 185 134 170 5 210 216 17 128 235 31 94 77 147 16 237 128 176 111 54 122 174 253 6 206 64 192 207 131 245 224 245 89 146 146 214 104 250 226 134 239 203 184 30 39 178 148 125 17 141 147 250 20 145 159 189 212 253 111 82 174 105 151 168 206 58 99 78 105 178 2 73 20 53 86 54 204 50 157 34 185 86 55 77 245 224 208 67 161 163 79 76 227 109 13 105 79 105
15 26 12 51 34 2 107 145 82 94 45 167 159 196 252 141 157 179 175 74 30 124 232 47 93 42 146 21 52 80 221 235 202 102 213 9 174 78 196 62 74 126 53 194 214 226 96 233 155 233 68 6 150 90 160 233 195 34 217 188 91 125 115 186 234 121 78 174 35 206 97 16 208 239 204 233 75 113 87 136 218 227 137 151 186 47 28 108 175 179 122 186 23 254 21 114 125 76 204 224 123 20 166 46 217 214 64 170 118 4 104 6 190 125 115 171 102 201 41 99 145 105 49 25 135 6 75 122 155 30 173 61 111 31 52 121 3 154 155 137 42 249 254 94 12 133 79 130 39 203 113 177 54 153 84 147 225 200 181 253 37 16 229 109 10 69 4 86 134 240 184 114 76 226 39 137 156 190 53 5 1 206 201 178 35 106 83 118 110 249 182 173 224 94 205 3 213 100 180 148 76 125 252 14 89 15 123 136 244 130 36 175 227 13 3 8 22 33 134 171 212 99 172 192 231 235 58 121 140 26 45 248 240 94 42 186 172 249 184 136 115 74 16 124 63 74 130 128 180 11 187 140 218 80 96 95 153 48 21 206 73 82 86 28 31 126 124 7 34 193 101 101 143 43 218 33 228 128 47 104 50 217 249 5 70 59 184 141 127 116 50 248 119 71 109 191 216 143 193 227
47 23 50 110 175 180 5 211 164 74 79 9 174 107 165 212 100 208 38 180 59 69 106 106 205 23 213 64 8 243 58 13 93 255 125 75 120 124 79 183 19 68 193 164 148 59 79 144 39 8 84 99 16 194 5 45 146 150 213 119 62 72 32 70 222 20 176 139 76 83 37 144 38 27 70 22 36 119 75 233 104 41 104 96 170 136 73 235 95 7 221 208 200 136 134 9 126 71 237 33 41 117 124 45 71 240 150 160 12 173 166 194 41 59 154 21 30 121 105 139 5 246 225 15 160 231 58 39 204 119 89 42 160 73 23 17 239 19 138 94 97 13 221 231 46 92 229 13 158 154 160 6 234 50 39 13 38 129 231 198 8 93 146 123 208 43 38 162 148 234 173 72 72 64 121 142 189 231 36 173 166 169 95 250 245 185 84 75 128 172 49 24 51 46 181 202 133 151 119 59 234 12 76 130 95 252 152 192 51 102 126 210 134 191 168 222 88 10 240 192 187 199 27 3 125 70 177 58 5 135 178 80 77 201 48 183 123 106 250 215 164 142 125 37 252 151 56 233 194 118 251 46 228 12 77 108 58 114 197 42 136 42 217 71 244 30 30 115 85 0 207 49 182 39 253 194 104 8 65 214 214 127 49 38 176 54 56 234 224 226 176 42 191 205 242 23 38 8 157 206
199 177 214 24 159 15 211 85 241 233 39 100 252 142 33 165 37 67 205 78 80 107 254 2 92 223 92 78 225 167 189 224 236 151 241 81 76 227 254 24 164 43 21 80 36 121 137 251 84 64 196 41 220 60 100 18 89 9 30 152 184 218 48 99 238 170 215 116 203 106 215 183 68 10 110 172 119 234 215 203 152 70 163 197 105 205 120 81 11 172 165 27 130 177 250 137 134 90 17 26 243 19 246 8 153 205 78 233 248 55 193 136 178 141 191 5 234 52 142 113 251 218 79 132 219 197 46 9 219 217 233 152 31 112 50 250 65 45 204 68 137 76 193 164 115 140 71 153 119 193 5 209 188 27 33 10 80 139 115 249 154 190 145 17 245 152 25 61 131 137 121 140 253 26 205 80 71 26 109 240 34 29 166 97 53 108 23 119 124 90 222 203 129 181 246 19 205 56 88 201 222 43 176 147 58 15 253 220 237 69 162 165 212 202 180 152 35 178 187 127 73 224 194 9 53 204 128 211 55 112 51 202 175 4 84 51 164 120 48 30 54 42 172 166 108 117 233 133 206 228 43 86 53 237 164 88 125 159 61 47 24 157 199 30 228 86 11 192 70 114 88 183 74 91 3 192 250 189 248 183 71 179 184 105 215 102 71 47 46 245 206 184 86 3 111 171 159 52 104 137
