P3
100 100
255
87 39 190 92 211 44 120 39 222 177 56 126 193 103 98 35 69 104 122 36 217 84 183 236 94 160 53 85 77 209 12 146 92 155 206 55 242 144 94 190 206 235 64 41 78 107 92 107 96 239 0 57 156 159 227 33 189 1 146 59 201 103 79 235 84 76 238 230 115 20 117 82 235 6 183 123 61 246 191 223 103 75 219 209 123 49 68 235 201 80 138 110 86 37 244 222 220 244 141 100 127 128 19 45 192 158 178 145 45 192 183 176 107 124 213 0 54 77 157 170 23 41 133 46 126 38 13 123 149 189 165 222 238 52 202 195 145 107 134 155 156 97 59 2 168 165 2 239 213 162 49 213 117 69 171 156 244 227 3 72 228 169 96 227 169 79 244 206 81 225 23 24 148 123 223 247 69 92 107 21 28 142 217 199 111 67 211 208 162 252 173 161 172 80 34 195 252 105 244 172 57 152 206 154 142 15 160 32 4 13 29 90 140 190 201 94 87 110 202 163 93 175 230 139 53 84 49 39 52 58 173 108 231 173 178 186 137 200 88 120 173 5 47 132 196 68 36 132 185 98 220 206 163 109 208 120 117 154 34 226 54 214 207 121 135 55 51 41 83 244 198 124 186 58 159 239 162 6 22 125 91 134 36 102 202 210 75 207 215 15 108 9 112 57 225 72 41 178 92 99
160 58 87 235 197 79 81 197 23 186 212 94 119 241 46 118 1 118 68 46 232 241 159 26 54 71 101 80 12 226 206 106 247 129 233 111 137 166 95 160 100 196 126 206 224 45 168 174 52 108 18 36 49 37 145 29 31 238 8 4 86 214 6 117 59 209 177 74 206 253 64 203 21 52 135 49 162 158 219 183 97 76 107 118 207 48 159 149 76 7 193 31 218 191 85 45 104 192 125 44 92 149 250 26 23 82 205 145 97 83 44 228 38 29 101 38 50 81 113 144 56 154 176 116 68 41 93 60 94 104 98 234 61 203 7 116 246 62 57 203 165 142 171 220 38 30 174 180 80 126 209 69 133 188 23 75 127 118 73 146 25 4 94 134 217 108 11 48 5 225 247 207 30 21 244 70 178 31 241 22 173 10 21 141 239 92 17 107 148 91 239 169 127 176 148 181 104 9 196 129 129 91 50 1 109 237 230 201 228 74 236 237 134 37 27 251 179 90 174 171 47 162 232 159 20 190 98 47 123 241 251 139 110 103 142 8 250 241 185 144 70 114 73 29 175 44 205 10 205 178 160 156 126 99 233 122 103 43 207 164 152 110 30 166 5 29 166 241 173 39 171 202 52 64 185 149 70 245 218 127 73 197 96 145 127 160 122 180 19 123 197 193 146 211 215 134 173 94 158 43
182 125 100 253 245 253 221 84 60 140 241 5 22 228 227 53 241 146 27 213 80 86 63 31 241 134 63 193 176 105 228 94 200 144 114 35 75 13 74 143 91 26 136 253 150 107 238 141 16 163 140 36 252 141 116 76 207 37 71 53 177 63 196 100 191 44 155 197 50 56 79 103 117 82 140 168 135 73 142 37 247 199 186 80 124 204 192 54 16 241 174 159 226 106 195 242 149 216 116 231 188 199 171 160 0 244 200 119 247 114 164 167 32 85 167 171 111 62 219 87 207 253 192 158 141 244 147 115 167 26 206 118 36 74 79 116 129 98 122 199 253 135 180 204 119 147 171 102 61 191 17 203 40 212 85 115 131 137 39 161 97 68 203 229 162 155 4 52 67 71 23 9 154 203 136 12 160 135 209 86 160 216 122 111 239 6 80 136 28 132 77 69 199 55 25 146 204 248 41 110 214 66 106 251 192 248 166 68 29 240 18 100 92 247 59 109 85 131 78 117 179 196 100 83 23 85 220 197 210 120 12 188 2 133 5 88 205 58 53 19 125 29 155 1 148 83 167 110 62 123 39 126 6 12 177 18 17 130 61 15 151 66 188 33 124 196 66 251 11 53 55 235 54 222 176 223 9 197 207 72 43 200 200 69 99 37 109 176 43 96 98 88 108 73 103 128 182 178 39 149
119 253 213 93 38 137 26 144 238 49 121 166 53 7 66 102 49 89 151 6 13 34 230 240 173 19 149 58 192 123 213 181 223 103 246 102 238 251 73 76 43 127 97 66 107 250 255 228 70 55 211 205 95 202 38 254 45 21 241 125 213 114 90 239 210 152 152 217 167 182 157 157 190 124 152 141 236 118 69 165 230 181 205 185 6 168 12 231 165 96 165 171 155 217 150 222 24 219 83 47 194 186 175 66 5 113 217 25 39 91 154 250 40 26 95 55 158 7 119 12 42 137 72 17 169 210 34 203 13 241 251 250 46 32 47 192 21 214 30 130 42 143 60 77 16 168 144 232 114 156 52 203 30 249 147 173 242 36 232 255 236 186 139 250 208 79 101 130 84 105 218 234 126 156 36 121 85 217 78 122 198 67 247 130 14 77 90 244 238 41 87 185 233 208 15 9 172 90 194 182 203 66 223 192 8 251 114 84 153 172 70 17 170 97 94 116 90 222 199 235 36 188 35 39 44 201 59 103 14 188 190 232 31 93 244 252 173 117 254 187 117 159 8 16 229 192 231 182 187 27 150 245 245 104 188 164 149 9 11 33 27 189 73 118 122 109 39 5 38 86 26 81 51 224 163 130 84 203 168 180 168 245 163 135 125 150 126 238 18 76 95 193 224 243 3 34 81 74 140 167
252 57 124 42 135 229 206 151 231 155 31 227 241 11 88 15 98 26 19 119 200 243 92 125 47 108 152 129 17 212 144 194 219 21 207 77 48 174 223 183 117 245 184 232 215 1 135 174 191 58 65 19 100 124 152 179 253 30 28 25 158 55 71 208 108 186 3 139 233 205 62 237 244 221 229 215 163 127 9 90 238 34 109 237 3 89 215 203 225 204 55 62 2 223 41 247 175 86 109 240 193 242 106 84 232 140 159 145 116 57 203 104 161 136 123 207 62 146 247 186 235 233 166 90 202 210 238 34 34 153 163 15 201 237 255 230 62 128 124 10 1 29 144 19 42 155 92 150 191 115 254 224 108 39 75 143 116 221 184 181 194 104 233 130 181 241 51 80 51 236 204 157 31 212 112 201 174 84 95 113 84 149 144 14 44 254 54 220 245 3 75 59 45 2 200 123 47 0 107 135 174 173 240 68 52 28 117 79 254 216 188 80 71 202 221 197 192 40 120 186 2 229 156 15 212 236 59 81 205 244 14 101 170 68 43 161 30 163 162 173 174 148 169 9 182 11 249 41 186 228 176 178 93 177 96 170 5 185 44 51 171 226 100 107 250 112 41 9 203 63 81 99 13 237 30 88 120 79 237 248 103 113 115 75 205 73 42 190 50 91 160 158 140 140 100 220 102 206 4 185
12 236 165 194 193 112 224 128 116 76 171 194 13 51 10 244 30 235 229 160 69 208 188 140 229 45 221 125 206 186 206 103 43 44 107 151 110 229 245 116 120 135 150 113 230 128 163 213 222 163 117 135 81 29 171 239 220 195 69 9 81 64 82 232 249 44 159 65 177 45 99 243 107 208 115 82 123 161 115 1 233 239 181 93 177 61 81 178 80 4 229 57 128 142 154 158 133 29 128 254 102 177 166 83 49 137 51 186 199 248 165 13 128 160 67 173 244 92 64 48 250 45 127 37 184 97 20 98 22 110 52 23 255 226 120 126 251 203 97 158 150 201 126 187 177 133 15 221 86 187 124 61 136 220 136 101 158 121 132 247 240 20 252 103 45 179 42 76 114 30 233 94 152 203 125 35 113 218 62 38 179 28 2 139 177 86 46 47 226 11 7 95 144 15 153 144 139 87 50 220 158 161 98 57 11 163 194 11 46 226 217 67 234 219 218 108 186 19 212 150 57 170 229 243 74 97 73 67 105 3 106 75 74 65 142 181 103 215 174 121 191 143 109 84 15 236 196 229 252 110 34 48 26 250 42 94 214 254 77 204 151 14 207 196 191 183 72 74 156 152 202 62 116 125 48 215 97 57 163 30 145 83 218 101 7 9 80 180 139 175 74 102 50 226 72 118 250 37 226 229
29 243 87 48 125 232 133 200 205 32 192 44 211 74 165 223 173 139 64 212 158 137 14 185 203 241 35 135 119 195 94 223 170 222 81 98 18 166 121 245 75 97 234 236 83 40 40 213 47 120 57 202 254 22 37 89 78 240 145 63 167 135 192 137 8 85 8 72 152 130 153 193 240 212 144 224 252 17 196 50 69 20 47 211 3 151 250 5 183 42 149 242 94 201 109 198 221 222 93 80 48 181 183 201 90 191 97 150 207 127 134 82 110 239 225 193 201 146 3 210 147 220 100 203 62 101 246 139 7 177 95 246 49 158 57 185 127 34 117 137 127 34 209 198 109 8 170 179 241 169 49 25 227 58 56 212 173 1 8 9 221 88 179 12 157 239 229 192 125 230 183 206 47 147 252 104 1 237 101 193 232 88 85 30 103 181 85 78 163 56 9 33 130 194 24 62 30 143 34 180 248 34 97 241 206 37 63 241 109 25 234 149 139 21 55 38 187 179 105 165 123 12 117 230 130 240 218 21 254 190 213 174 242 151 224 109 84 128 226 88 62 199 246 79 176 69 248 50 53 111 34 201 134 68 0 226 45 66 39 37 210 229 97 32 59 106 149 57 78 149 209 113 10 223 22 9 134 10 197 147 102 25 152 108 45 187 70 196 14 29 169 30 178 227 104 88 212 198 162 189
38 88 254 236 168 2 239 207 219 165 160 155 139 138 18 67 227 131 4 166 74 221 241 254 117 78 218 115 133 247 207 101 211 155 81 208 188 103 156 107 34 194 134 162 108 85 50 251 176 190 72 164 240 74 211 140 1 215 190 246 91 189 2 215 198 84 79 67 187 151 183 137 145 103 105 151 47 180 24 95 20 187 238 141 42 167 222 36 56 239 165 154 84 195 157 23 146 73 135 51 82 157 183 67 207 208 209 62 78 255 4 42 103 68 59 228 80 166 95 112 55 108 184 216 147 10 16 34 149 201 63 141 231 28 143 107 38 169 102 150 219 72 139 90 43 73 161 92 130 101 16 203 174 240 244 38 16 84 18 26 103 240 193 151 33 216 227 95 138 208 91 27 30 43 135 126 117 25 69 215 61 140 192 213 128 225 12 164 181 65 210 233 164 202 7 138 3 33 88 73 143 133 104 94 35 58 89 255 241 221 119 131 236 16 255 64 128 16 64 79 57 80 104 241 143 134 96 255 175 70 252 119 234 10 190 22 16 99 192 31 100 115 77 192 57 75 221 109 127 89 63 98 127 71 185 214 151 253 137 104 204 48 2 176 36 61 22 215 215 206 32 3 91 146 77 12 149 99 99 184 68 38 200 50 85 74 176 133 214 85 158 242 157 16 229 116 78 111 106 63
170 48 55 209 229 47 231 165 242 156 42 37 36 135 96 125 166 70 188 66 217 40 182 132 36 235 67 176 25 113 4 225 91 0 195 199 75 36 101 37 122 246 130 153 14 212 89 35 39 239 105 48 240 48 228 243 105 64 122 206 229 154 83 180 114 71 82 160 248 84 140 34 146 133 229 227 31 203 64 7 52 205 110 185 207 250 116 13 18 156 48 85 77 0 17 100 186 237 72 1 16 28 100 170 95 73 119 109 32 222 27 43 49 218 1 184 112 225 53 3 131 22 211 220 54 164 168 114 159 79 4 174 36 253 17 26 226 5 231 110 152 131 253 75 209 213 238 176 178 165 63 58 8 22 130 158 141 153 91 102 58 104 12 119 138 220 160 36 16 47 141 98 49 142 21 196 22 73 148 226 33 23 44 1 23 181 113 165 6 190 34 69 72 153 144 223 111 13 84 227 26 35 223 223 57 209 219 48 94 105 225 125 154 200 13 124 173 167 241 41 139 138 93 18 229 234 211 194 165 253 9 6 90 183 178 43 216 93 207 122 218 58 179 152 10 250 40 45 225 53 29 96 145 93 180 177 143 65 170 13 21 191 152 126 81 214 69 238 90 8 236 196 249 218 39 154 176 94 99 174 143 211 80 236 233 30 199 192 154 74 125 190 107 231 154 81 64 216 228 112
102 54 40 134 200 56 134 208 239 24 225 43 194 105 215 244 16 105 144 31 56 254 243 50 170 38 116 134 154 14 55 223 145 64 96 132 214 49 13 87 111 158 253 226 67 80 40 212 180 147 109 45 20 130 152 197 218 208 111 189 24 72 227 231 46 17 112 242 72 164 2 111 150 144 246 84 75 124 187 53 133 196 121 35 64 67 36 146 91 207 97 249 143 173 216 210 201 79 164 110 244 120 31 2 176 253 5 20 156 47 94 233 16 73 67 205 148 103 197 143 228 30 36 26 169 175 5 173 232 182 107 210 180 193 119 183 143 52 79 39 210 37 220 228 234 47 182 179 114 121 138 68 47 165 58 194 20 143 133 80 25 238 27 180 56 72 142 187 21 24 40 80 216 116 8 18 240 79 181 253 68 34 131 106 32 183 18 152 111 136 121 59 191 94 229 103 153 111 180 57 123 208 99 56 13 68 65 241 52 135 64 164 129 36 59 214 244 103 81 232 239 8 174 21 56 67 132 107 157 213 128 11 144 157 231 240 104 4 133 95 130 110 167 34 47 154 0 223 196 5 82 194 176 87 176 138 73 66 68 185 232 159 133 181 186 215 130 178 160 59 72 39 63 18 9 24 223 95 82 171 154 128 102 49 185 116 203 51 128 42 57 224 216 180 117 196 17 188 47 163
1 31 253 196 221 166 38 141 10 108 189 107 242 31 111 198 47 11 177 247 49 154 220 188 226 244 37 182 123 198 45 118 136 132 252 210 165 27 103 79 151 24 247 222 48 46 126 229 40 110 46 158 30 76 236 127 84 143 245 104 10 125 16 241 53 142 194 91 82 62 220 77 96 204 146 159 22 65 92 122 221 171 76 123 230 171 182 203 122 60 198 11 31 146 63 77 185 228 6 212 82 210 16 61 75 228 244 30 66 10 193 174 241 92 90 190 102 108 165 95 95 181 228 61 47 143 114 215 119 211 129 80 126 11 177 153 123 216 225 54 193 232 120 67 247 12 120 213 64 255 158 86 58 207 33 139 138 91 149 198 215 90 161 157 51 176 213 70 172 53 58 166 202 112 200 248 2 162 133 130 229 124 197 159 184 100 0 192 183 155 143 9 36 124 167 163 88 254 207 39 215 235 221 141 85 196 108 83 107 38 84 254 74 30 17 45 13 79 176 251 95 31 2 145 207 154 117 214 151 88 33 75 76 166 22 69 249 208 203 99 119 163 122 122 77 78 32 120 112 37 154 153 68 116 119 88 209 235 26 239 170 181 56 8 202 14 151 184 56 2 105 217 22 42 195 249 117 89 128 55 44 83 252 131 44 101 238 51 32 161 208 170 138 242 74 204 206 54 205 218
41 81 43 201 227 107 7 114 85 41 245 230 14 247 27 85 201 152 206 116 219 152 71 128 240 37 38 197 122 208 0 213 254 61 255 86 55 173 127 18 93 245 29 46 125 119 180 177 190 224 103 21 139 211 245 34 201 199 221 129 172 149 71 69 3 64 20 113 248 252 11 123 151 78 252 139 108 143 103 147 226 108 26 245 69 165 67 68 50 96 189 225 99 175 146 144 182 103 34 196 189 224 83 4 31 88 131 134 252 159 214 14 26 133 190 180 95 70 85 124 194 10 121 234 204 102 52 228 0 64 255 37 51 201 189 8 34 165 128 251 6 22 19 216 244 128 15 109 0 168 255 98 71 34 134 218 47 29 29 8 198 82 167 122 7 201 162 113 61 149 41 138 112 146 194 103 189 28 214 226 89 69 159 76 21 186 97 217 101 143 160 87 218 162 209 184 97 143 39 200 123 54 139 102 171 214 165 125 111 145 36 107 33 124 154 147 56 54 0 111 99 106 136 47 243 136 72 152 30 121 255 104 17 195 150 82 227 155 49 216 111 121 159 90 235 162 74 21 7 14 72 152 60 127 239 201 134 173 141 67 77 178 102 213 131 245 10 27 177 254 148 222 68 192 143 130 80 24 224 152 96 52 254 239 209 205 93 11 95 51 247 219 32 74 131 134 44 170 166 11
100 119 83 112 152 81 1 131 210 5 52 18 166 137 61 78 25 36 166 162 77 165 129 42 192 194 190 240 145 157 32 34 33 123 69 77 182 76 182 190 130 135 141 150 13 38 226 220 66 174 112 90 39 213 126 202 2 48 179 75 200 98 88 77 224 62 105 56 158 23 45 0 195 161 230 69 21 220 95 192 211 104 192 143 38 56 124 203 129 60 76 217 56 195 182 168 144 207 72 34 170 129 94 233 251 98 115 211 214 70 98 44 243 253 210 136 193 253 31 143 73 251 128 111 197 137 164 103 16 170 131 106 222 25 27 76 71 125 119 231 73 226 171 214 118 98 208 112 59 166 238 98 37 109 165 186 178 17 9 44 202 92 43 148 6 45 205 87 155 177 101 109 67 242 143 39 6 9 6 112 183 227 176 73 11 245 106 131 147 131 230 9 150 21 185 226 245 71 104 142 149 179 122 105 8 100 244 141 174 184 254 117 93 212 227 236 251 238 84 252 212 237 94 101 52 70 50 133 207 68 136 212 212 173 229 175 31 221 230 184 79 206 49 4 80 245 253 29 73 138 139 83 135 124 121 183 77 201 206 91 129 130 239 220 252 0 155 111 199 223 237 186 215 131 97 59 17 30 23 177 140 70 197 102 91 20 170 141 228 4 94 155 193 187 6 116 24 62 38 130
249 133 255 109 69 198 214 41 96 22 198 12 14 155 184 223 147 209 192 75 136 5 134 4 47 76 136 164 208 212 18 40 24 252 203 134 197 239 113 225 16 138 174 190 20 119 239 148 181 89 145 213 66 15 171 133 248 157 228 252 58 4 185 51 177 21 30 229 55 161 135 248 14 115 85 200 201 1 254 85 225 140 43 15 2 80 52 8 212 205 138 27 150 166 127 38 107 131 35 249 142 180 233 78 245 34 98 21 102 67 249 187 3 125 113 46 45 51 5 164 144 38 246 12 76 242 203 87 177 45 109 140 53 84 131 205 202 160 166 90 178 227 14 77 85 197 106 207 36 81 75 170 0 75 5 110 233 154 54 230 49 38 25 192 77 140 146 90 176 25 175 243 250 137 233 226 162 41 183 81 81 187 162 99 26 211 119 172 183 28 211 55 101 168 148 190 189 156 89 165 120 21 243 255 151 193 207 205 229 126 87 226 229 245 82 202 98 168 97 160 50 97 156 26 85 229 146 211 102 49 92 75 22 185 186 51 188 84 200 109 237 233 14 232 151 134 185 104 249 176 40 136 237 112 50 41 135 112 5 161 75 72 217 161 80 200 87 217 219 129 2 254 208 47 235 223 170 100 64 17 98 243 237 19 133 27 198 112 242 211 238 241 238 232 183 50 247 199 67 216
230 140 85 146 184 242 132 178 126 225 85 190 26 219 173 116 51 45 41 124 132 204 4 110 164 72 102 156 143 11 141 139 213 209 104 57 121 77 45 141 67 170 28 175 116 89 79 72 88 172 129 207 218 96 150 116 17 99 186 194 20 214 187 36 248 184 223 231 20 0 225 112 238 237 51 163 231 106 176 4 142 128 171 65 26 234 147 55 200 221 54 141 211 167 2 206 103 60 24 66 227 76 232 226 82 21 155 57 28 177 22 6 52 6 180 69 145 238 5 213 44 181 20 8 174 52 86 158 100 40 237 188 22 35 142 186 88 125 137 74 189 94 122 79 216 239 70 224 227 50 140 80 228 25 136 191 95 56 17 72 164 10 185 246 99 249 129 45 46 242 99 96 32 55 47 162 166 217 64 186 37 67 182 232 141 245 45 162 13 22 227 57 137 91 49 19 222 160 158 114 122 186 50 44 81 125 254 214 121 185 245 76 224 150 58 53 122 54 254 2 90 223 63 31 80 59 133 207 22 37 240 178 55 159 86 204 98 55 10 103 54 199 159 189 10 226 45 25 208 0 250 2 222 191 82 74 169 173 231 111 219 72 11 186 200 18 181 232 70 193 147 122 70 194 167 30 63 223 244 203 224 236 99 155 25 24 0 99 220 121 44 12 153 39 218 219 8 150 111 217
34 136 213 3 250 114 155 172 238 61 189 131 241 72 248 108 85 51 81 41 237 232 9 42 164 193 60 9 75 192 214 53 244 18 253 253 205 46 190 26 108 79 203 74 224 185 189 226 145 209 106 234 110 83 254 153 45 229 200 77 205 242 8 14 249 81 241 43 101 162 28 255 46 196 24 15 126 251 205 45 254 108 28 131 167 26 22 33 20 23 124 243 94 10 185 71 77 111 136 44 129 38 1 198 172 253 104 17 147 188 216 150 222 178 101 89 254 209 228 197 190 113 61 216 162 93 169 178 178 112 209 167 227 99 210 174 45 236 14 41 182 29 41 149 237 49 152 157 245 234 178 171 162 121 156 67 150 228 45 145 229 86 8 136 140 196 223 157 6 82 23 244 98 232 230 120 119 0 138 102 235 112 91 84 43 195 232 176 40 173 19 173 160 33 195 162 224 210 63 235 47 20 13 215 104 144 183 155 200 159 141 15 38 126 146 223 188 41 16 30 76 235 167 162 51 70 143 76 220 128 75 246 81 40 188 84 225 161 83 36 239 141 15 119 22 143 108 46 100 214 89 185 199 207 242 129 240 198 114 155 52 124 130 239 39 149 220 129 99 161 36 144 107 164 71 40 236 182 59 20 39 10 201 171 216 246 237 7 86 43 55 88 20 106 7 197 188 216 212 231
20 1 170 79 209 228 174 204 101 71 111 243 170 71 186 248 106 174 162 202 174 224 173 178 146 177 194 149 162 250 131 212 71 40 63 220 246 30 18 154 201 63 236 134 226 240 0 92 215 238 255 75 152 136 233 22 130 222 39 146 238 227 68 253 95 203 252 229 124 239 203 199 239 36 120 70 144 147 70 42 73 92 72 210 26 19 188 188 254 3 220 163 183 20 96 240 75 15 110 78 174 114 158 28 41 95 27 159 34 93 64 95 30 133 234 129 211 163 226 136 68 159 59 60 43 110 134 231 62 65 203 246 186 252 64 252 173 34 220 22 103 62 114 208 8 95 176 244 177 64 87 207 229 118 245 120 158 137 19 183 142 146 242 27 57 83 111 70 104 160 245 176 161 59 94 50 179 37 31 61 107 26 210 148 173 15 167 151 180 188 37 176 197 5 25 187 135 126 2 214 110 147 171 143 173 239 95 111 7 218 111 200 120 40 43 20 225 174 148 69 166 237 48 89 250 3 4 53 161 135 161 67 21 7 136 173 33 147 149 89 247 40 200 81 182 32 169 102 243 127 212 229 58 186 226 228 117 98 243 147 200 226 99 58 87 77 172 54 65 157 223 33 13 105 104 62 140 130 246 124 82 174 187 216 254 98 118 169 128 14 222 238 71 71 201 51 74 242 0 235
200 244 193 229 234 243 73 183 250 142 114 44 109 26 104 5 25 190 66 69 180 199 225 212 96 36 42 178 11 58 28 122 66 36 114 33 219 1 130 229 232 249 186 54 60 69 128 81 116 44 215 95 142 37 163 146 122 148 196 168 150 168 110 185 25 141 205 248 85 84 109 89 216 151 225 255 155 132 89 75 200 10 245 207 50 199 179 207 33 95 40 120 210 104 21 25 113 135 206 68 159 111 0 84 243 167 121 236 97 150 116 135 150 104 243 94 238 162 213 87 151 255 183 80 38 103 103 180 120 50 49 72 57 162 24 58 128 83 93 43 170 155 125 76 10 249 244 151 243 252 98 162 17 71 138 106 158 34 138 49 80 32 26 53 203 50 118 161 98 174 68 7 181 147 192 5 31 137 167 100 116 189 105 193 79 156 222 77 82 111 122 158 12 118 247 224 197 71 84 81 36 128 84 141 179 254 173 66 13 124 25 135 92 79 198 190 72 135 187 91 138 206 155 63 122 121 195 116 209 120 175 212 200 234 193 14 57 133 170 167 78 57 81 199 153 160 231 4 178 61 69 152 217 14 151 248 164 209 247 57 244 118 241 2 216 18 168 91 169 5 215 58 21 40 81 163 73 182 33 211 254 122 68 89 102 241 113 154 250 140 218 201 146 115 52 253 122 140 75 62
33 116 126 252 231 133 191 5 242 70 49 215 79 163 1 202 151 82 131 126 187 191 250 97 97 73 35 222 253 185 211 137 86 237 76 234 29 71 99 146 55 201 134 65 143 209 130 78 61 3 122 155 50 48 220 79 162 91 243 219 135 68 35 73 229 88 100 234 241 118 216 155 246 0 88 61 11 44 189 47 222 144 2 6 234 232 235 73 128 240 183 158 196 195 176 70 20 76 217 182 161 18 97 84 209 152 52 230 88 75 55 45 5 114 147 210 164 94 56 219 102 250 253 74 206 52 20 207 223 247 181 148 198 227 247 68 42 174 228 80 65 131 42 168 61 42 112 252 20 155 21 186 13 188 6 39 191 151 249 14 157 55 41 100 146 18 213 65 45 236 26 169 124 208 147 75 154 70 145 81 93 98 142 5 27 154 50 66 32 145 68 173 226 182 113 239 88 230 114 93 195 88 245 23 163 119 165 236 102 197 120 183 126 189 252 241 190 17 46 113 253 134 156 202 2 178 79 234 23 252 11 202 123 29 46 140 27 162 164 147 17 232 138 8 228 218 123 211 21 173 170 151 231 211 56 156 49 79 193 246 53 104 213 156 170 105 76 217 231 119 125 234 198 188 62 64 143 160 105 97 34 207 124 0 100 183 210 85 99 94 4 152 219 42 89 54 155 148 26 90
61 101 132 86 108 33 14 183 255 199 109 184 14 88 144 195 49 195 69 4 68 191 195 45 153 47 162 18 235 159 115 235 86 104 187 58 77 146 255 222 74 204 130 175 34 116 145 252 228 206 77 9 111 74 6 56 38 7 13 52 24 32 63 154 5 43 93 111 250 93 162 71 61 210 242 181 56 131 78 34 241 38 120 49 190 228 80 40 213 30 37 155 191 168 216 77 226 152 162 92 215 192 134 241 246 145 244 20 137 28 62 104 29 228 166 103 35 184 185 117 148 57 4 146 195 133 96 192 83 194 162 11 219 8 211 167 136 15 179 195 139 168 21 98 222 11 13 239 160 159 45 7 53 123 144 130 194 214 68 108 90 240 123 83 83 112 186 133 208 49 132 107 166 107 27 99 96 101 218 179 68 117 19 82 75 28 88 177 53 122 89 96 35 101 181 94 50 114 93 107 110 172 248 237 31 197 250 1 88 205 202 178 254 214 255 157 16 245 43 204 251 191 221 63 64 228 185 191 181 140 217 136 135 118 248 93 68 52 195 114 188 247 160 218 162 39 9 209 10 192 93 36 211 72 75 14 113 143 55 221 12 170 69 190 227 215 34 137 27 99 213 212 63 202 23 53 215 211 154 108 166 137 115 38 44 66 236 157 210 247 103 141 98 248 56 69 170 49 220 190
199 135 254 197 216 39 114 251 66 205 28 87 73 231 104 101 95 94 166 153 51 128 113 192 255 194 157 3 38 164 83 244 178 109 172 175 179 31 20 170 43 66 9 136 110 250 156 61 98 130 111 108 57 180 153 75 215 104 115 14 53 205 104 151 158 156 24 84 89 124 191 4 242 194 217 57 111 148 133 200 119 146 237 230 232 176 36 200 15 144 92 167 50 120 54 104 186 108 154 220 124 140 40 12 145 73 245 202 184 193 140 209 52 63 21 0 178 187 138 106 27 94 138 230 86 57 241 126 171 103 13 15 16 155 190 51 234 136 50 181 170 118 208 107 36 172 150 169 203 249 117 73 146 222 155 97 57 187 168 144 189 134 153 255 181 179 115 137 238 239 133 205 44 83 205 207 65 142 222 62 247 188 209 78 44 64 151 228 220 177 46 112 169 155 105 164 199 123 226 6 118 204 70 60 183 199 20 254 163 38 145 96 77 216 130 244 110 135 99 229 52 174 58 18 74 21 242 255 206 177 58 7 198 119 9 192 243 187 243 227 77 151 102 39 45 17 168 150 67 19 1 250 138 255 124 116 143 205 173 3 28 49 53 27 132 90 165 190 92 247 92 225 109 180 246 42 193 139 83 156 224 83 116 126 53 186 1 148 159 214 158 208 116 166 234 33 187 14 228 159
174 12 146 218 16 167 140 34 23 105 182 55 202 245 109 82 87 9 184 182 151 190 60 89 22 57 195 85 106 71 33 39 230 18 52 168 187 49 70 198 105 113 30 220 202 139 49 127 158 144 113 197 146 112 28 123 93 7 21 111 75 7 167 146 54 28 12 152 28 55 111 93 152 25 65 179 146 110 47 188 25 58 175 163 147 124 106 247 242 111 250 205 76 31 64 14 235 135 210 218 225 136 69 92 52 194 54 87 79 106 46 150 49 101 227 98 245 244 209 222 2 100 40 158 50 134 91 139 90 71 215 39 39 210 241 43 193 6 182 156 161 101 255 138 117 195 82 124 211 95 151 231 227 195 201 214 155 44 212 216 194 144 233 238 20 39 141 136 95 242 198 141 155 182 13 62 111 106 188 234 98 82 125 83 104 244 236 116 0 213 229 217 246 216 208 9 241 78 231 189 47 184 68 160 186 207 50 181 148 78 4 195 185 38 14 240 133 125 135 167 98 31 84 146 245 26 146 112 118 226 155 152 130 111 105 68 25 159 131 100 97 205 131 202 59 184 42 60 214 69 97 74 198 30 51 216 145 47 13 87 216 96 210 229 118 23 179 42 150 234 164 169 13 17 30 143 193 35 123 239 254 11 78 38 133 7 230 81 30 12 30 190 228 190 221 13 67 147 122 158
48 56 230 188 45 122 160 37 46 68 21 206 68 206 225 110 35 23 177 217 141 220 77 229 247 56 194 23 15 56 108 200 51 52 140 194 216 91 47 58 246 95 61 176 51 239 19 67 121 65 245 236 225 132 114 221 45 121 188 63 148 26 40 254 223 137 250 44 130 66 2 25 63 242 106 185 69 176 76 81 78 74 49 222 117 190 79 37 189 253 133 199 50 22 244 22 188 65 242 240 45 192 40 183 1 162 53 215 151 219 232 174 49 238 94 133 47 59 141 19 47 205 142 27 156 152 249 229 180 27 227 133 225 72 231 169 222 169 235 85 196 111 238 240 250 86 161 105 142 31 45 160 125 148 81 52 108 187 131 183 202 63 43 76 238 195 224 142 139 144 236 220 57 152 0 154 218 111 160 192 59 31 218 38 198 77 90 241 243 53 62 6 192 101 161 202 211 179 176 50 32 234 200 105 208 221 241 239 35 92 136 52 12 102 134 66 167 178 94 247 176 14 127 242 118 161 217 218 142 155 117 231 133 25 238 206 212 107 41 63 133 109 10 45 122 50 206 12 67 207 149 118 76 191 102 193 60 214 33 58 144 209 136 193 118 239 213 92 28 104 105 77 103 215 165 63 156 226 0 226 6 87 104 60 7 35 153 142 117 98 245 184 90 141 222 226 235 14 181 218
211 173 51 228 156 168 128 209 49 120 35 59 207 144 182 199 139 48 193 32 208 32 109 148 149 116 205 197 41 196 149 178 231 86 156 8 28 17 63 186 186 201 112 137 89 199 137 156 91 58 115 51 32 114 238 91 66 202 67 86 41 19 152 181 177 174 55 64 247 79 191 87 100 128 237 74 128 251 154 113 10 198 221 180 247 210 22 178 162 121 184 95 86 58 112 178 72 48 109 104 196 208 172 131 245 31 20 220 150 51 9 214 14 171 60 184 18 27 187 19 224 250 139 15 228 218 178 241 198 244 56 10 21 92 171 207 179 0 47 0 228 68 72 108 118 181 21 220 229 219 205 18 111 224 55 173 19 98 111 240 19 115 109 250 199 143 43 61 195 165 190 229 86 86 82 98 151 109 145 26 63 226 239 238 117 57 212 93 137 63 46 187 206 251 178 67 42 99 240 37 111 87 64 92 59 227 49 248 210 195 55 80 27 28 155 160 64 110 136 89 113 203 248 102 54 185 156 75 143 149 112 147 93 218 200 85 202 205 179 99 75 137 119 144 255 252 194 144 60 231 66 171 135 35 38 214 247 164 226 23 120 28 68 114 129 56 223 64 144 84 221 0 129 251 87 62 17 210 42 169 2 118 100 134 207 80 39 145 94 77 188 197 254 49 207 78 116 34 19 103
142 40 218 63 24 230 28 101 122 181 254 111 103 42 123 29 186 198 68 175 68 79 188 129 236 185 113 198 128 246 88 130 250 234 107 21 29 122 217 91 85 112 7 210 132 204 232 154 37 242 134 232 38 93 124 53 128 153 161 214 76 118 24 228 174 67 40 84 144 38 76 254 159 18 156 224 141 34 20 148 198 115 245 69 94 214 127 189 92 185 1 25 203 233 207 194 60 104 30 114 122 24 116 115 147 22 64 170 22 2 127 81 58 61 38 48 65 182 255 60 215 184 124 161 57 96 159 11 204 87 16 238 18 77 213 82 221 146 94 4 18 90 74 28 244 1 26 27 220 82 209 24 105 221 173 104 182 161 254 135 8 215 70 47 87 209 151 107 17 135 154 70 144 0 145 189 147 29 167 7 62 182 142 106 152 18 54 210 170 235 253 63 157 233 41 117 134 157 226 150 15 189 78 42 244 96 254 52 36 58 53 41 217 189 131 88 229 237 43 253 160 92 53 154 206 163 29 76 250 3 208 73 32 251 0 93 136 95 219 83 48 134 75 53 101 163 208 24 9 243 119 173 167 111 249 95 241 46 228 192 153 177 23 138 53 85 240 52 123 167 128 11 218 89 67 40 176 173 66 85 130 108 94 78 140 212 174 171 129 73 26 192 111 129 75 184 236 36 68 186
10 170 171 232 27 12 240 69 225 83 39 131 210 11 226 19 199 19 208 162 214 75 101 3 7 242 211 252 115 113 81 115 16 9 131 169 83 121 53 145 66 125 142 100 117 15 177 205 214 233 107 243 176 47 114 102 25 255 181 220 171 62 38 177 131 210 137 138 224 66 214 242 119 27 139 22 85 37 113 221 215 186 195 129 58 32 51 243 117 122 36 213 71 196 141 161 160 51 219 163 96 21 22 194 246 128 228 16 25 230 206 177 225 232 148 213 135 70 111 141 155 70 174 222 107 224 243 236 105 166 252 196 9 107 168 74 111 37 152 154 213 10 87 230 60 26 167 165 214 203 93 229 182 86 92 164 10 87 220 73 48 65 87 224 192 29 109 201 195 189 200 174 146 234 163 176 38 174 140 237 232 183 106 82 215 237 48 93 106 220 80 197 168 128 215 52 118 183 23 51 201 135 245 197 40 232 156 176 64 150 194 192 78 102 188 246 194 175 60 152 197 234 218 75 126 230 192 133 51 162 169 78 177 186 125 155 32 207 120 164 126 33 18 184 49 122 30 212 196 125 52 251 255 125 10 103 95 2 77 132 0 200 79 22 254 66 174 105 222 117 144 79 122 163 46 26 74 165 243 82 162 155 186 55 181 236 66 47 101 33 212 167 146 107 223 54 133 53 185 205
172 135 49 158 128 23 57 228 81 87 27 224 108 65 144 58 78 103 53 150 252 159 42 98 105 120 124 239 194 252 202 116 59 155 241 230 182 182 42 104 24 247 82 164 65 184 3 103 64 12 44 175 238 83 161 107 31 0 222 51 33 1 255 198 81 74 105 203 110 249 13 140 86 203 18 244 115 53 117 250 183 229 46 71 69 145 77 10 105 165 100 149 73 204 240 190 116 94 92 226 206 176 205 2 207 108 135 73 100 0 76 232 151 236 197 72 19 149 184 252 228 23 84 3 236 31 9 230 90 196 229 32 171 63 252 88 163 228 217 79 154 113 121 241 208 95 107 143 31 110 213 151 27 63 254 45 62 112 150 4 47 244 49 169 238 107 121 218 223 171 255 50 12 173 179 84 187 58 238 123 90 90 104 92 2 245 251 154 140 119 9 255 89 156 66 93 29 36 21 172 39 24 215 19 61 6 174 76 80 77 18 211 168 159 47 254 219 244 53 16 200 149 18 96 64 167 54 108 86 78 78 41 168 181 155 154 213 90 216 191 216 26 81 135 250 153 70 29 241 141 156 238 132 196 191 60 75 105 187 168 5 141 122 202 64 230 236 18 254 150 102 190 220 116 224 116 243 159 66 58 240 47 157 59 99 70 197 50 39 90 25 96 186 231 251 175 211 124 22 4
197 116 216 34 190 186 34 23 71 162 87 155 65 44 201 244 208 114 99 15 92 85 40 83 31 70 244 185 193 179 127 117 178 228 183 115 4 189 145 70 221 29 35 165 204 129 198 3 83 101 67 164 201 0 251 160 46 110 229 106 114 210 248 118 158 7 63 229 186 140 203 101 8 182 148 93 155 252 221 22 167 109 116 137 95 92 86 207 182 58 74 205 118 71 77 125 3 15 158 236 66 198 122 29 21 245 15 105 133 142 86 126 194 224 135 234 70 157 157 68 158 61 156 4 155 83 232 232 225 17 39 14 90 29 82 223 184 67 12 159 75 250 61 244 170 148 48 78 77 189 14 178 27 243 5 180 186 76 18 74 127 197 146 62 208 102 82 85 111 161 95 52 196 230 50 29 134 62 98 136 122 239 24 221 207 174 28 84 156 230 76 163 221 84 60 109 181 36 112 35 142 225 138 234 127 130 186 51 119 169 170 163 2 193 32 110 162 153 61 58 34 23 39 119 205 179 139 177 170 6 102 14 239 186 61 93 3 183 126 127 239 41 5 146 151 221 192 150 155 149 150 79 201 120 65 90 18 172 80 103 46 143 242 58 6 157 69 79 186 9 52 75 143 30 176 211 147 124 184 245 125 60 24 104 219 56 139 152 190 67 57 112 71 225 176 249 18 237 108 19
4 27 157 155 137 104 247 215 219 199 132 15 163 51 207 82 240 175 159 139 133 168 61 185 113 251 200 254 45 207 170 167 25 127 158 142 109 245 85 242 246 147 215 183 68 160 12 23 108 105 241 224 57 56 67 135 240 105 101 159 110 9 68 115 195 110 219 100 207 93 231 211 40 72 28 219 40 188 37 46 255 142 84 192 248 1 108 35 29 119 138 135 137 86 89 152 182 60 137 169 206 173 63 61 166 47 90 67 171 25 158 42 66 95 214 248 121 70 127 74 184 217 213 33 210 39 232 12 63 6 197 250 9 47 213 222 159 141 66 95 211 105 109 193 90 23 104 55 224 112 128 237 43 53 177 163 232 69 121 219 230 139 169 54 124 49 14 167 213 71 85 161 128 76 44 216 230 111 112 19 138 240 72 109 242 1 246 118 139 222 171 200 102 17 134 250 12 178 84 64 50 100 13 179 76 229 96 215 108 68 104 142 114 121 152 71 18 210 12 219 62 112 191 107 134 193 147 241 81 53 104 88 76 180 12 153 90 231 40 157 204 63 190 1 131 44 218 198 239 120 47 165 161 72 19 105 75 199 7 194 125 150 184 175 202 124 117 193 94 210 137 154 55 93 247 193 212 87 65 25 125 71 78 173 129 16 148 163 161 32 205 153 110 62 97 84 233 222 9 45
82 3 73 223 224 24 208 120 198 4 123 47 217 223 83 226 119 221 139 215 134 104 250 17 124 87 40 19 55 107 95 166 69 83 140 192 179 199 113 234 128 89 249 235 120 40 209 85 4 67 128 197 41 71 88 228 22 80 201 233 117 122 44 148 67 11 203 83 76 66 98 40 202 6 8 9 5 90 231 30 138 59 221 149 186 144 136 147 191 60 50 43 216 68 244 167 14 156 102 205 54 37 191 230 16 111 117 109 149 119 172 183 69 157 93 90 111 149 225 39 67 65 138 2 127 77 242 76 138 71 234 78 9 7 242 15 23 112 199 172 146 177 176 225 72 167 59 163 0 121 252 215 0 159 162 117 114 152 240 208 67 233 252 111 215 228 59 208 124 115 37 188 105 6 83 37 25 5 152 83 210 150 228 46 97 32 82 190 254 246 190 224 198 187 41 108 32 143 50 236 3 108 196 164 176 26 165 3 153 63 10 138 215 111 143 92 117 244 160 229 18 75 66 35 60 97 26 170 80 149 130 215 110 84 150 24 73 33 155 223 201 138 124 162 95 30 217 95 113 134 48 42 43 79 111 110 14 53 47 210 252 237 66 68 34 245 58 110 132 224 169 69 118 78 223 236 4 168 139 16 18 83 160 78 114 128 192 128 183 151 165 29 131 159 89 169 109 183 138 155
6 71 207 236 254 112 154 231 76 131 153 144 129 90 3 183 192 151 200 187 128 211 9 121 112 6 99 44 18 226 238 177 188 12 159 187 19 9 107 81 167 56 123 71 122 146 215 99 175 84 250 150 54 27 152 127 179 186 150 50 186 195 169 231 136 79 45 177 126 37 228 37 68 145 35 68 115 150 80 168 195 112 210 236 167 191 112 239 230 105 156 105 161 227 80 115 230 70 24 146 149 161 158 30 123 195 48 140 169 228 202 112 133 29 167 222 25 173 156 16 118 152 56 165 227 115 13 239 237 151 130 223 1 18 73 29 81 180 172 131 36 32 100 35 11 85 99 86 229 77 47 79 212 32 18 242 251 82 139 160 71 41 167 21 144 59 201 58 201 157 243 146 24 163 3 251 138 222 97 207 212 196 16 113 249 235 112 111 92 230 252 178 70 39 148 8 216 64 191 176 3 101 240 200 250 5 214 26 29 181 253 166 122 36 224 94 38 163 95 178 93 232 87 62 237 1 96 61 204 171 90 198 194 27 201 142 134 112 212 52 239 115 246 118 47 73 61 64 210 142 127 181 192 59 157 92 166 204 0 93 180 18 32 45 174 84 250 119 234 205 38 15 9 120 56 20 224 119 13 137 36 185 237 249 156 69 9 221 144 229 43 239 234 229 37 23 22 56 130 51
135 19 72 203 218 95 198 111 111 171 222 177 202 166 7 87 141 245 178 188 120 138 19 165 50 60 123 28 118 157 123 85 104 130 151 253 211 80 232 47 27 194 241 150 5 183 54 134 99 54 54 60 117 58 97 210 53 221 201 94 82 126 45 1 95 50 142 242 93 32 169 148 72 136 144 208 237 229 23 76 160 130 147 42 197 252 166 175 144 58 202 180 51 119 125 210 75 183 114 12 138 131 234 25 156 252 72 60 162 219 160 107 171 126 10 99 250 176 167 169 219 178 232 142 54 14 187 117 150 33 150 44 21 43 10 18 73 135 173 179 9 38 73 96 181 148 151 190 187 233 201 221 18 96 11 207 83 237 96 173 185 188 137 128 212 206 86 98 84 116 71 200 74 118 204 45 96 225 121 188 21 224 52 120 105 233 47 59 78 58 98 9 241 207 161 150 227 14 106 89 203 102 171 123 26 56 170 131 57 221 22 84 80 181 12 188 169 143 42 41 124 97 228 174 186 244 16 119 123 54 230 11 110 210 237 238 98 205 70 140 135 104 119 21 142 130 236 248 199 8 121 105 56 149 181 201 194 246 182 76 35 165 114 235 48 130 97 68 58 71 203 94 38 144 166 17 159 137 43 56 96 6 236 77 182 122 44 72 238 184 58 64 250 125 61 116 116 191 81 188
5 200 75 97 178 132 119 222 4 72 205 125 87 14 218 236 170 2 157 133 50 158 197 95 197 80 137 145 186 187 8 225 113 164 215 9 137 187 135 102 150 43 142 93 201 71 128 7 206 45 174 187 155 24 222 156 148 86 36 168 136 72 185 26 132 222 89 185 239 168 251 231 160 101 102 213 42 56 159 91 108 254 198 149 57 70 94 25 35 222 181 26 147 31 51 202 72 243 220 62 69 106 171 86 12 62 106 143 231 186 220 224 135 143 23 48 88 162 133 79 165 56 72 29 131 15 190 246 155 170 166 127 253 232 86 157 93 31 103 4 5 122 234 8 211 139 48 253 152 28 7 250 212 58 167 18 193 206 245 95 255 1 117 102 213 5 84 108 94 112 201 170 95 250 87 219 9 151 177 101 196 212 106 114 162 254 94 125 110 164 84 85 156 137 245 217 219 122 121 69 146 180 32 233 70 113 98 20 125 239 254 156 65 189 2 8 13 5 40 47 100 168 4 22 119 198 5 43 45 74 85 191 232 128 245 52 235 246 197 183 34 13 177 34 197 94 123 67 13 169 189 5 36 42 35 61 4 11 114 91 237 168 56 168 94 108 245 126 217 65 152 132 137 202 22 246 251 197 76 23 173 136 161 184 247 204 55 100 106 148 6 195 72 14 47 106 196 225 182 59
54 185 110 129 99 58 63 57 174 140 147 187 166 111 72 44 57 146 209 109 51 216 166 128 210 230 135 33 132 220 99 243 216 26 121 189 39 31 114 218 86 216 3 56 179 156 11 153 32 57 103 240 206 125 132 162 91 74 146 248 31 202 99 20 27 227 227 35 92 207 234 162 176 194 181 185 92 237 83 238 99 195 37 114 132 75 255 110 82 214 191 11 143 83 5 115 97 130 187 127 131 224 139 151 41 229 101 49 136 151 46 52 39 59 155 51 69 228 239 186 94 27 107 227 146 128 28 8 146 91 150 29 199 167 235 57 141 37 148 254 43 191 10 229 144 254 221 156 16 165 217 143 124 167 52 12 236 156 110 116 137 135 156 198 168 164 98 96 86 96 173 228 34 189 91 34 101 144 89 24 217 38 212 52 222 250 179 231 61 202 105 34 18 197 239 57 218 205 49 247 26 9 158 236 243 159 106 149 38 252 121 242 135 205 109 26 213 100 184 208 199 118 114 188 63 174 18 214 6 156 131 48 94 15 7 202 150 173 12 128 167 156 250 202 148 178 153 21 227 218 79 8 252 131 49 12 75 190 4 244 193 84 224 239 254 220 213 187 231 29 109 86 165 66 69 103 251 119 12 109 212 200 45 83 239 22 212 118 11 178 105 193 202 241 82 173 229 227 151 135
121 1 79 83 23 83 39 251 16 49 7 8 174 254 98 127 144 118 86 255 62 247 26 184 28 106 110 4 139 152 138 30 189 7 206 218 8 182 74 76 83 49 139 1 197 249 15 190 246 116 130 198 38 208 57 115 160 111 140 250 230 115 163 103 26 139 191 12 157 226 184 114 233 23 221 86 77 70 240 132 158 215 232 90 136 206 243 208 181 125 53 68 20 110 104 239 155 94 49 91 132 168 83 15 83 248 48 54 102 242 142 58 83 10 75 108 119 148 252 119 33 206 238 252 138 238 140 195 21 90 157 135 75 43 231 243 15 40 2 199 223 7 86 170 1 91 249 170 7 95 214 238 137 1 101 247 205 210 147 32 240 123 172 173 96 87 240 44 11 218 12 164 107 107 116 223 117 236 34 120 64 109 175 187 59 44 154 187 174 10 123 47 76 182 149 88 3 217 179 178 248 12 67 205 201 2 85 75 180 191 255 82 145 242 199 4 0 156 79 214 9 14 253 238 62 164 119 250 139 60 39 155 0 56 116 57 12 72 89 57 25 200 176 127 83 179 25 117 112 88 197 89 240 14 154 235 210 211 120 47 29 202 203 74 254 10 184 166 22 42 203 42 87 4 155 33 149 210 169 62 27 54 145 158 50 155 60 98 244 245 32 72 36 217 188 68 141 16 129 216
208 246 166 22 106 64 222 35 119 55 230 14 146 174 163 63 80 121 135 107 204 11 34 28 20 16 150 183 255 171 68 179 172 13 4 140 126 165 218 216 117 212 131 111 224 251 82 151 225 67 129 241 142 54 215 108 84 31 72 233 226 113 48 51 6 11 152 52 200 196 226 91 26 168 65 77 42 34 6 219 120 226 139 243 222 5 95 214 33 232 154 123 245 80 165 179 6 230 209 90 166 217 196 58 3 157 183 66 140 142 119 228 127 95 7 84 20 25 166 46 142 227 95 200 90 190 150 128 146 136 225 62 201 8 106 6 162 159 238 198 131 245 21 71 201 122 104 191 61 58 52 239 120 45 98 25 6 176 179 99 116 184 100 225 238 244 141 65 207 86 157 191 140 241 107 30 227 131 245 163 50 101 68 11 254 150 10 127 125 3 174 147 150 106 50 80 89 185 32 188 146 236 89 194 172 21 190 9 116 91 182 51 5 14 120 229 95 121 190 36 204 232 173 46 199 109 165 149 143 65 169 67 122 23 186 40 181 224 205 162 74 61 212 2 236 120 52 98 184 21 204 174 249 76 2 155 177 141 179 253 212 1 63 4 76 54 113 49 84 9 43 45 15 124 188 9 210 253 254 241 185 200 74 41 190 13 46 222 38 219 71 131 84 190 166 7 205 239 64 184
149 82 151 175 54 21 6 168 8 115 217 56 34 92 85 101 241 197 100 144 18 112 17 87 205 100 196 169 189 167 142 103 203 145 38 35 102 115 248 126 29 36 73 99 57 189 52 178 178 195 57 190 162 70 60 193 242 18 184 205 117 66 32 210 31 210 249 66 55 228 134 137 3 151 53 221 96 114 186 188 95 85 110 220 166 172 47 51 147 36 230 136 172 221 69 87 6 248 143 126 84 13 81 236 42 145 234 90 11 211 9 85 227 71 94 140 101 106 242 167 16 231 192 109 99 120 19 132 116 245 176 151 120 243 86 160 6 78 113 61 49 9 42 211 154 236 205 173 236 100 160 194 6 37 196 222 16 177 254 7 207 203 20 190 105 223 15 230 24 116 109 84 142 116 48 118 107 109 40 179 45 116 110 86 208 180 53 21 174 150 95 138 56 205 159 249 202 87 192 96 199 80 28 125 240 86 45 220 195 132 188 209 4 15 96 213 108 148 12 128 164 72 29 76 233 192 85 124 65 66 189 155 181 171 83 57 154 148 64 73 108 22 47 106 62 183 196 92 196 86 85 160 64 145 152 209 204 205 221 122 147 173 131 100 22 73 90 44 194 155 200 184 73 2 150 81 123 90 253 64 87 22 24 246 183 69 191 111 83 115 165 214 240 139 54 161 89 51 92 38
142 201 151 49 47 91 254 188 47 97 122 196 232 52 179 27 111 198 84 50 183 133 105 25 31 244 118 133 140 21 45 37 136 24 178 94 122 37 147 38 61 140 83 44 108 122 249 107 16 61 151 160 211 59 139 14 34 218 198 176 21 84 120 228 36 126 29 149 159 11 67 245 176 250 111 152 205 161 96 201 9 28 206 137 192 80 67 19 33 51 101 119 124 143 170 156 168 172 174 107 189 196 80 189 121 119 252 203 140 36 163 206 190 248 47 131 203 199 107 34 127 220 230 83 181 18 253 4 181 16 242 220 249 79 44 143 224 212 9 18 178 4 165 23 222 92 72 56 195 8 188 47 99 146 69 14 79 193 71 155 21 167 184 172 22 59 144 208 65 247 148 116 19 148 216 50 40 38 17 159 216 204 227 117 40 27 82 217 183 9 186 244 90 239 229 140 47 14 4 60 111 73 214 192 191 7 17 128 52 243 124 20 99 213 146 90 203 156 211 145 120 104 43 234 95 8 233 196 207 156 218 185 131 161 133 239 15 89 162 51 0 167 1 55 227 128 137 198 60 187 253 246 94 37 218 178 11 236 192 211 93 253 148 69 176 190 12 178 104 55 193 189 185 97 196 85 25 165 96 234 59 161 47 80 235 109 18 113 43 129 2 245 94 192 68 145 95 11 220 94
254 30 79 128 22 34 64 109 158 189 104 70 96 222 36 151 253 192 21 3 209 174 113 85 236 255 135 210 79 79 99 220 187 199 168 203 153 181 131 18 205 179 222 73 216 169 130 99 198 60 128 218 162 220 33 98 133 130 215 133 151 29 183 145 229 176 82 213 81 113 82 32 229 37 185 126 198 248 94 170 106 159 200 77 197 206 71 141 245 124 56 154 182 185 127 99 158 182 239 35 122 91 8 59 182 2 53 53 192 14 133 104 171 45 135 236 95 89 129 236 172 243 32 0 112 176 54 50 196 230 243 38 247 230 56 254 43 198 47 51 161 118 28 142 200 77 207 4 98 7 194 82 123 7 217 254 43 177 169 18 82 51 197 246 190 206 13 116 107 236 127 108 139 84 253 133 107 97 45 48 18 78 173 157 241 53 110 182 216 205 17 205 196 146 134 163 245 97 59 13 208 60 53 209 140 97 136 250 80 165 25 232 8 145 198 124 122 51 246 141 215 247 4 204 100 72 163 224 168 134 23 12 89 40 0 99 86 49 164 207 66 203 130 185 205 63 18 135 59 58 222 155 162 245 23 77 18 131 134 237 0 2 189 134 135 41 81 208 195 136 177 109 142 132 65 17 153 213 132 176 153 0 208 219 176 250 40 126 158 115 241 151 141 55 220 10 239 184 144 160
180 159 239 247 186 37 112 77 230 212 180 254 232 189 16 153 82 75 194 58 78 96 35 232 5 121 154 155 126 224 50 115 96 54 52 168 139 9 198 139 132 61 95 152 255 122 210 150 178 218 163 182 146 79 52 102 184 227 198 158 5 187 49 108 98 98 142 100 162 17 67 3 172 202 66 62 13 210 209 21 88 211 124 83 73 175 33 85 239 190 54 16 16 192 149 64 202 144 145 127 113 221 223 45 234 17 199 101 55 184 40 52 2 232 122 70 181 151 61 8 91 106 197 159 102 123 29 168 163 113 106 44 217 71 7 42 146 7 213 39 153 128 117 80 224 32 242 130 243 26 98 58 89 157 88 100 225 157 212 147 176 199 101 135 132 28 142 113 174 7 202 134 97 185 151 227 44 35 124 150 192 68 172 211 225 117 34 112 176 7 40 9 209 199 120 222 138 187 120 143 105 164 5 147 136 10 176 114 252 36 158 27 76 227 0 151 87 4 148 161 20 98 41 4 171 20 134 201 187 50 108 101 3 149 74 210 148 189 205 200 124 9 193 82 203 53 201 4 142 200 237 48 5 131 68 224 217 46 57 196 252 7 190 141 171 14 142 65 68 252 87 7 21 248 63 157 86 155 109 227 167 125 90 77 252 106 222 46 21 59 240 225 242 90 186 15 11 202 210 163
148 150 32 132 118 48 44 56 245 105 65 25 151 226 60 96 43 222 19 2 33 110 234 106 56 46 75 58 69 253 148 45 90 3 10 11 139 217 118 205 124 85 185 215 225 151 78 53 247 35 163 63 157 122 124 181 180 49 99 93 126 249 89 108 102 230 61 236 115 161 236 248 213 112 181 182 74 57 30 125 186 91 190 28 97 5 59 209 135 120 78 122 198 97 234 97 126 145 131 73 59 108 54 209 152 208 128 155 59 243 42 82 70 97 23 248 64 181 184 150 196 191 19 229 211 163 47 168 121 47 239 184 126 220 255 79 75 244 149 237 80 222 247 178 93 251 193 198 238 192 72 183 191 155 48 98 250 13 171 53 163 241 3 252 212 5 83 188 207 159 212 190 17 179 193 18 192 193 185 81 4 167 3 135 75 192 141 150 238 213 138 128 217 51 145 31 119 33 86 21 9 203 101 56 111 10 243 72 14 197 139 7 26 63 43 102 0 70 109 106 244 114 80 215 234 68 180 152 216 215 148 2 94 191 74 161 72 16 128 147 56 197 40 105 66 30 104 131 132 27 77 149 236 57 154 29 146 50 44 155 211 204 205 21 168 77 191 152 253 94 225 115 65 11 131 196 103 116 160 35 177 116 113 32 169 36 51 145 51 82 182 64 127 24 72 154 161 252 111 222
11 158 188 83 108 151 173 42 251 126 231 99 114 249 71 116 169 95 189 250 106 213 27 33 203 213 189 194 108 91 240 33 94 119 166 164 193 193 205 80 167 216 13 47 245 74 175 163 244 119 194 118 149 226 93 64 160 116 15 43 12 162 16 247 129 204 198 227 33 36 59 80 118 150 38 21 24 156 49 79 32 61 26 161 24 159 209 16 253 122 232 15 188 210 206 224 63 82 1 175 113 149 178 194 61 79 170 39 17 18 17 57 155 202 57 8 115 68 230 149 239 239 23 157 77 244 9 167 43 53 14 194 194 33 228 171 6 225 159 28 62 133 94 231 224 248 247 1 220 108 99 241 30 89 182 177 126 219 123 118 69 101 186 70 160 60 3 58 235 30 180 141 158 143 156 248 191 141 67 182 83 74 230 244 44 28 138 125 176 116 29 233 214 88 213 176 7 138 44 188 108 188 213 167 55 154 192 149 145 0 49 19 26 19 217 196 243 251 152 212 192 55 116 144 134 192 249 157 137 153 135 130 8 7 88 2 105 173 189 162 27 168 188 238 238 94 24 185 164 21 106 94 213 114 204 27 142 158 9 71 1 177 171 112 79 89 37 92 70 133 24 134 50 69 108 192 101 140 231 103 70 137 168 238 155 199 64 183 115 173 209 232 138 56 82 89 53 51 206 234
152 212 208 1 17 249 184 10 74 9 59 84 216 237 186 202 242 185 210 15 40 160 118 171 117 110 93 150 236 145 182 101 73 43 222 163 201 139 89 234 138 167 56 194 210 70 79 71 91 236 65 202 35 157 30 13 212 148 211 38 92 97 35 255 138 168 39 23 205 229 20 15 182 34 142 217 11 87 144 78 96 188 255 61 203 88 31 31 205 232 54 53 75 217 159 220 154 43 81 40 50 189 213 103 140 97 206 56 168 141 125 252 47 38 208 159 102 44 72 61 11 243 174 0 205 47 143 78 228 3 161 205 220 67 143 231 215 92 79 46 163 49 33 242 54 129 193 253 210 71 140 193 51 62 206 103 223 104 58 50 217 60 254 232 34 152 127 70 35 163 35 112 239 72 135 193 74 101 77 69 46 14 109 65 234 155 14 174 66 134 88 79 214 240 31 232 49 19 95 231 155 74 184 13 207 103 38 183 99 12 58 63 148 234 167 205 41 109 183 80 62 37 28 214 175 150 37 194 82 214 29 58 229 187 227 131 52 204 130 223 244 245 150 175 79 243 235 47 105 238 122 0 89 70 65 137 201 13 68 168 41 196 31 240 20 22 17 202 31 148 228 188 163 224 200 112 21 246 34 214 100 129 245 120 7 42 116 196 104 45 130 181 165 140 164 228 145 176 44 198
141 220 243 127 241 238 221 26 22 51 74 234 230 42 73 23 3 107 92 67 98 63 114 216 63 19 97 238 235 138 179 88 237 92 116 181 130 179 24 99 191 157 15 38 8 157 141 41 217 15 179 9 168 110 109 127 135 203 38 73 174 66 202 192 46 159 222 156 143 173 209 131 207 32 152 94 15 16 214 26 147 166 45 204 137 139 125 141 71 253 156 122 230 54 195 86 79 24 5 37 206 148 219 233 226 242 194 220 64 67 68 116 26 17 161 141 97 176 96 26 54 55 12 85 93 188 163 29 244 36 139 149 168 163 81 4 187 191 165 64 229 50 168 34 161 190 69 17 5 32 31 181 174 40 194 79 219 229 2 178 139 182 245 142 42 133 70 245 42 177 47 210 90 180 167 238 36 230 170 11 97 13 135 114 159 75 45 174 17 250 14 214 122 155 217 66 32 153 156 10 193 195 183 241 154 146 247 46 184 7 229 202 217 253 110 200 31 123 231 38 190 97 133 159 88 128 105 127 41 53 92 97 181 242 237 21 171 32 129 228 254 113 106 94 56 242 133 33 231 163 246 231 108 19 119 18 23 229 108 167 237 75 227 146 137 249 90 169 17 143 92 80 221 24 230 158 15 133 66 62 155 20 86 248 96 100 115 247 24 26 124 59 46 86 167 11 80 153 34 121
59 53 43 96 241 129 55 38 211 23 220 230 246 171 170 68 179 247 79 170 236 106 113 166 223 16 247 255 109 190 52 128 140 144 213 160 14 30 119 114 108 198 142 133 151 87 172 210 64 60 143 246 130 8 170 96 142 222 13 183 221 170 73 148 51 181 6 215 65 211 14 151 232 198 102 133 50 69 170 201 107 215 136 69 102 128 219 104 108 138 73 232 78 107 100 34 194 76 136 11 235 132 126 91 197 67 68 106 219 237 195 128 31 3 82 41 212 0 136 107 204 62 42 167 242 224 87 124 10 234 232 62 47 35 125 255 6 75 103 243 16 111 183 189 80 225 108 99 244 245 187 165 53 200 197 38 109 189 149 177 120 156 200 187 44 89 143 91 204 220 117 24 86 166 60 199 163 172 134 194 18 42 121 101 2 32 18 149 188 250 243 105 166 240 46 197 102 169 206 167 247 153 66 77 129 27 105 62 252 139 195 58 34 195 130 161 96 110 161 85 107 58 77 77 156 211 85 10 225 196 187 189 45 99 21 129 5 244 170 58 34 106 236 95 69 101 211 119 89 65 31 134 55 8 180 93 39 146 34 153 225 189 50 50 101 223 248 23 30 176 176 220 187 29 63 251 179 58 64 105 240 252 215 109 35 58 249 117 73 40 154 91 157 233 154 244 59 183 221 249
36 41 207 242 232 138 77 99 18 205 109 60 145 135 73 225 77 150 151 236 96 31 178 89 39 166 198 134 38 16 68 1 5 20 84 250 207 180 250 187 86 100 80 40 180 17 83 26 10 55 188 236 51 173 37 87 145 145 88 94 154 2 138 255 148 146 20 86 107 31 81 52 114 204 136 121 227 157 28 131 76 145 178 31 84 162 164 83 139 124 122 194 140 134 56 44 242 208 216 72 102 114 250 250 127 135 210 91 79 248 163 20 29 129 222 130 58 128 0 243 48 187 80 82 150 246 146 238 209 211 154 228 90 73 210 246 98 151 17 239 152 82 50 69 38 248 179 217 4 252 46 32 188 214 231 232 76 43 94 246 79 95 245 228 13 252 82 211 165 232 50 254 34 113 183 197 189 169 85 175 226 215 255 101 85 179 146 222 99 184 155 73 164 117 80 250 103 74 247 205 87 252 252 190 43 29 183 233 84 129 162 210 161 210 247 177 156 222 186 219 238 82 21 207 217 85 213 193 218 174 239 218 32 63 193 185 10 228 189 45 66 137 60 209 17 88 65 186 83 80 251 217 240 170 77 98 133 22 148 234 9 189 145 104 255 152 143 1 105 66 219 241 160 236 160 74 52 86 70 158 185 46 195 94 212 192 212 42 177 250 75 207 207 124 94 104 103 5 134 148
87 80 77 103 76 154 189 94 24 195 143 139 43 152 135 16 236 149 178 68 76 127 110 42 44 203 117 29 162 238 143 172 5 189 49 58 56 168 143 189 108 202 222 237 22 9 108 169 199 104 158 90 77 67 1 39 215 90 206 12 61 230 154 113 91 155 232 136 104 189 111 31 30 6 124 40 130 240 255 69 191 133 67 186 222 11 185 217 171 29 48 225 145 134 42 125 182 19 28 165 52 104 11 19 173 212 112 155 75 148 159 139 228 104 238 201 104 98 245 103 32 165 156 85 240 71 187 108 165 221 101 247 51 135 102 135 219 125 199 240 93 245 144 38 34 250 245 86 19 210 127 83 86 200 232 188 132 38 35 236 42 170 7 211 27 168 2 105 119 52 3 175 108 17 50 76 212 25 175 184 220 116 132 211 38 140 128 131 19 103 245 227 40 84 86 5 205 185 186 158 28 6 35 128 76 214 62 7 10 169 181 70 32 22 30 186 121 169 67 119 5 176 58 192 89 9 16 106 171 245 0 126 117 27 117 94 236 158 157 70 152 80 150 125 221 82 210 187 119 251 58 196 222 2 52 48 136 177 105 199 38 39 249 156 58 90 87 149 94 32 191 185 226 93 167 81 145 24 241 153 28 225 173 95 245 14 6 43 0 6 91 66 164 143 121 103 100 25 76 190
217 180 199 93 230 254 246 150 142 201 216 216 62 60 244 83 237 77 195 185 13 217 230 219 169 252 24 110 105 124 31 250 119 224 161 44 247 233 53 11 96 233 26 22 188 143 136 137 215 21 204 203 136 223 115 221 84 5 107 6 237 121 160 128 53 11 30 115 181 91 59 249 8 126 203 115 33 163 192 84 170 57 62 107 170 205 150 152 14 228 91 247 238 206 94 139 32 97 58 236 87 159 99 209 196 170 157 223 137 98 61 209 30 46 149 171 63 252 117 100 138 73 44 189 40 202 165 177 44 45 10 133 153 71 44 186 233 142 46 13 178 86 193 4 175 41 21 24 137 102 132 252 224 101 187 88 214 253 168 81 96 44 205 89 8 71 76 204 212 115 172 232 138 176 14 32 50 175 227 34 96 54 182 63 38 81 182 62 218 45 117 143 87 166 40 79 112 229 77 186 104 41 33 230 223 160 121 246 183 221 59 230 140 108 123 6 49 107 54 61 36 142 67 105 86 137 169 17 204 50 150 3 220 51 170 87 47 48 255 32 250 35 159 212 10 158 133 83 218 233 185 85 37 205 118 14 8 135 209 219 34 199 240 70 12 162 104 237 179 244 98 127 11 37 145 32 249 105 226 244 29 26 217 238 226 184 165 96 214 77 139 125 11 173 72 105 209 238 38 165
169 70 232 169 17 34 109 127 134 198 20 57 130 202 27 30 213 216 156 84 106 216 81 9 204 144 130 213 119 72 136 136 127 73 191 63 143 96 66 213 43 117 157 214 10 93 208 18 143 149 251 184 35 70 23 41 111 19 34 9 51 93 122 215 97 233 21 70 235 153 40 189 59 234 11 161 17 189 109 121 137 10 72 145 90 87 222 4 117 171 73 53 145 235 184 9 69 144 146 63 160 198 187 131 130 228 159 119 132 152 191 87 126 32 98 230 57 85 82 14 233 95 52 90 213 238 25 187 164 94 208 38 14 176 80 238 197 230 146 241 242 219 48 103 253 48 159 231 215 44 199 181 181 151 155 140 112 87 61 140 50 67 105 169 61 200 86 240 142 211 34 78 41 79 193 234 184 24 201 46 30 99 237 59 169 56 25 25 18 28 255 147 230 11 54 235 23 20 223 198 85 152 21 1 231 186 80 172 117 31 14 182 206 101 217 155 39 160 252 116 215 193 145 134 246 108 107 224 18 188 131 235 107 232 242 19 73 32 83 4 131 82 47 253 131 220 91 41 167 20 39 250 195 255 35 4 76 120 106 114 47 35 15 109 110 34 148 184 12 78 89 157 176 163 95 78 107 103 197 248 94 208 42 42 253 22 154 99 128 84 176 210 103 154 220 202 222 161 169 38
103 1 32 220 61 1 122 180 34 47 66 8 102 61 57 234 121 218 67 235 204 179 227 148 194 103 103 125 24 81 182 17 199 48 217 173 122 180 36 144 176 28 253 200 128 193 210 19 185 101 240 173 194 77 224 6 196 143 244 121 112 78 85 44 244 208 236 85 202 11 159 191 134 26 97 219 207 153 147 163 58 146 95 131 40 185 211 245 110 179 247 8 147 27 178 91 156 212 221 203 18 242 187 165 211 218 116 83 222 167 162 191 195 70 248 81 22 31 218 208 73 101 147 18 163 87 251 129 131 209 247 87 42 103 70 73 110 174 167 222 63 28 63 35 65 15 181 238 220 197 61 124 109 103 174 118 178 71 105 213 246 47 220 10 72 51 159 181 233 194 150 18 136 121 93 160 239 224 136 27 167 38 243 169 0 164 38 90 89 241 19 36 60 198 104 2 62 35 247 91 113 134 240 97 225 228 39 166 99 61 50 239 236 63 45 77 200 86 158 221 24 159 195 46 142 33 34 99 92 118 171 220 180 44 200 122 137 181 102 28 170 123 144 116 39 204 232 9 100 81 28 111 227 248 79 100 61 177 84 21 220 106 91 215 153 123 185 118 226 248 218 236 47 148 180 1 13 29 134 240 11 41 116 103 65 23 35 63 49 206 112 79 146 223 5 240 238 143 37 57
15 141 155 240 61 184 174 165 247 191 233 2 166 84 231 238 53 232 231 229 210 157 31 211 28 18 25 184 224 225 233 109 211 251 75 50 91 233 63 188 25 48 45 154 110 160 85 95 80 226 117 145 127 238 233 191 69 146 120 1 108 64 121 233 123 194 90 24 157 8 96 147 112 71 41 189 230 254 32 204 50 107 119 117 64 113 201 34 15 116 17 215 233 238 178 94 90 139 36 153 19 52 25 138 184 230 186 33 89 68 40 175 132 221 118 24 123 40 148 184 198 118 195 173 22 155 117 216 110 23 169 235 28 244 44 156 209 101 36 60 199 42 144 43 219 57 217 49 84 120 83 89 238 203 88 67 210 120 216 24 9 177 212 79 56 211 216 56 187 11 152 221 58 100 42 10 251 41 217 114 44 82 43 202 172 180 92 158 234 132 107 63 122 196 162 97 38 229 118 255 108 239 148 143 30 184 144 220 175 62 133 21 226 80 242 155 249 59 228 120 230 251 153 84 210 22 54 38 52 73 75 209 38 111 156 191 244 165 31 206 7 35 252 44 185 60 94 204 180 182 8 18 127 154 240 66 145 144 122 130 8 20 40 26 135 225 69 112 45 58 23 80 217 43 128 37 203 55 96 121 146 105 51 176 192 58 60 187 2 5 61 40 20 146 127 224 202 195 75 171
227 182 212 222 157 59 113 5 123 131 133 3 141 32 37 243 206 87 228 106 229 73 230 159 144 98 180 45 147 142 239 15 12 36 249 55 221 88 29 199 194 181 80 48 68 96 82 224 151 247 115 156 181 232 252 103 206 91 90 28 148 195 116 102 35 161 6 201 233 132 197 8 93 181 141 248 239 198 230 97 66 229 48 159 215 111 28 36 81 209 41 166 13 108 213 64 125 246 16 7 218 135 200 239 49 97 19 135 86 248 97 26 96 94 73 113 124 74 126 61 81 77 135 47 67 114 243 53 172 247 97 52 200 50 167 79 205 151 187 156 123 78 115 3 221 161 132 111 21 224 173 175 99 187 22 67 79 198 215 36 241 57 18 2 51 11 97 146 159 238 102 22 9 245 13 243 81 220 225 16 204 77 71 39 145 158 106 229 79 103 101 168 41 237 184 166 210 33 254 75 56 115 156 136 207 32 130 148 133 54 239 111 39 22 178 30 103 205 86 219 100 41 117 58 168 104 161 223 58 89 10 212 179 29 188 118 90 26 50 242 127 150 127 135 217 211 141 35 58 95 87 65 106 145 97 169 40 194 118 6 254 230 56 242 94 169 109 90 96 51 177 222 195 57 60 48 29 109 255 122 36 79 121 113 236 190 24 79 213 156 64 79 129 240 178 198 75 74 186 84
233 114 98 70 245 48 132 13 34 252 142 52 216 123 109 225 33 144 43 201 69 170 95 116 158 139 201 24 149 30 61 4 11 160 146 183 94 206 224 85 106 153 58 51 71 101 213 198 147 135 77 13 149 76 107 49 25 86 212 199 213 244 45 239 88 218 180 210 3 191 172 88 255 228 112 64 144 122 178 134 213 173 193 175 183 16 8 235 64 54 166 219 197 3 133 71 97 126 125 244 204 129 154 22 62 11 206 114 13 122 195 67 255 73 107 174 145 96 106 229 101 29 10 149 195 233 74 86 137 254 158 150 134 69 161 158 95 211 36 162 105 247 196 252 165 98 24 130 43 215 73 204 168 38 82 186 109 240 16 126 215 2 55 100 203 155 216 68 176 1 214 65 87 189 195 149 189 143 241 115 72 221 132 67 4 65 212 159 65 97 49 153 96 55 15 177 82 62 57 224 228 159 183 180 100 141 242 150 28 214 81 34 2 173 32 25 199 126 87 212 16 124 211 63 227 86 133 118 222 198 21 201 88 4 248 19 206 169 151 225 143 74 12 115 216 226 151 60 51 139 153 207 190 20 110 119 20 219 116 183 147 158 6 84 94 134 87 153 218 69 60 85 137 110 46 216 244 201 194 126 89 4 184 170 39 29 220 81 198 12 76 115 199 2 254 89 5 236 124 155
43 152 115 20 8 27 141 93 13 107 77 86 121 82 167 188 212 63 176 29 56 15 253 71 46 239 200 191 213 77 21 185 207 254 42 201 208 167 51 25 105 35 39 119 186 130 36 116 5 154 142 166 149 147 144 68 106 20 250 28 238 32 121 29 239 139 207 238 58 42 14 246 53 109 246 123 160 8 115 46 99 12 172 96 91 108 162 34 24 226 243 242 179 217 160 102 210 119 32 221 134 194 119 130 41 148 78 220 135 236 75 5 239 139 78 33 218 106 104 86 99 2 188 209 203 72 239 106 129 106 207 219 212 136 65 169 247 184 199 227 109 34 91 140 228 106 197 35 110 138 169 89 183 115 139 225 139 206 144 164 182 55 117 0 215 253 104 125 183 150 210 235 249 225 203 45 227 44 193 195 108 209 33 247 208 107 158 75 102 8 138 104 153 53 150 86 39 242 132 173 29 190 93 187 66 185 47 118 134 87 193 89 148 236 243 90 76 12 37 241 135 46 227 48 0 83 81 22 39 56 164 45 38 251 242 193 203 51 99 90 91 210 28 160 2 91 48 178 183 250 111 122 136 12 20 14 207 135 217 210 51 72 169 253 36 203 78 126 81 52 58 106 17 79 196 124 85 114 37 137 55 32 10 126 239 214 158 156 150 135 38 110 24 48 220 12 38 253 87 84
30 213 137 34 219 129 243 87 209 157 250 36 50 97 104 58 175 90 236 175 249 228 242 83 252 249 238 168 35 124 207 47 158 66 11 231 246 1 13 204 192 209 92 17 242 21 57 164 144 225 232 44 149 88 197 254 54 167 222 14 116 208 9 73 161 173 220 189 210 100 57 89 111 143 39 232 89 172 220 131 193 137 79 36 188 144 214 207 19 230 65 143 161 73 37 209 169 164 68 75 162 245 99 162 126 36 245 123 45 82 159 204 41 126 110 66 181 204 42 53 149 108 29 109 153 19 127 50 51 198 56 165 25 178 35 186 252 67 59 252 137 199 93 63 71 89 201 178 235 30 204 133 210 241 109 60 98 199 216 222 199 102 75 8 104 86 36 169 216 154 11 74 155 63 83 91 98 212 38 45 98 253 151 135 201 65 133 8 246 132 241 248 104 90 216 237 45 60 221 7 211 86 228 103 157 160 122 158 133 108 87 3 235 223 48 230 166 156 60 236 126 94 129 162 157 47 188 136 200 221 43 128 167 190 114 33 74 161 77 59 54 70 45 212 184 90 243 119 91 42 122 251 222 106 224 254 146 34 177 50 243 34 229 138 235 32 110 162 45 223 102 146 91 32 0 183 151 247 110 88 99 145 204 49 194 145 77 22 142 223 166 152 54 171 231 60 95 225 126 85
145 206 238 80 197 241 123 116 230 29 198 181 250 133 96 35 29 235 199 150 128 157 228 183 92 143 65 239 66 188 17 6 14 143 17 189 134 149 235 119 143 38 239 186 195 195 210 204 110 126 74 198 153 126 65 121 141 81 104 82 91 97 6 232 242 158 71 62 240 109 111 66 180 208 73 0 239 195 126 149 48 130 115 173 163 6 158 48 131 76 246 224 220 91 184 29 147 217 26 94 181 112 186 188 193 99 201 60 243 125 102 50 194 193 241 30 61 39 236 151 50 5 13 200 98 131 127 137 117 114 117 66 113 220 133 113 158 191 127 245 183 62 93 51 48 240 91 8 126 71 5 182 38 95 247 239 104 108 28 40 140 18 106 97 131 55 204 60 205 165 120 45 195 94 34 99 136 216 184 6 120 118 170 233 26 246 52 189 247 147 28 125 61 8 38 214 41 29 123 188 194 234 71 97 173 111 243 17 199 97 218 16 247 22 163 250 194 22 84 169 190 4 205 121 229 63 127 226 110 204 74 214 239 49 166 146 70 134 186 160 205 116 158 86 164 6 72 19 72 1 254 223 106 130 234 174 119 122 55 172 96 105 133 45 188 52 248 74 211 131 89 81 124 140 83 107 199 68 240 150 119 152 38 139 183 35 198 234 222 10 58 156 149 48 175 143 59 214 206 205
213 44 151 113 131 91 82 71 244 55 31 104 61 50 104 30 108 78 89 127 96 16 222 65 61 7 143 2 95 78 183 160 208 125 11 130 5 202 128 78 77 218 201 89 246 63 173 29 180 105 185 68 189 8 158 241 182 138 241 173 187 204 176 7 170 141 175 61 141 244 146 39 127 234 165 206 199 145 15 152 139 251 117 213 221 118 94 100 142 164 251 101 87 114 15 178 93 153 162 64 175 198 50 85 84 87 195 225 43 187 18 111 44 146 208 225 84 229 14 221 7 44 105 137 116 142 77 77 5 57 87 212 18 125 123 247 138 173 38 2 79 14 7 36 105 9 130 201 148 184 168 223 135 97 193 93 169 134 174 119 42 0 33 15 54 124 119 63 176 42 20 154 23 162 201 65 118 106 24 64 203 214 126 18 221 217 254 240 73 157 168 108 156 195 77 194 18 0 71 164 102 182 233 116 14 125 6 44 68 23 18 189 224 211 48 78 215 101 97 57 26 109 26 76 158 1 231 156 142 169 63 226 164 90 16 119 46 135 193 197 145 196 179 148 22 226 118 148 164 212 210 152 143 98 26 61 98 88 101 48 14 70 236 16 83 26 0 150 100 88 100 213 186 53 158 229 117 123 161 175 192 200 169 185 132 13 242 224 9 164 170 102 231 60 210 198 26 199 179 187
48 170 84 247 97 89 94 106 190 131 32 72 38 122 249 114 13 129 168 188 221 119 147 217 133 243 4 177 174 210 4 0 120 37 238 76 20 24 95 60 172 206 214 90 196 143 118 76 148 59 89 101 219 56 4 201 133 240 151 117 15 245 172 236 87 173 43 235 110 114 28 187 97 185 248 30 152 213 149 83 244 92 137 221 173 165 39 137 148 173 58 151 135 127 66 76 5 121 190 87 125 41 135 18 134 151 15 74 197 16 15 198 27 185 158 47 22 101 3 106 164 20 94 53 250 9 162 216 139 40 145 54 175 166 210 207 35 149 35 188 27 67 45 146 102 38 23 14 116 16 132 119 40 159 47 183 119 56 126 175 224 251 4 182 148 151 40 251 184 231 100 206 24 137 161 103 63 79 85 147 229 157 73 10 252 132 59 72 108 66 130 50 52 151 82 104 124 10 208 98 16 214 44 172 19 109 140 135 64 45 101 204 171 154 1 215 249 215 222 147 10 244 36 172 70 64 189 50 212 224 100 117 90 241 25 150 179 228 147 121 10 61 140 248 220 201 55 100 24 197 199 30 184 104 209 248 244 181 27 132 121 251 225 198 59 228 120 232 159 214 25 221 124 22 78 205 65 236 53 149 26 129 136 190 250 197 238 95 24 239 132 108 56 220 199 223 111 7 109 117
96 70 191 198 40 190 55 86 102 24 181 211 105 47 216 221 125 45 105 114 32 182 42 216 4 94 128 158 186 121 59 204 16 242 226 73 29 221 231 65 187 213 124 117 222 246 59 217 206 150 41 243 147 57 126 95 51 75 245 96 144 252 156 239 81 228 223 41 124 197 4 226 149 134 243 235 209 241 98 188 205 241 181 102 95 47 164 185 195 129 99 76 133 213 42 175 115 219 195 111 166 2 194 93 25 112 58 83 254 92 230 131 12 223 177 217 105 205 70 175 193 141 11 174 141 63 121 148 231 102 245 52 246 155 217 136 26 73 172 56 132 214 43 144 202 164 151 40 149 205 95 185 118 10 2 124 194 159 76 170 87 59 243 124 241 215 76 84 156 249 157 232 93 108 120 51 148 245 234 243 47 99 160 185 138 195 70 82 158 147 218 197 76 103 57 108 122 14 201 230 69 0 197 110 116 105 251 93 52 140 190 41 80 248 73 144 229 199 195 73 43 163 216 139 199 109 4 210 60 39 169 38 149 252 215 0 83 198 131 236 164 2 228 19 70 56 40 34 189 49 177 101 214 143 135 13 148 129 11 99 28 219 247 54 216 225 78 227 234 50 205 191 174 142 129 245 159 244 112 204 46 107 81 126 30 94 142 230 140 180 219 176 11 154 171 165 58 54 152 234
182 65 133 130 223 161 30 35 75 10 255 124 187 205 147 57 253 151 127 104 68 13 23 40 30 145 229 46 177 95 51 21 110 42 22 126 188 236 207 156 160 223 92 227 20 170 233 237 64 50 125 47 45 15 111 101 87 247 135 33 37 242 35 170 220 160 59 129 37 6 225 166 106 72 17 11 139 210 115 23 30 83 119 46 160 112 21 155 59 156 195 66 118 46 208 169 102 102 193 42 248 240 76 226 133 208 214 233 238 50 62 41 243 211 235 173 193 59 82 73 212 180 116 91 35 150 160 90 42 193 155 148 249 89 243 73 93 97 7 22 118 115 51 132 26 226 182 174 139 236 252 58 201 152 174 233 185 60 9 140 5 92 248 73 123 114 212 63 189 119 150 26 90 62 231 50 104 116 140 218 191 181 149 27 97 61 83 100 122 52 1 156 168 5 166 15 1 46 126 110 180 38 169 96 62 182 79 196 75 115 108 93 38 180 175 175 93 103 135 117 13 67 54 134 16 139 87 135 148 39 64 207 139 230 33 41 141 192 130 197 233 27 100 211 175 13 187 142 243 63 207 50 228 32 36 231 193 141 139 143 65 100 161 206 179 147 91 4 104 251 33 66 100 177 143 169 122 191 89 41 129 228 89 45 11 43 67 173 184 109 167 235 33 12 63 200 203 242 55 56
147 219 68 203 151 253 7 131 129 119 200 90 210 61 194 223 112 188 31 239 0 27 173 242 150 234 251 27 170 85 205 190 108 121 137 146 237 7 227 181 0 143 138 45 224 92 203 201 217 231 248 105 94 218 27 209 163 201 233 72 179 123 135 129 120 104 244 120 48 187 40 103 140 111 53 4 128 121 252 102 31 147 219 110 93 197 105 1 194 241 181 164 89 38 75 133 188 50 213 95 101 131 8 140 11 62 153 218 116 123 83 47 163 211 121 44 223 78 121 63 19 30 254 71 154 231 39 217 157 124 249 129 86 28 173 44 116 84 124 66 109 201 252 103 111 32 152 123 206 209 156 129 49 134 44 158 25 88 143 80 108 86 234 195 245 51 140 216 139 224 194 112 93 8 54 123 220 172 160 37 152 51 99 115 18 250 200 199 11 25 103 10 197 235 232 222 23 49 44 28 157 4 95 141 46 174 228 185 13 28 134 93 122 8 10 221 170 230 168 159 48 131 125 230 235 94 162 88 47 37 100 154 157 233 130 250 17 249 249 201 46 63 246 95 101 48 36 34 119 64 251 5 144 209 76 78 116 210 18 245 82 231 194 252 70 1 25 209 137 200 26 140 190 57 32 36 247 26 91 121 116 255 156 149 213 133 240 252 47 0 59 229 105 52 179 159 33 202 200 82
110 184 48 157 246 130 17 52 151 218 1 171 41 158 37 160 51 78 232 224 141 106 82 24 188 204 197 35 148 27 67 30 252 221 46 236 17 233 162 57 31 71 137 68 235 4 175 121 180 85 201 67 70 121 47 143 32 221 62 115 122 107 232 27 246 34 202 161 21 137 30 172 139 43 214 21 0 227 112 179 65 215 193 65 253 212 178 231 80 191 69 120 206 3 195 225 169 165 43 197 109 154 6 153 85 73 146 120 219 249 158 166 209 195 236 23 217 7 69 177 156 164 18 0 25 255 115 48 220 146 75 229 2 18 179 56 86 181 114 57 40 171 154 245 137 162 80 130 159 43 255 120 154 149 203 184 45 235 9 213 244 218 112 14 27 221 97 231 236 144 93 206 222 18 0 137 62 124 76 168 12 78 157 245 214 85 177 29 15 170 139 58 184 48 57 85 183 179 62 137 117 221 34 141 115 16 83 100 22 52 243 223 194 29 231 35 110 248 65 77 185 0 190 25 202 34 221 122 210 246 132 107 58 118 121 1 218 127 92 223 214 106 28 200 210 106 240 83 31 103 252 100 220 9 15 41 157 153 181 174 54 43 70 182 119 149 18 225 206 64 248 15 78 236 44 13 61 63 177 20 179 50 201 121 25 165 81 8 64 170 253 178 72 52 41 214 168 220 71 3
187 184 143 224 199 239 173 252 203 248 40 95 44 126 91 106 4 26 3 163 46 14 230 9 34 251 37 193 108 104 239 25 45 186 62 214 177 185 27 95 184 216 54 20 86 181 192 239 238 58 203 182 41 227 42 194 157 32 243 105 145 190 20 190 57 188 173 34 236 16 101 43 41 215 84 8 180 2 0 53 218 204 121 30 36 49 114 84 207 150 44 231 60 141 234 226 220 76 253 208 83 52 99 153 156 104 217 118 139 192 106 209 33 213 221 181 12 45 34 142 72 136 50 210 23 10 152 6 100 100 155 34 203 234 210 31 215 57 250 144 22 177 118 22 31 164 79 2 210 152 238 238 86 64 241 33 152 254 125 60 120 102 167 99 37 250 62 90 25 199 111 24 171 160 226 170 14 229 177 236 142 89 66 235 88 167 44 185 152 158 96 218 132 42 244 101 77 155 31 188 16 174 242 155 166 13 156 233 201 42 239 190 89 75 176 6 51 182 227 8 245 209 130 66 41 50 7 81 174 251 62 197 177 158 132 16 10 126 142 134 220 154 50 58 60 204 159 247 87 125 104 205 188 203 166 204 211 182 66 164 199 6 224 167 69 255 31 108 111 254 219 39 18 165 78 232 239 171 90 132 48 1 5 99 112 65 184 13 176 70 120 192 217 100 58 20 88 214 32 191
20 195 199 251 152 62 179 166 64 116 193 121 77 235 16 156 196 159 180 187 131 65 229 232 69 167 133 38 109 8 195 100 238 247 137 215 24 29 191 204 15 20 133 96 115 22 35 184 2 72 201 149 222 83 80 176 184 75 240 122 149 35 43 8 137 106 79 97 33 23 71 25 123 86 83 27 140 68 236 218 205 216 142 202 249 75 1 46 222 89 122 80 196 241 6 180 7 127 197 129 166 182 207 194 37 40 226 212 71 155 203 64 233 142 139 210 90 58 211 42 87 129 34 174 183 137 112 16 167 167 189 87 28 114 143 181 84 85 90 67 227 94 18 2 14 188 166 174 57 104 243 33 245 116 237 136 138 79 73 22 207 34 211 99 203 244 127 131 46 184 207 128 39 221 133 242 110 252 235 87 185 194 189 186 99 185 188 157 127 195 217 82 212 151 57 223 238 22 154 212 64 37 0 15 30 239 196 227 26 90 1 94 2 241 191 212 194 115 151 218 10 129 140 220 51 110 232 65 181 181 230 189 126 97 177 96 23 76 19 8 81 121 69 237 9 24 158 123 156 168 111 66 99 122 61 16 141 129 54 106 74 118 231 184 140 241 191 119 146 49 153 12 74 148 53 56 28 122 190 220 102 149 181 117 135 20 107 62 33 8 197 92 197 102 72 3 250 133 242 142
234 114 204 177 74 221 14 92 242 112 217 7 180 161 79 215 49 94 151 140 106 43 9 15 34 178 221 144 202 132 86 25 221 109 58 143 96 132 225 144 11 142 121 134 208 25 51 3 88 84 137 177 73 219 131 233 242 151 57 51 0 153 207 220 196 251 228 130 42 190 114 37 149 46 228 230 197 237 10 224 26 56 91 58 239 3 38 63 229 142 201 108 112 42 227 161 181 182 147 184 206 7 162 192 83 32 96 140 134 246 68 99 199 216 26 189 89 72 136 75 28 246 61 75 149 3 197 56 137 54 79 92 243 87 139 183 22 139 159 190 139 240 180 96 172 183 1 254 110 122 236 88 163 73 124 127 117 160 51 231 200 40 200 25 92 135 147 184 20 80 196 123 252 98 152 86 131 255 85 134 172 192 102 221 37 246 207 50 51 2 45 173 129 146 180 126 207 73 190 15 189 164 22 75 231 245 206 199 68 200 42 28 72 150 35 73 24 220 19 109 174 171 251 187 163 78 0 3 237 227 225 125 193 232 248 135 95 189 219 136 186 255 99 41 148 92 202 73 214 185 218 216 61 142 228 57 41 25 243 208 51 151 71 159 88 52 148 101 22 247 86 16 120 94 61 176 187 99 16 237 116 123 122 134 194 130 76 228 32 89 7 252 42 132 71 154 76 51 26 22
139 177 162 191 200 217 234 118 79 134 152 248 217 42 50 236 176 203 138 224 189 159 32 78 122 87 209 185 93 24 206 107 232 49 180 104 99 214 214 248 222 173 238 80 192 97 45 114 209 241 135 22 146 183 167 186 124 134 93 19 153 191 245 61 65 250 124 203 60 32 161 240 15 142 128 86 213 72 84 153 212 127 8 9 46 174 56 87 206 162 167 201 78 196 85 129 32 16 12 146 178 139 26 42 213 168 173 71 12 79 131 193 35 213 68 110 194 136 168 12 138 25 12 164 86 76 109 226 187 195 38 158 115 58 12 142 252 87 201 184 217 241 62 203 28 227 35 147 19 203 159 249 84 251 15 51 123 173 186 201 33 18 179 77 201 185 177 77 250 25 212 119 34 140 150 45 52 85 59 228 186 4 228 193 193 44 4 160 237 47 104 225 215 77 119 14 13 59 220 135 85 70 149 206 174 219 116 248 252 33 33 73 104 134 223 127 5 83 65 77 184 232 130 72 3 84 158 5 189 152 52 102 255 210 86 110 72 249 230 112 119 246 102 0 67 68 30 244 17 232 5 251 21 201 23 43 252 235 144 223 204 246 137 12 163 139 183 48 181 199 219 160 160 88 181 85 188 51 109 243 54 250 212 248 99 10 204 241 51 170 1 134 174 237 141 24 202 62 114 90
110 55 16 187 116 40 19 235 16 110 154 210 179 99 229 97 189 254 85 191 23 211 212 85 109 207 20 121 164 7 209 11 85 95 198 27 254 177 151 97 110 9 121 166 131 187 162 195 46 151 184 72 171 87 69 131 29 100 181 175 229 36 71 118 5 212 112 147 245 19 247 208 163 120 20 63 56 175 26 125 210 31 3 207 211 15 179 113 88 225 65 179 15 115 51 69 134 126 26 253 223 199 70 19 87 188 201 187 170 159 90 154 166 131 19 191 58 83 78 226 180 87 114 145 61 32 175 179 229 24 124 192 174 104 7 130 43 140 220 92 136 101 132 252 68 69 208 192 215 246 146 119 200 39 141 74 30 5 162 6 104 36 30 31 249 109 165 171 106 192 49 14 113 223 175 155 169 86 66 2 123 84 138 25 40 203 222 144 213 13 157 56 61 149 57 222 42 203 114 113 229 67 91 137 15 192 83 85 80 112 92 80 96 72 206 179 53 27 222 212 219 145 7 138 191 116 209 237 71 91 32 109 73 39 178 21 25 164 150 199 189 188 17 88 178 171 73 138 222 239 97 110 114 118 25 222 116 44 28 205 230 57 170 74 146 132 125 20 2 184 252 76 170 66 132 58 82 167 62 107 192 140 40 242 239 211 161 1 9 136 16 91 17 178 252 218 34 237 52 183
147 215 100 16 26 239 91 144 144 75 239 183 46 161 142 246 28 40 137 211 26 221 42 192 29 251 244 179 97 177 0 122 64 22 132 165 0 67 23 68 74 57 56 219 164 71 139 68 15 91 50 144 195 191 56 107 12 105 105 216 66 53 169 179 165 133 135 42 234 1 229 134 68 170 180 190 11 77 208 69 159 132 238 16 121 177 130 101 60 195 215 137 57 130 142 129 27 213 181 44 250 237 196 95 145 217 155 179 57 158 239 252 17 50 80 252 94 38 57 227 204 140 52 172 70 194 131 112 97 143 187 142 81 242 78 86 159 228 53 53 173 92 13 17 25 125 155 239 23 13 154 135 75 75 184 178 84 157 170 195 123 169 154 27 44 85 246 30 180 201 70 139 10 214 50 60 123 8 122 103 175 27 111 224 148 48 216 3 207 168 23 102 237 82 221 214 228 24 119 34 185 244 54 196 102 66 185 225 59 132 214 159 171 126 19 12 151 228 89 116 125 79 129 67 163 128 229 158 99 81 121 35 72 235 204 127 24 218 231 51 223 214 5 41 28 73 9 133 130 37 48 15 103 95 93 249 186 142 87 104 208 165 63 22 70 69 22 35 12 63 147 112 166 70 198 235 90 199 98 153 183 14 28 223 115 102 203 101 106 231 92 106 38 29 153 65 146 91 59 51
78 183 181 21 22 63 37 217 213 204 107 63 49 225 163 89 81 45 99 151 243 55 134 200 41 89 72 72 219 111 192 118 162 231 37 121 74 138 224 238 236 157 57 6 99 147 78 131 165 29 71 77 200 193 64 216 32 209 21 60 156 131 246 229 64 206 183 20 17 37 216 174 131 97 119 89 75 14 132 114 77 87 215 141 3 189 53 157 93 10 88 100 229 241 12 156 225 244 166 184 137 94 5 4 248 167 9 227 189 11 129 147 171 160 159 44 206 11 78 253 132 143 182 122 10 65 60 67 135 140 51 252 75 172 148 80 126 119 48 194 107 147 96 155 188 16 116 248 98 120 68 60 31 165 172 45 63 90 165 14 22 210 80 80 124 82 159 200 74 26 5 17 35 226 144 119 209 155 171 116 201 174 167 237 169 167 201 8 85 43 193 139 172 156 229 17 238 72 177 18 133 83 126 180 5 80 13 64 122 146 77 142 113 145 4 72 67 168 101 97 177 219 237 205 12 238 161 194 53 106 18 136 68 223 194 195 23 38 34 123 180 143 6 173 49 122 71 83 146 239 180 78 97 12 15 212 66 35 150 168 61 13 86 196 120 124 138 205 14 97 119 183 80 129 68 140 127 135 147 171 224 214 118 195 242 96 54 8 1 8 34 164 148 154 202 229 228 16 215 77
123 246 184 76 252 36 246 90 48 223 236 173 209 151 99 71 95 85 202 148 230 165 103 221 61 77 62 253 172 11 137 104 234 191 148 126 230 241 12 247 109 106 152 68 161 104 26 224 99 90 166 224 122 94 111 38 205 201 53 0 254 23 169 184 172 222 255 116 148 231 115 87 3 97 67 246 112 19 154 66 138 99 81 97 246 193 144 254 105 252 14 229 46 45 7 221 231 186 193 105 230 162 214 225 108 71 137 65 130 145 139 6 245 6 214 95 39 198 219 124 68 180 232 34 86 17 233 172 88 157 204 28 217 112 54 239 126 73 107 73 17 62 34 19 34 40 30 108 224 161 84 17 134 182 230 102 201 94 102 63 38 138 115 73 5 125 233 131 65 211 157 101 153 35 116 68 136 183 246 54 57 87 218 80 198 173 34 210 95 98 1 237 154 56 15 2 113 150 9 176 217 209 142 64 23 44 161 76 229 250 61 247 188 193 66 42 110 206 184 161 254 145 29 3 122 191 69 121 117 49 229 213 255 4 102 153 126 241 93 103 61 223 247 3 227 78 28 172 208 55 95 57 73 103 27 238 190 41 104 32 27 131 180 174 0 8 133 86 100 249 168 37 117 146 45 192 238 42 221 183 82 201 202 19 89 145 18 204 196 194 126 80 82 137 126 0 61 249 244 252
252 159 144 111 142 123 54 39 227 76 182 5 173 124 29 175 255 133 108 23 114 136 254 117 38 177 106 146 39 148 111 194 46 160 218 61 29 162 116 193 169 132 219 0 232 110 178 65 174 5 161 30 220 33 27 152 247 71 182 81 165 140 167 73 29 104 32 240 13 63 208 157 0 45 125 63 230 4 158 113 217 37 192 246 22 54 36 197 189 110 53 242 77 170 146 6 5 222 190 176 89 152 76 48 23 80 143 187 199 118 184 178 146 84 157 92 188 9 2 104 239 224 117 80 116 181 181 116 22 89 48 167 97 115 196 32 55 56 254 4 88 7 64 62 67 47 163 106 184 100 225 243 157 204 68 28 73 156 104 205 194 134 228 21 138 39 23 100 8 77 144 15 250 111 70 84 205 54 41 217 89 183 156 179 186 111 49 255 197 77 216 203 73 152 151 220 134 13 168 235 177 132 129 81 134 77 178 14 112 224 181 90 86 4 4 85 85 88 198 164 31 140 203 110 111 252 187 172 218 190 201 122 171 184 23 244 234 245 88 93 217 212 42 10 28 84 13 165 151 194 33 163 14 49 33 118 218 116 235 180 4 60 55 208 244 106 16 95 124 68 66 254 109 68 212 87 128 29 149 27 1 167 34 161 236 65 246 135 156 166 241 129 116 216 80 83 248 3 238 15
27 25 161 222 37 156 98 101 65 200 96 228 192 185 171 172 18 45 42 79 57 199 249 61 174 231 9 127 50 247 108 101 216 62 132 100 44 15 200 19 144 248 176 223 46 28 254 171 73 191 72 9 234 136 195 25 167 45 45 219 191 152 47 234 71 128 229 62 136 17 127 31 0 229 68 47 6 176 3 133 240 237 68 182 18 127 45 6 207 181 60 155 101 170 211 61 22 209 169 53 8 78 228 74 71 57 77 249 213 254 134 60 217 6 155 76 206 52 2 61 49 229 236 119 139 27 144 18 130 186 251 208 90 196 30 155 38 143 7 32 16 132 0 220 190 142 120 112 49 200 26 137 9 222 74 97 12 158 253 12 43 205 240 154 17 202 38 115 213 68 47 176 250 178 110 61 118 57 3 0 119 149 163 120 155 73 110 96 186 14 123 110 125 192 130 193 67 112 54 222 12 185 172 190 235 70 106 73 171 205 114 106 119 163 62 46 171 253 90 90 189 161 241 146 237 201 78 136 203 174 188 21 219 48 231 102 124 82 92 177 25 55 229 152 163 115 240 249 102 143 255 136 222 39 115 91 168 20 23 65 98 85 89 41 61 97 170 141 191 42 55 121 25 205 206 110 175 75 161 229 148 195 157 39 58 79 29 151 129 198 205 111 191 119 133 13 5 53 112 218
59 247 84 154 119 169 186 105 55 122 91 22 189 83 27 51 144 184 25 55 143 20 148 130 203 6 50 124 28 84 57 142 209 31 224 172 227 83 83 5 93 22 22 52 123 98 238 87 101 228 132 76 134 187 75 98 172 166 153 18 250 255 100 26 124 149 40 250 158 21 55 187 206 58 152 186 145 215 230 114 213 240 85 169 59 132 160 181 66 242 191 160 31 53 240 144 10 188 54 116 170 51 220 21 185 99 25 240 219 57 66 131 145 46 51 67 113 142 210 16 84 105 213 172 137 149 213 165 102 158 227 241 208 87 31 43 196 63 205 145 203 145 123 181 23 249 27 106 144 209 130 213 219 239 150 143 13 96 136 147 37 33 239 15 137 109 86 11 168 154 48 8 201 181 96 196 84 12 252 235 153 153 111 173 165 152 183 177 29 40 142 206 192 73 0 128 156 23 78 113 59 35 15 199 127 146 243 141 124 148 242 39 224 188 70 21 63 116 169 242 213 149 100 200 105 16 81 197 44 64 187 154 16 97 64 124 130 31 56 10 192 141 212 96 192 183 90 33 248 154 103 44 79 82 51 213 198 63 43 172 189 216 2 216 208 132 104 200 119 70 91 231 92 83 167 83 36 7 83 211 101 126 19 201 141 40 53 136 92 123 213 203 162 44 152 80 136 195 112 238
140 250 31 120 97 125 104 114 30 128 73 143 140 165 65 173 35 219 227 2 242 244 142 103 243 88 132 238 228 57 87 214 118 24 219 78 128 99 75 59 157 246 149 155 8 124 240 48 77 200 143 160 179 9 173 75 202 80 29 174 178 112 57 174 22 142 7 95 177 53 241 151 100 101 37 94 208 181 79 109 150 178 226 137 17 149 85 187 206 65 218 138 236 84 121 165 255 108 24 225 195 87 104 72 11 6 13 162 177 246 43 231 138 124 114 166 53 171 127 104 207 133 99 255 21 36 97 134 74 24 237 191 74 78 108 145 245 183 249 203 85 155 171 145 53 246 139 202 56 85 88 87 195 114 117 197 175 83 253 229 58 166 134 208 234 173 153 32 80 123 131 26 200 134 202 160 83 227 129 221 198 42 253 236 91 123 249 6 82 75 5 249 158 107 177 185 112 235 189 159 198 228 174 237 201 129 254 224 138 159 12 25 79 127 206 17 228 203 76 162 198 144 18 138 45 57 7 25 148 171 237 171 77 10 252 61 134 0 199 16 227 210 209 50 218 62 200 195 91 240 91 76 38 154 169 125 49 65 189 17 70 42 30 93 114 209 75 44 220 201 231 73 103 68 253 242 168 14 105 134 74 128 224 244 31 56 210 179 178 113 24 245 40 33 134 175 155 151 160 211
27 244 79 113 86 239 250 79 213 99 137 226 136 135 159 53 213 221 57 15 209 81 68 134 44 182 115 87 83 181 146 165 81 162 141 95 215 102 44 70 100 207 181 230 59 158 158 161 191 112 47 17 72 252 45 183 182 206 215 108 13 108 137 176 121 169 90 129 28 200 66 99 215 168 26 164 177 127 152 22 34 175 16 125 118 106 189 96 14 132 53 226 50 108 147 86 250 195 206 249 126 65 85 187 214 45 121 152 75 183 5 55 224 110 245 113 249 123 12 230 181 5 79 231 58 252 27 237 249 252 24 203 191 107 180 226 9 163 50 95 197 70 169 222 190 95 254 45 2 70 198 62 88 71 159 154 174 151 142 68 223 44 117 180 56 21 129 137 75 52 90 106 122 33 166 127 156 5 14 129 42 40 187 95 186 26 90 84 103 244 63 151 164 240 123 249 253 25 244 251 195 136 195 30 220 62 55 47 229 7 32 157 82 209 34 204 160 131 42 69 163 6 145 194 56 117 223 191 31 248 163 93 164 102 74 102 215 176 219 214 220 238 10 139 158 235 182 19 68 31 11 11 121 75 145 102 62 177 155 149 24 102 71 174 112 248 247 171 228 64 62 218 32 204 43 12 203 149 141 4 159 213 241 49 226 115 245 6 194 239 18 117 233 139 200 21 140 214 210 231
25 173 146 176 73 142 96 91 99 199 219 51 120 134 240 130 124 123 232 243 92 22 25 74 59 114 110 251 185 44 148 238 252 138 69 220 110 46 206 252 37 137 44 73 90 114 108 138 246 208 18 110 243 205 240 158 192 36 173 169 237 34 52 119 206 215 189 95 206 69 100 144 46 103 74 39 14 63 117 136 111 10 173 178 107 112 131 15 161 102 107 255 221 54 173 247 154 18 83 172 149 126 48 34 252 212 209 147 143 12 197 126 69 23 94 71 237 148 253 151 82 162 14 59 121 67 149 202 197 71 47 62 148 12 76 48 101 215 106 104 153 74 114 87 128 244 252 4 180 107 4 245 212 187 155 215 40 30 139 37 171 179 172 101 240 7 245 228 198 150 234 25 68 225 130 40 148 101 218 101 0 249 54 228 167 5 130 200 248 59 252 88 148 54 242 254 201 172 232 205 194 143 127 180 239 142 193 211 239 17 129 196 63 19 147 174 92 168 159 174 226 74 216 53 114 208 220 36 98 184 237 35 20 158 140 126 181 168 127 103 211 64 65 126 106 166 181 172 54 173 216 99 23 62 112 172 119 68 44 23 88 74 242 180 18 168 100 100 135 7 70 36 197 149 227 175 178 242 34 19 197 152 115 37 2 248 15 111 6 142 157 81 173 145 29 133 203 18 124 128
151 5 88 248 112 154 139 244 202 236 15 87 157 143 116 122 207 235 226 116 103 20 89 249 255 210 124 211 7 3 29 119 236 120 212 28 128 52 39 62 224 36 221 20 51 57 20 24 49 181 201 55 113 248 56 55 54 242 46 174 61 126 176 187 76 73 50 94 219 185 60 76 144 76 117 140 36 66 206 30 89 50 197 171 122 227 4 73 233 243 37 79 222 236 238 205 210 17 166 253 112 79 58 153 12 94 101 136 182 43 173 111 87 120 180 97 17 177 225 37 225 201 223 17 243 254 101 224 179 206 73 133 134 233 6 58 209 18 99 61 49 251 22 56 220 181 99 222 217 50 83 76 215 129 150 87 239 152 41 1 209 166 112 122 18 152 7 150 99 62 60 123 223 218 147 71 69 208 220 152 129 173 56 193 204 235 202 234 67 191 56 169 146 198 192 248 144 86 72 222 223 83 254 203 33 89 128 102 132 234 169 128 201 174 255 225 242 99 215 62 25 89 51 184 68 18 11 137 218 10 39 197 210 137 20 110 155 102 172 4 95 193 28 199 223 197 97 201 201 213 253 34 220 227 139 72 102 46 181 254 55 35 144 236 59 236 179 112 16 21 76 5 173 214 21 238 49 90 214 180 55 212 255 12 61 210 0 23 2 82 168 33 202 52 136 95 229 146 2 156
147 169 89 252 70 67 9 16 231 124 214 204 109 27 65 148 75 242 57 156 104 13 165 236 138 159 227 0 214 31 31 216 66 68 137 20 161 124 72 162 210 192 48 204 87 212 89 16 199 166 56 53 50 150 219 98 17 224 106 78 193 253 34 123 242 198 15 157 216 102 184 20 238 129 18 109 44 219 183 31 167 63 38 143 121 74 199 16 247 249 193 54 215 64 165 17 156 157 189 159 232 102 168 199 71 37 23 234 239 41 28 152 15 46 27 233 223 218 202 200 127 222 139 204 113 208 118 104 162 27 26 69 55 94 168 187 160 100 183 191 143 247 148 253 11 135 36 41 159 231 190 90 224 139 130 65 159 129 107 180 35 141 191 23 249 203 103 6 80 222 45 157 146 215 1 1 99 119 15 222 219 113 226 203 144 54 83 255 148 248 59 60 146 214 63 243 109 254 137 23 93 254 215 118 214 197 154 128 251 131 124 28 83 15 96 104 37 254 156 196 81 232 125 55 17 47 213 48 25 43 50 25 183 225 243 31 163 40 68 112 182 127 231 233 185 182 138 0 77 151 229 135 172 185 247 21 195 130 110 208 185 78 177 2 232 48 173 240 246 234 207 188 180 125 136 239 19 134 148 149 100 31 140 232 179 160 10 183 215 216 129 234 134 124 15 60 38 200 52 138
201 116 209 172 162 95 55 34 25 113 201 202 106 255 197 179 72 226 0 117 14 72 36 14 144 103 216 196 92 251 246 87 242 179 125 1 51 154 140 41 156 136 117 164 236 95 20 226 36 82 105 11 238 238 63 152 243 57 148 87 59 64 226 211 210 197 111 80 179 235 209 248 68 204 43 59 210 78 93 21 166 242 103 62 94 144 40 157 142 151 90 93 23 153 207 24 78 119 155 228 233 210 246 56 154 231 196 195 236 227 38 109 117 153 131 178 68 34 255 80 85 160 152 193 78 117 64 23 93 244 56 164 22 110 173 164 182 133 247 80 8 16 30 120 180 41 178 181 43 149 100 198 95 230 107 37 51 141 108 53 221 147 87 237 227 95 4 227 98 72 209 126 63 63 127 65 218 7 190 73 230 51 74 164 19 41 159 154 97 41 136 130 173 130 241 238 208 30 144 65 109 142 114 155 216 192 2 182 84 24 67 229 99 12 231 226 155 117 236 38 115 200 100 185 18 190 7 215 149 172 221 55 232 44 103 213 12 61 195 63 12 141 77 201 119 96 67 236 208 75 191 104 24 35 229 177 131 174 66 58 41 220 84 209 114 187 149 108 13 129 63 142 238 164 176 93 83 177 4 119 32 209 119 63 117 68 185 151 245 96 238 13 128 202 75 165 1 114 76 251
5 240 25 7 104 32 69 93 183 33 219 51 187 205 59 227 138 176 27 182 208 165 78 36 117 45 232 88 141 47 204 157 183 24 243 224 162 41 100 46 173 139 50 18 50 177 121 81 196 127 38 60 25 130 186 235 186 2 250 166 160 24 121 248 147 36 182 210 186 224 80 209 237 106 133 57 235 182 51 27 100 197 64 53 76 230 78 249 125 36 57 30 192 31 221 111 240 209 251 179 224 102 250 236 4 196 139 187 157 87 63 93 206 93 222 17 126 232 92 167 72 68 28 38 160 66 255 122 122 160 222 109 8 30 99 50 65 85 109 207 138 7 90 48 120 61 76 158 69 45 49 99 253 132 211 214 115 200 107 170 107 206 220 140 10 152 92 150 29 45 63 142 255 125 69 77 33 223 74 223 73 215 8 173 198 66 144 217 252 221 50 188 88 146 145 150 161 54 82 54 170 95 31 233 141 166 95 140 208 218 167 24 25 74 222 188 109 218 148 220 85 254 189 252 45 84 74 166 186 87 6 134 147 241 222 34 241 183 255 226 93 250 186 44 183 169 62 221 233 138 36 136 102 241 231 91 33 118 45 36 31 120 6 193 0 180 174 231 249 249 218 21 119 178 196 68 80 192 202 175 189 126 55 180 156 128 209 128 132 159 100 237 173 24 160 79 126 187 236 213
169 28 212 231 244 206 161 209 137 229 204 19 185 254 56 18 190 72 132 126 70 252 127 167 124 15 133 171 123 141 172 98 150 189 189 175 99 46 116 186 86 106 12 92 89 185 152 241 118 60 163 106 217 48 244 177 174 218 32 178 60 157 199 10 112 220 235 35 108 240 66 119 224 82 138 186 61 91 33 229 90 255 175 141 49 131 194 116 234 189 96 106 53 165 157 145 105 29 150 251 152 205 51 24 96 237 41 55 88 229 179 119 63 155 128 245 179 45 170 158 194 13 176 247 26 88 114 109 59 58 238 32 149 154 193 179 20 38 59 90 50 26 122 67 91 98 108 38 34 229 79 31 152 129 79 62 218 169 31 243 219 72 133 172 172 94 197 35 38 148 31 27 161 50 94 5 127 2 130 247 120 245 217 171 217 216 24 211 58 224 37 96 60 120 248 138 40 152 163 208 113 170 124 70 125 182 0 142 104 220 32 9 49 166 10 83 38 115 54 7 163 104 255 109 206 43 65 254 246 114 107 181 185 174 23 143 31 51 193 153 118 26 250 61 250 64 156 225 115 109 103 197 20 116 70 229 219 137 71 109 237 146 233 163 76 199 108 134 120 143 137 25 96 102 41 148 131 193 127 191 245 182 179 197 168 118 145 49 205 29 95 175 25 130 32 237 34 190 22 125
13 245 17 135 12 154 58 166 112 69 38 249 98 136 127 156 69 88 35 122 54 236 83 7 36 228 187 14 233 110 37 147 107 18 114 154 235 6 147 91 33 37 151 57 82 13 152 0 96 135 92 106 189 226 117 228 230 60 209 32 105 172 49 65 28 160 103 132 78 201 30 6 159 223 17 49 133 104 171 222 237 56 18 50 189 247 128 99 84 170 241 157 47 116 28 197 128 248 46 112 39 99 121 13 19 48 178 46 230 140 192 160 69 181 172 149 14 36 138 138 36 239 172 195 186 31 104 110 148 202 39 144 44 114 217 179 104 0 208 93 128 143 97 110 236 254 193 187 94 150 248 158 191 12 84 218 54 232 126 203 102 114 71 87 50 106 234 219 2 105 79 36 108 227 172 123 161 19 177 148 105 187 123 187 222 36 5 14 12 54 193 1 235 57 45 211 189 82 65 128 199 176 54 167 213 226 102 15 238 6 156 84 32 18 104 182 72 23 25 207 124 125 74 49 1 38 35 73 149 105 116 172 2 141 78 248 43 113 168 51 90 226 157 174 221 141 193 158 48 158 139 219 109 230 57 205 218 213 44 182 88 16 131 2 114 53 4 107 117 180 95 85 22 151 147 243 23 254 54 54 145 206 23 122 214 239 103 253 107 142 75 73 241 54 192 223 241 99 128 213
122 227 16 230 189 50 141 37 220 93 223 167 183 151 32 66 218 173 79 22 236 78 99 84 100 102 157 248 148 82 138 223 99 32 229 153 27 53 232 229 40 60 245 51 91 98 217 184 86 67 63 227 64 78 107 125 107 57 176 122 15 11 11 43 243 116 115 201 214 38 108 101 74 202 250 185 68 79 151 71 77 32 106 159 174 117 91 92 30 247 84 221 172 140 126 42 22 251 206 43 124 129 56 131 103 147 20 155 152 249 126 64 203 205 102 154 147 48 204 234 245 103 133 153 18 160 246 232 63 122 140 31 5 208 62 213 140 199 177 10 180 7 27 246 100 10 222 20 111 40 193 246 15 130 169 19 250 11 15 194 94 243 103 52 202 175 200 53 174 248 113 141 248 45 77 193 234 197 45 230 16 150 17 229 41 103 255 243 14 216 21 199 147 253 219 244 47 183 135 230 165 81 149 98 112 137 94 204 225 19 205 50 179 199 211 4 8 60 37 192 51 206 221 159 13 195 127 215 163 35 244 184 177 37 234 1 234 246 51 59 153 201 123 7 103 12 237 53 156 152 127 32 224 169 205 181 148 38 135 162 199 232 11 91 202 9 244 129 11 86 19 194 37 53 26 46 143 165 156 30 241 23 92 144 255 75 61 125 223 71 19 71 219 13 62 101 112 245 198 11
220 199 22 2 168 130 14 126 155 60 171 223 25 144 70 127 34 71 193 229 115 244 226 212 193 118 118 116 21 205 59 140 47 81 3 134 196 89 172 168 106 210 158 120 41 100 164 3 114 31 157 154 46 197 227 191 139 248 63 216 119 209 86 127 209 102 86 38 217 130 253 2 241 245 17 89 42 133 243 127 26 34 51 244 118 209 95 229 164 216 175 158 21 172 52 136 124 106 119 225 75 72 176 61 241 34 110 226 173 1 252 221 171 189 27 32 111 164 204 201 189 219 12 209 145 222 201 220 252 17 254 26 195 129 135 21 134 43 205 60 16 26 131 57 185 243 33 243 214 193 204 235 161 202 36 102 208 222 236 43 117 197 219 251 100 11 212 70 109 240 221 64 9 124 31 172 20 195 255 91 44 91 31 114 3 50 117 158 239 216 12 52 144 5 121 118 198 240 244 94 19 143 106 53 164 153 8 108 130 162 204 169 116 49 114 31 243 51 67 115 76 169 166 195 156 35 103 118 174 31 141 42 239 190 72 220 121 204 249 158 199 182 251 195 130 85 181 39 194 237 95 213 253 12 9 163 107 214 10 92 109 151 154 162 187 5 156 208 187 173 98 33 3 118 49 12 49 15 78 22 162 100 22 111 178 111 68 85 128 130 72 217 88 67 182 55 41 118 30 93
106 49 222 114 23 92 157 10 233 177 183 49 146 182 78 15 252 2 115 43 161 108 222 27 32 27 218 61 234 162 232 179 38 68 88 229 99 45 128 137 61 96 66 116 166 85 163 193 84 181 114 79 88 24 137 115 57 255 189 240 62 244 190 113 184 8 121 162 154 135 235 79 114 88 244 152 66 243 240 60 136 55 16 163 96 179 159 29 86 190 219 81 171 235 243 7 169 25 211 159 23 224 156 167 220 224 201 243 65 242 223 157 188 64 118 202 80 96 24 26 33 30 209 41 69 179 89 184 152 146 229 62 254 125 134 172 143 208 33 103 165 39 219 93 104 88 46 59 109 171 11 180 196 128 247 143 89 52 118 206 138 45 188 70 166 159 192 151 237 230 98 95 40 162 132 229 175 33 86 210 65 83 201 235 231 152 237 146 220 128 4 119 53 213 16 112 12 105 178 83 149 179 59 93 176 165 77 226 11 125 99 179 221 111 87 80 226 53 35 114 167 160 254 190 62 226 192 118 67 30 20 213 147 186 91 199 34 82 51 181 56 103 179 162 128 74 218 45 117 137 248 215 42 163 175 60 197 175 186 49 93 86 233 79 158 232 20 241 82 136 250 140 1 212 11 134 150 192 120 119 124 182 19 110 83 234 231 52 165 130 18 56 68 232 228 223 74 102 31 242
177 92 235 140 135 131 26 190 162 206 63 35 85 7 231 105 110 46 26 130 108 56 103 171 105 242 195 168 33 172 25 195 93 153 30 183 7 179 111 175 85 252 188 185 75 242 80 2 58 65 16 187 163 49 188 58 190 106 226 227 177 5 82 145 228 61 41 11 236 62 92 127 83 234 83 157 145 166 214 24 6 12 239 24 124 212 44 49 76 10 115 183 155 7 253 140 63 205 83 218 104 130 133 38 186 221 116 135 197 2 165 36 115 120 235 251 242 6 196 228 227 145 140 37 40 7 146 69 5 172 165 106 203 181 60 120 44 47 248 252 185 251 162 246 199 33 208 144 172 216 75 151 208 42 230 58 167 221 144 92 161 192 91 216 53 213 194 149 97 233 144 221 112 143 139 179 116 14 20 19 43 167 234 93 156 6 82 88 140 49 214 184 225 3 196 26 179 163 109 197 150 87 7 48 105 168 60 106 247 48 203 56 176 166 28 66 218 57 219 147 193 237 3 159 202 133 147 138 124 37 49 236 187 69 196 85 251 187 72 164 25 226 102 175 244 117 182 68 250 78 117 37 61 176 79 225 175 22 12 103 98 90 195 38 234 255 43 223 251 79 231 211 95 198 225 53 204 62 93 106 200 174 84 58 169 60 247 141 40 67 171 155 17 177 26 198 187 96 165 11
105 216 47 158 104 1 23 65 83 167 95 190 226 105 193 226 87 65 253 249 201 120 100 236 197 74 40 172 187 252 90 10 179 78 109 186 19 236 0 150 39 158 64 107 131 17 160 180 237 0 243 218 180 4 210 12 42 40 95 132 190 137 139 159 114 45 32 191 32 203 106 27 35 223 112 215 198 27 255 62 127 197 252 213 53 49 211 164 43 193 23 85 204 77 7 215 69 49 184 204 62 223 23 192 75 133 38 150 45 154 207 26 13 221 144 78 151 82 70 155 111 62 48 43 82 214 243 121 250 110 133 216 5 219 120 218 121 99 247 111 190 125 218 137 37 191 112 82 1 168 159 155 137 174 63 149 222 245 199 34 223 213 35 72 37 162 30 120 34 18 11 37 205 131 144 17 255 113 195 170 72 204 246 67 89 207 219 31 61 90 126 141 94 104 79 168 78 252 172 99 162 141 51 139 78 51 252 169 30 45 37 178 37 169 4 224 37 226 152 71 204 150 137 206 186 44 73 222 69 18 164 157 202 90 132 10 97 61 171 254 240 45 118 12 4 5 218 218 210 42 219 197 36 250 200 129 185 176 129 230 45 207 87 125 154 2 92 201 201 74 157 226 83 233 105 218 246 66 70 122 43 117 150 161 12 218 153 103 160 58 210 0 114 122 173 211 192 219 166 153
231 192 209 184 244 163 191 75 172 83 169 189 246 8 100 147 32 85 83 64 206 153 53 96 134 137 203 228 128 0 235 72 198 193 97 114 132 209 118 119 102 30 31 234 205 109 51 187 212 44 42 106 189 23 91 34 77 231 68 10 196 4 91 120 62 167 216 58 239 25 63 51 8 85 222 108 5 62 141 69 110 159 153 5 9 9 23 49 216 228 116 124 54 73 248 182 16 35 8 174 130 200 169 51 137 253 43 34 254 182 194 15 79 37 127 182 115 72 123 207 144 195 238 42 36 160 76 162 85 77 143 101 174 214 64 138 163 91 158 92 38 111 125 238 225 199 109 219 183 10 14 137 161 240 157 0 113 7 225 23 136 62 150 108 184 34 119 25 238 211 8 227 207 199 68 174 113 12 90 60 48 1 235 218 71 183 168 208 182 158 19 10 162 238 124 237 118 34 58 148 11 227 171 21 194 202 179 227 155 227 208 98 136 245 90 181 43 203 19 51 35 96 252 208 221 176 35 157 223 78 192 209 88 57 145 85 189 86 102 180 122 65 197 97 184 19 191 187 87 85 211 31 231 245 171 63 226 190 12 21 81 70 167 255 232 187 152 197 173 71 85 169 34 238 93 139 148 54 216 37 135 189 3 234 125 24 132 207 196 30 157 51 83 110 29 230 227 205 138 78
229 169 106 26 245 194 250 13 142 1 94 101 165 214 95 182 209 24 199 49 236 217 90 25 130 232 44 143 116 203 15 183 129 219 210 138 69 102 54 37 205 18 100 172 150 253 208 22 100 207 243 87 24 180 11 154 68 80 39 76 117 69 53 56 64 167 107 161 222 31 35 41 102 220 112 86 10 102 99 185 1 22 41 244 238 68 103 187 179 217 111 197 186 172 165 112 230 22 190 34 222 169 247 118 35 199 219 200 66 97 237 112 59 203 227 202 230 96 20 24 95 233 24 188 190 31 93 220 179 250 23 105 115 150 18 156 244 70 160 190 73 243 187 5 251 142 51 254 184 203 49 65 214 63 37 42 248 15 30 195 72 35 165 129 244 129 131 0 203 106 34 166 182 149 26 107 90 91 65 119 99 71 225 209 158 27 120 19 188 113 123 65 90 218 248 72 94 228 167 27 139 30 170 233 62 39 4 59 125 111 238 145 210 217 163 239 18 192 154 97 124 67 178 81 248 158 22 127 16 226 151 87 10 196 169 54 200 66 115 137 149 65 61 73 126 71 141 123 143 255 215 50 215 189 208 72 247 243 77 2 140 91 244 14 128 151 17 125 188 94 222 195 241 49 4 180 127 72 70 36 0 138 81 151 146 76 191 16 211 60 42 199 31 6 191 197 245 24 228 117
184 141 159 223 58 30 12 214 238 162 10 43 246 32 184 229 109 0 74 194 49 164 254 157 213 111 198 18 5 104 197 121 163 189 48 217 78 236 141 74 211 202 224 243 194 39 252 219 87 205 18 108 97 240 212 218 69 202 65 177 149 94 195 21 215 197 138 85 157 124 171 2 146 93 112 255 218 114 152 74 193 148 46 201 201 201 28 15 188 119 81 253 220 2 192 36 118 51 149 224 63 78 127 137 80 173 70 130 147 189 224 236 129 122 149 215 6 0 178 22 46 252 9 252 102 106 129 157 132 193 150 156 200 148 91 89 188 88 109 148 109 85 184 27 26 180 15 64 124 73 250 224 68 170 60 68 103 202 46 235 111 74 90 48 226 71 5 52 114 215 45 55 89 103 38 224 17 172 38 47 24 253 145 213 133 88 221 224 211 157 5 90 38 68 185 194 30 50 116 31 25 45 214 93 56 214 121 112 217 241 103 48 24 113 130 243 232 59 206 50 7 163 75 252 30 17 116 118 158 186 153 85 82 231 139 95 40 123 187 11 106 206 140 20 77 138 81 155 172 100 170 225 89 89 77 153 155 35 104 163 143 100 160 175 228 142 33 79 7 211 74 118 151 209 109 237 108 14 185 192 137 91 58 231 244 41 63 11 186 203 62 158 75 18 222 84 186 246 214 23
144 115 128 164 28 252 48 10 255 60 70 156 141 47 41 5 206 133 100 144 79 181 14 7 193 222 97 10 232 250 166 106 132 77 77 173 221 13 210 210 14 106 129 87 118 235 168 80 240 39 36 59 184 26 78 137 153 252 27 181 147 104 0 23 107 237 124 193 248 231 224 120 80 58 185 185 117 232 188 14 129 27 56 96 144 91 75 97 200 249 102 252 206 202 19 126 231 38 89 150 19 164 181 70 118 35 66 57 53 141 169 32 130 133 188 215 190 240 125 214 235 131 170 224 12 173 154 232 59 136 49 215 202 76 236 79 239 154 230 14 249 78 149 233 46 224 240 104 191 1 227 103 72 163 129 193 243 195 39 174 121 90 240 189 91 52 115 147 224 80 97 12 170 52 218 179 79 41 99 102 220 103 101 14 156 82 206 129 95 209 113 143 247 154 68 117 164 218 140 114 53 37 10 139 120 29 102 170 252 248 78 186 149 40 206 119 49 178 210 95 34 40 62 205 211 68 222 92 22 48 245 100 169 72 217 168 66 163 38 139 6 202 219 217 87 12 193 193 113 247 91 211 99 100 137 188 163 221 140 144 22 253 16 187 185 218 229 69 166 127 71 138 76 224 109 205 195 10 252 8 62 109 230 19 93 124 57 163 95 131 247 201 66 19 139 251 122 185 65 24
126 131 198 200 132 62 153 19 83 77 187 125 139 91 204 243 247 78 123 60 233 59 218 187 127 65 78 82 31 104 175 130 98 149 117 42 168 214 163 79 249 101 191 163 55 12 58 115 250 160 223 181 77 231 22 2 83 24 251 166 94 124 226 114 39 41 35 53 189 156 164 73 233 6 40 244 216 175 91 209 126 50 206 49 192 54 58 207 107 56 47 233 128 121 65 253 94 147 250 219 147 228 86 108 88 189 118 226 118 91 55 172 135 242 55 132 199 226 179 189 180 86 149 212 235 190 90 190 239 34 239 240 147 124 39 36 19 164 122 105 109 30 80 3 183 40 190 52 233 208 112 88 118 176 148 124 85 216 192 31 104 82 47 77 237 63 114 246 82 96 56 10 173 188 58 118 126 104 26 205 4 215 56 77 135 133 107 86 10 27 79 249 246 22 110 99 241 97 115 36 197 180 92 178 5 143 136 177 52 196 122 215 164 250 49 71 12 200 238 72 3 175 26 44 22 255 76 46 147 23 63 139 195 217 147 224 118 19 192 89 45 165 57 119 234 243 222 174 251 69 246 34 171 118 67 247 27 28 232 180 233 96 188 21 172 173 80 136 135 141 70 72 136 217 37 53 144 212 142 62 91 188 252 181 236 13 98 17 59 44 60 250 221 210 103 82 249 15 44 113
147 12 42 79 97 229 90 118 163 46 174 184 141 73 159 44 255 157 73 204 90 8 11 206 255 125 4 240 125 138 234 184 74 121 56 178 217 178 172 233 137 85 81 95 147 17 169 174 114 217 41 147 120 89 221 137 174 193 192 246 116 12 234 68 236 115 46 221 78 177 98 243 204 104 150 120 226 16 92 241 99 22 128 3 152 196 26 26 113 129 8 86 41 157 1 8 21 42 138 242 121 196 78 245 189 250 110 237 125 56 218 37 207 248 205 7 1 186 195 80 31 54 149 166 195 213 26 53 231 243 68 86 204 47 134 19 165 225 11 21 179 93 89 167 77 236 35 103 250 197 158 11 236 105 202 112 230 119 157 109 56 16 174 88 230 52 203 193 82 70 96 226 4 112 8 43 106 157 216 86 133 173 99 203 8 104 252 184 236 178 126 215 158 136 225 187 228 248 187 236 182 3 105 25 238 2 240 77 98 176 89 44 228 20 223 188 65 56 218 226 146 98 101 179 83 250 193 43 107 233 229 42 222 235 211 42 193 247 167 10 184 199 144 142 61 98 23 225 38 233 23 35 12 229 152 50 63 73 51 93 33 0 101 62 10 40 225 176 30 152 189 167 74 206 93 130 224 245 180 12 77 0 148 23 199 253 136 105 26 252 240 242 195 57 215 195 173 252 161 149
106 74 136 111 134 149 142 4 163 128 215 60 164 131 223 181 188 72 183 167 97 28 19 13 252 154 94 225 59 144 2 12 245 188 170 149 14 51 47 174 57 22 51 182 57 42 210 229 255 83 56 123 146 217 251 1 52 45 174 165 26 207 85 194 169 255 166 8 30 71 150 64 250 216 89 80 125 116 163 65 62 60 168 60 37 110 92 77 119 47 221 72 123 150 191 178 103 114 195 108 65 233 100 248 81 133 247 8 184 88 195 198 64 171 104 118 138 138 185 154 86 217 185 254 202 60 225 246 107 94 76 20 229 217 132 25 68 58 57 227 19 103 254 141 227 172 88 212 161 58 191 142 8 235 103 232 52 224 29 245 222 112 82 211 126 29 230 9 198 32 153 225 238 228 227 23 36 122 208 165 102 63 173 40 134 21 233 27 232 81 11 5 246 114 181 252 205 15 92 86 246 179 166 26 193 146 178 182 115 249 187 171 65 140 115 110 143 221 33 100 62 157 23 19 89 214 109 116 86 103 243 180 162 24 17 145 179 13 10 86 104 250 138 198 44 131 100 251 227 47 39 34 254 86 76 86 225 87 8 36 124 94 243 5 208 242 247 183 152 23 225 211 203 97 23 11 150 123 99 132 254 205 98 189 177 245 22 210 73 191 214 91 57 6 214 180 135 133 42 44
182 1 116 158 154 125 166 215 184 226 99 168 229 185 28 205 51 223 82 172 161 231 190 118 170 54 88 42 235 67 45 11 113 224 27 161 182 233 172 20 94 172 99 2 45 162 60 54 1 51 43 31 116 242 113 68 144 52 113 150 71 155 128 105 232 11 130 173 145 116 13 50 225 18 244 78 16 90 106 58 209 138 165 88 95 171 38 238 38 19 116 188 233 163 194 163 238 68 242 242 73 65 161 95 224 159 232 7 61 1 135 29 184 220 207 214 170 8 73 86 194 158 48 192 129 242 241 38 95 116 167 74 25 225 150 103 20 172 62 122 237 116 237 215 57 73 225 125 234 176 114 161 148 117 25 192 130 191 163 67 30 109 232 40 37 125 20 201 67 219 78 242 124 227 82 162 195 64 140 133 149 156 229 133 112 69 204 230 197 79 27 65 50 38 126 69 162 168 91 113 12 205 159 98 29 194 3 57 13 120 255 77 219 108 61 128 166 108 246 146 202 242 35 134 141 216 142 120 132 35 43 201 104 188 205 223 28 152 63 104 201 85 119 93 212 208 92 75 163 37 115 28 88 173 146 35 241 199 120 182 43 210 28 108 243 63 42 12 242 120 98 71 213 247 205 182 194 120 57 12 227 101 93 253 0 157 25 254 46 183 214 218 174 63 132 131 34 200 153 187
228 250 199 204 195 220 170 88 153 109 102 29 182 1 127 14 92 198 87 170 93 13 159 134 99 121 203 68 223 138 220 130 255 8 122 149 29 140 164 209 144 221 245 38 203 151 254 163 87 92 244 160 82 160 46 150 98 73 176 198 129 164 105 57 220 157 5 4 17 243 63 241 142 48 9 208 225 197 103 25 180 125 193 82 88 154 226 241 252 234 230 34 215 238 221 204 95 184 147 213 167 71 31 37 197 85 30 49 51 83 156 43 171 36 152 160 198 43 94 57 235 14 88 116 247 211 110 3 42 70 77 124 5 123 29 4 126 194 148 76 51 170 97 123 186 147 98 163 36 181 13 46 96 100 176 2 118 32 135 54 42 42 170 66 214 58 100 117 170 134 188 104 32 157 241 255 254 68 153 237 221 32 40 17 149 41 41 169 9 12 160 125 196 13 137 3 113 35 149 102 237 196 39 94 146 251 91 10 14 88 69 248 78 136 116 73 69 116 254 223 46 208 249 196 208 199 196 73 240 10 81 10 197 119 81 69 1 85 15 132 53 62 20 12 191 190 129 26 220 244 50 138 155 193 38 173 95 56 42 184 240 89 90 172 60 11 188 128 218 229 121 86 74 222 27 232 146 194 38 33 173 97 192 218 8 126 145 12 231 177 14 55 174 100 84 20 227 103 232 191
85 162 145 58 59 184 214 219 95 33 147 187 3 153 48 85 139 235 51 210 221 141 223 160 5 45 157 233 168 178 26 79 190 108 21 185 163 9 60 117 246 63 30 119 32 40 53 37 87 247 203 194 150 139 203 42 55 164 60 233 223 128 35 138 156 66 190 116 47 149 240 5 75 4 74 171 93 101 201 112 150 48 101 162 128 97 87 41 252 188 138 134 81 3 254 252 68 238 45 243 242 29 30 6 109 209 147 81 251 49 103 50 206 167 127 212 110 91 103 106 201 176 135 103 171 77 241 67 49 12 164 36 185 107 128 107 191 13 151 17 159 228 82 237 41 176 2 36 163 194 229 4 99 115 29 240 245 157 57 33 6 70 137 209 203 218 55 212 131 192 191 73 253 199 227 225 247 206 69 243 230 131 25 221 129 100 138 137 129 165 204 228 171 98 246 196 170 16 40 26 148 156 168 194 186 56 27 126 42 67 241 127 47 50 136 133 8 214 85 164 69 119 86 226 33 92 140 120 225 250 35 86 206 167 172 69 153 136 17 31 30 19 85 118 245 124 210 153 10 137 170 224 10 97 167 37 111 28 204 245 124 5 143 228 251 126 158 84 69 174 143 192 96 247 38 58 13 230 38 56 209 29 143 196 86 137 125 27 172 86 25 253 223 223 128 243 27 122 131 225
194 218 184 69 218 95 158 157 142 182 35 192 53 10 249 229 100 129 13 30 75 59 44 15 41 77 99 43 135 85 158 208 35 145 114 185 252 162 92 2 198 113 90 32 158 190 150 145 167 40 160 107 176 32 174 36 120 145 27 166 0 53 30 85 239 110 184 207 71 12 205 212 109 38 147 13 72 58 116 249 48 174 100 237 60 217 177 208 216 225 168 135 19 118 110 237 179 70 230 156 228 143 205 140 161 67 146 92 143 217 217 181 42 79 124 246 242 217 6 37 24 231 83 205 145 81 177 249 112 216 204 92 49 109 59 246 239 119 124 69 196 198 204 95 97 87 34 58 225 69 127 67 165 24 103 44 18 35 11 246 99 30 86 9 227 218 170 140 109 139 110 229 190 196 149 29 9 23 61 199 181 238 208 37 250 102 157 182 68 98 103 152 180 53 251 181 47 39 125 72 126 50 5 34 12 156 173 38 127 213 42 32 236 69 155 11 142 230 0 183 108 245 117 213 201 92 210 62 164 26 207 123 223 8 187 61 45 198 157 7 107 130 88 154 247 38 36 122 80 114 90 44 74 222 148 72 254 223 92 203 73 217 121 248 142 24 49 213 53 228 22 10 29 223 205 51 13 35 24 26 139 1 166 52 246 246 178 92 29 189 107 90 73 61 100 10 222 67 67 77
115 190 32 162 31 82 145 170 221 202 229 49 181 161 42 42 131 254 161 230 223 103 249 203 41 117 141 149 87 215 191 184 250 0 67 19 237 155 95 209 10 103 118 14 13 180 135 81 76 103 122 29 66 122 159 186 153 109 11 50 183 63 63 224 149 0 84 19 151 94 206 157 86 127 143 242 38 211 143 226 183 17 101 55 169 120 35 160 81 239 16 134 159 95 147 159 71 17 34 1 87 112 172 218 6 96 102 115 167 200 202 147 35 66 123 190 44 44 133 199 131 174 94 32 99 29 201 17 229 211 123 4 75 111 155 37 247 197 134 176 85 95 100 31 160 253 210 41 94 206 205 121 184 26 248 72 69 202 14 60 188 211 170 91 88 171 135 211 19 15 43 152 95 17 9 254 89 144 25 50 250 112 187 71 16 21 67 166 234 136 147 191 28 109 155 104 80 137 82 163 13 157 74 9 159 229 163 132 154 46 245 9 126 71 54 200 55 70 207 62 18 194 56 116 227 113 249 196 122 168 157 162 220 222 54 164 98 192 126 210 49 109 227 181 215 33 141 87 103 254 166 120 176 58 52 161 178 201 79 37 130 113 158 152 34 140 201 58 226 103 203 205 47 25 63 190 202 202 234 101 84 191 146 192 122 65 95 133 108 205 64 100 15 112 186 245 123 110 193 83
127 236 249 24 155 228 43 76 17 187 176 10 180 130 80 106 216 44 243 140 144 99 90 100 72 28 102 182 139 131 50 238 238 142 192 64 207 120 151 238 188 90 105 110 88 128 188 66 68 98 193 122 14 166 16 154 59 162 168 132 27 125 154 72 93 62 225 10 236 230 49 178 55 185 99 230 117 200 155 96 160 172 122 39 177 82 121 141 133 34 146 248 100 159 0 125 32 70 189 84 62 183 61 128 15 63 251 154 73 158 239 239 251 187 213 86 181 128 188 29 187 253 202 33 217 13 164 170 60 108 77 215 23 168 207 173 251 137 146 99 173 99 3 95 166 65 244 81 152 22 219 25 112 174 229 207 21 118 199 76 6 143 203 221 219 251 156 4 101 197 182 245 201 29 122 129 254 55 216 202 146 87 76 232 18 25 186 4 203 177 98 243 35 24 61 24 161 4 234 78 120 67 217 253 241 11 202 64 99 52 78 164 120 226 254 149 242 66 195 86 184 46 138 51 226 211 140 250 24 124 246 155 194 148 230 0 232 153 159 70 220 143 32 38 156 39 40 138 143 181 100 194 168 195 118 153 43 158 119 117 114 233 245 18 193 12 37 84 201 36 207 209 165 109 224 157 248 204 150 106 225 74 38 29 81 68 234 17 15 5 201 95 238 141 54 11 110 123 85 217
