P3
100 100
255
24 244 252 172 223 155 69 7 133 85 125 230 19 34 25 29 206 26 79 186 107 180 147 100 50 18 53 153 89 178 116 64 118 84 253 211 241 176 32 250 154 170 182 191 40 3 147 36 96 101 44 195 214 32 159 235 42 137 231 156 147 230 181 140 185 22 17 116 64 201 141 43 29 81 147 25 251 230 15 5 26 176 119 144 144 255 136 100 131 57 167 138 236 93 80 58 56 56 172 187 193 1 104 169 60 56 140 164 5 32 66 148 230 7 138 176 73 118 175 102 63 68 7 0 24 41 181 189 67 160 141 147 252 175 96 198 125 45 251 184 43 114 111 210 23 96 203 1 18 211 156 161 38 47 166 178 101 107 3 147 79 201 133 241 69 112 21 15 107 40 147 94 38 77 200 114 179 209 202 199 162 150 242 205 26 68 48 83 32 129 76 99 134 149 149 236 54 24 64 55 64 119 33 104 203 66 111 157 170 180 36 222 202 217 53 217 117 17 24 175 36 223 89 83 8 144 140 115 248 104 94 190 196 204 98 248 27 199 124 8 4 202 146 13 110 160 46 18 50 156 63 125 48 0 201 112 172 1 194 112 85 35 181 130 170 248 69 175 120 190 182 52 97 217 245 78 113 47 160 4 210 64 23 140 100 62 185 90 47 116 99 70 130 60 231 118 14 83 42 243
57 117 253 173 113 171 118 107 123 74 250 99 25 225 70 59 221 119 234 4 213 130 244 213 48 24 178 84 182 89 16 28 50 18 225 176 8 188 125 165 249 78 101 194 22 186 145 233 254 49 145 76 99 241 178 230 90 115 254 142 34 108 90 142 175 39 185 156 85 141 78 213 255 119 107 49 240 154 46 154 79 141 102 208 191 93 184 97 130 43 72 121 126 44 212 12 218 16 77 88 186 74 101 68 104 91 0 9 68 72 232 214 185 54 84 177 237 206 188 128 211 196 173 16 23 220 79 104 81 48 242 76 143 229 105 112 197 37 160 45 88 42 176 11 108 2 162 204 175 213 200 131 212 6 201 18 152 180 41 129 17 175 17 202 81 189 246 119 182 237 250 43 191 144 27 212 214 138 3 25 105 182 244 52 2 36 80 155 249 240 65 234 176 175 97 161 185 4 16 251 158 37 208 163 232 4 16 37 125 134 181 121 203 176 157 186 184 14 228 102 126 83 36 248 248 27 26 80 85 114 198 228 134 28 10 7 68 145 152 186 249 64 219 29 50 128 59 47 52 100 135 172 3 128 80 0 166 81 138 67 36 206 45 188 88 64 75 96 232 109 99 99 75 40 225 11 29 76 24 161 226 169 9 148 170 180 101 69 107 31 144 14 97 209 112 30 116 54 195 87
221 193 45 195 130 141 142 203 87 98 46 244 73 51 131 179 159 254 240 73 59 113 46 126 106 14 237 166 217 157 244 244 222 183 119 210 164 245 240 235 185 180 86 23 112 146 100 109 148 65 187 59 229 169 252 26 223 249 22 28 219 132 168 155 250 219 30 46 117 205 117 139 230 136 250 111 41 121 219 78 51 232 118 134 108 47 221 139 160 180 70 152 101 124 106 137 82 74 115 89 51 83 44 34 6 175 215 114 142 202 208 114 90 193 14 16 183 71 233 242 203 214 22 13 1 90 29 74 21 32 74 50 157 142 133 97 125 78 96 229 104 149 65 129 144 207 69 201 16 89 3 191 15 153 221 88 91 163 42 214 36 119 16 247 1 87 181 50 69 210 66 89 246 132 57 229 243 129 146 179 101 228 122 17 197 126 159 38 75 201 79 22 243 202 24 185 202 22 56 187 74 233 255 155 127 168 21 183 104 187 161 19 195 80 235 235 155 91 110 83 97 143 198 138 201 225 206 142 176 184 251 240 46 82 152 54 252 152 96 233 207 37 1 130 136 20 239 110 253 126 76 61 145 12 236 215 222 177 234 191 194 69 118 20 100 182 254 124 100 171 147 204 121 251 234 243 176 212 56 120 123 175 38 26 95 226 250 109 114 157 112 93 206 63 250 227 12 111 223 118
37 170 248 232 138 108 112 87 168 185 248 122 184 101 102 79 96 103 52 47 244 169 251 112 33 147 80 44 195 107 79 182 83 115 235 189 152 156 181 135 7 45 236 122 81 191 162 240 127 124 227 36 102 171 100 209 215 253 195 161 160 78 44 135 241 179 177 154 246 218 173 133 200 216 160 165 191 46 188 121 201 237 220 114 161 247 65 24 144 63 76 139 122 84 5 48 90 92 134 4 23 133 169 132 58 134 12 43 147 207 249 58 46 200 96 131 247 219 239 24 6 197 11 173 134 178 114 80 77 234 34 158 122 177 240 20 168 4 29 144 22 130 30 76 12 11 167 20 39 173 137 20 199 121 121 138 16 17 77 130 14 167 232 220 24 249 173 5 18 74 207 105 67 27 253 135 202 41 210 71 42 119 57 151 150 111 26 146 27 168 209 106 19 249 54 131 100 234 240 238 237 102 226 100 202 2 186 43 54 234 14 192 4 129 147 137 149 52 170 216 121 138 195 85 182 175 143 15 26 74 18 99 0 253 78 221 163 254 249 125 122 8 251 50 130 155 158 50 243 111 71 254 111 39 108 237 91 226 100 107 225 28 51 17 3 18 127 126 63 226 219 175 54 176 150 15 198 132 191 167 169 170 106 138 100 205 122 15 212 155 230 252 255 72 173 51 55 27 179 0
190 59 206 96 203 188 5 74 36 156 115 85 64 35 74 184 238 66 7 50 180 101 194 175 39 211 20 196 5 124 90 224 63 116 53 116 102 71 232 62 88 230 128 199 22 131 52 94 50 168 21 172 6 117 250 218 55 247 191 85 66 39 100 97 128 158 14 28 201 54 123 83 110 98 91 66 84 57 235 2 60 112 51 24 37 121 173 249 5 24 122 57 82 181 41 251 87 45 96 129 101 161 123 210 70 47 101 44 127 121 180 142 57 28 6 178 180 172 7 218 50 204 204 248 209 184 25 220 151 99 113 12 75 24 155 211 80 36 224 137 5 113 242 221 146 170 138 24 190 15 212 181 1 143 2 119 240 25 222 199 103 173 158 89 131 155 50 206 159 240 164 187 60 160 229 167 245 20 28 20 118 163 123 53 6 178 205 255 63 194 112 191 10 71 39 22 211 90 201 237 225 247 108 166 47 209 131 221 208 247 171 223 69 200 159 160 94 27 235 49 75 190 148 249 66 57 197 173 182 144 59 224 53 65 45 153 100 154 156 148 80 202 116 23 94 76 108 154 82 86 73 85 2 164 25 3 172 204 196 204 197 63 167 31 128 150 82 110 183 227 70 4 32 124 166 234 126 217 82 245 162 158 144 153 219 82 176 67 107 115 152 118 206 18 224 213 101 227 135 99
174 226 126 65 253 1 225 161 243 170 84 236 158 15 32 235 30 66 153 254 161 160 18 151 51 115 149 222 15 164 251 152 218 83 53 79 239 74 208 29 96 76 198 12 149 189 225 79 49 6 98 54 209 162 2 33 28 132 165 200 90 90 31 96 127 55 5 62 182 130 22 233 250 237 70 232 106 91 242 226 109 252 152 97 9 230 99 68 159 90 206 48 95 243 178 250 141 102 252 228 248 91 21 197 213 154 110 70 2 244 217 31 106 151 43 89 129 70 227 2 178 70 125 146 215 95 245 140 202 172 196 93 225 206 137 231 78 63 48 198 116 195 31 155 245 204 85 26 154 46 26 20 207 81 158 180 215 74 190 34 212 66 155 161 61 203 139 157 223 234 190 212 85 1 25 89 235 224 124 192 254 142 73 98 164 184 56 17 122 188 53 117 58 237 222 142 100 92 103 38 6 237 154 208 31 53 122 149 13 25 76 57 76 12 186 119 242 10 202 242 68 10 205 49 226 167 110 37 247 66 102 185 29 224 230 153 32 121 70 100 126 149 77 47 53 141 43 225 82 191 167 142 253 11 98 190 19 125 149 159 101 41 98 233 230 129 104 9 219 36 35 119 0 23 101 73 128 137 119 212 107 153 181 100 136 241 55 147 133 216 190 236 159 89 106 25 243 64 194 24
247 236 38 201 3 47 97 198 124 99 106 106 236 7 244 33 119 67 214 162 126 47 62 186 71 45 206 76 33 92 186 199 179 179 28 158 192 98 251 41 208 125 251 195 16 6 144 247 11 84 195 236 161 204 183 22 218 137 14 148 167 48 242 140 69 72 12 171 136 243 182 74 190 199 72 14 253 228 32 228 132 211 110 140 127 53 52 153 186 37 123 77 95 191 2 172 177 19 80 232 54 90 124 218 25 235 102 123 121 237 62 6 89 172 123 131 52 62 179 133 235 70 244 12 113 59 6 203 68 7 221 188 34 57 81 251 71 164 127 250 72 20 6 228 86 254 43 143 193 144 236 242 57 137 2 47 51 89 55 77 157 179 152 187 66 24 2 235 70 248 77 80 91 172 21 225 134 28 254 2 97 40 1 186 69 224 165 149 43 161 107 246 145 152 152 38 99 14 107 208 116 165 92 7 194 243 34 154 22 15 86 33 134 252 137 124 67 9 66 103 32 164 61 87 166 195 57 69 202 26 31 173 216 118 60 183 71 14 80 179 171 152 79 114 218 247 216 108 136 235 249 239 83 96 157 135 168 19 70 208 106 115 152 253 129 97 202 239 211 7 141 89 14 203 171 196 127 160 36 204 63 9 183 194 33 227 44 170 239 91 48 72 42 113 159 255 175 14 40 135
148 152 202 127 63 188 189 169 206 182 91 238 217 101 226 220 89 108 49 127 114 122 199 44 255 50 150 14 176 186 104 212 210 69 10 214 52 145 184 193 235 88 59 204 243 5 75 90 221 157 24 106 103 32 163 143 171 88 178 133 206 0 123 135 188 122 150 73 145 77 213 79 132 114 170 32 112 202 65 2 136 73 117 154 214 230 208 253 177 227 19 217 128 82 48 48 230 222 94 240 55 191 113 171 66 87 215 241 206 129 126 243 203 228 99 104 168 183 22 176 34 104 241 54 97 13 218 212 209 46 11 161 145 67 230 62 155 247 162 47 203 110 25 226 19 218 205 6 120 251 247 116 78 84 11 182 167 75 175 139 150 209 141 161 121 223 95 60 128 109 44 248 5 111 172 188 78 43 255 8 50 9 217 214 24 31 24 114 34 250 137 107 50 79 149 218 14 105 204 126 51 230 203 92 211 242 242 63 220 9 247 60 111 223 123 67 4 142 252 44 252 224 225 148 86 64 249 138 169 47 114 58 183 136 244 184 232 47 78 64 188 196 232 199 168 219 216 37 175 71 65 179 254 224 248 18 156 115 135 122 189 76 164 0 99 118 81 83 98 148 56 50 47 140 211 171 163 173 62 123 180 32 219 73 193 235 112 153 27 194 234 107 233 124 166 88 181 128 157 13
186 204 168 151 189 182 35 2 60 123 1 78 97 30 235 36 52 0 79 18 61 180 183 90 104 124 53 92 223 20 39 24 117 50 8 136 225 8 236 40 71 93 67 97 44 216 182 41 180 233 119 5 168 2 98 103 239 234 88 38 230 93 247 203 91 79 99 205 234 154 224 180 245 171 157 27 176 79 216 48 251 155 195 193 101 43 202 95 132 6 118 85 235 122 194 96 187 114 226 29 242 232 69 191 178 98 228 212 9 18 37 180 235 16 169 73 200 136 167 176 235 39 152 142 91 49 181 136 34 217 110 72 192 144 102 60 210 163 74 144 82 141 13 210 66 31 180 160 28 185 180 11 213 223 111 78 27 123 148 208 81 191 114 112 172 45 106 95 126 44 182 139 49 65 234 16 214 6 162 210 237 150 122 90 44 83 146 118 141 104 80 100 203 111 135 64 168 246 139 55 49 25 135 34 151 228 43 90 0 94 248 60 56 106 24 225 212 57 46 139 207 147 41 137 223 11 54 143 225 151 53 229 187 251 158 248 204 113 37 147 117 133 117 237 97 147 224 55 104 45 47 46 12 254 120 113 191 188 146 247 246 99 239 175 120 130 91 26 48 185 70 160 60 62 6 227 9 220 20 234 74 225 137 251 61 66 217 147 221 236 241 217 252 238 168 116 29 83 111 235
82 46 83 245 213 203 213 4 0 233 101 24 11 101 238 56 200 186 65 26 86 119 161 34 103 60 242 218 15 145 180 57 81 110 124 241 89 0 100 14 68 86 102 137 40 129 189 114 106 130 205 114 0 214 102 29 250 129 45 135 25 119 105 241 161 82 93 67 129 250 21 122 234 220 183 8 109 228 105 235 103 170 181 223 84 118 6 137 245 169 242 62 72 208 153 58 172 235 178 0 204 82 153 12 95 242 101 89 180 33 75 207 51 173 227 24 236 113 147 233 87 159 217 172 113 46 175 228 221 162 63 121 52 250 45 251 242 0 7 100 221 174 146 207 194 23 86 186 225 102 226 118 122 245 132 183 223 154 62 233 51 201 112 142 47 55 216 139 135 155 81 193 101 56 74 36 98 185 224 57 147 250 79 237 145 192 222 84 212 249 237 2 91 142 99 7 213 88 88 103 197 219 170 210 142 171 19 228 203 216 224 83 148 184 172 139 40 65 125 196 213 51 31 246 148 56 146 35 242 230 10 251 188 205 189 0 230 184 187 116 87 40 41 145 57 28 35 180 117 208 191 20 137 71 100 86 196 195 211 41 19 131 235 40 232 228 193 239 255 147 39 107 249 109 146 205 68 170 20 74 153 173 80 34 58 238 128 100 55 184 69 139 152 246 18 146 76 248 237 235
73 223 139 224 80 110 208 3 17 14 92 230 211 113 85 8 87 201 254 22 79 179 241 95 187 252 203 248 59 252 39 109 11 192 144 20 69 17 10 158 137 70 191 209 230 93 223 44 103 98 188 91 83 194 236 74 102 181 146 40 51 149 103 3 161 39 202 52 117 236 173 88 20 99 78 96 34 216 173 31 177 158 96 142 158 248 142 74 182 192 143 232 217 89 64 29 130 240 15 25 49 187 100 37 240 189 219 23 189 243 22 187 52 163 75 173 197 87 79 230 149 60 91 33 11 187 200 212 246 231 145 97 213 189 44 215 97 42 102 11 93 248 73 115 204 237 115 211 251 74 75 59 17 138 35 198 163 251 190 196 200 249 135 32 85 23 102 154 123 49 112 129 254 167 163 58 43 140 46 232 108 177 135 47 208 196 10 150 12 87 218 117 106 225 56 72 60 153 42 240 92 126 186 217 13 122 89 2 85 93 119 100 22 205 224 239 57 249 222 77 255 2 131 219 175 231 93 138 110 159 18 223 54 59 73 225 95 42 36 139 165 210 75 160 186 148 178 201 10 212 152 252 211 100 115 57 93 22 223 243 22 86 153 151 218 172 77 241 66 248 39 44 172 230 60 237 119 221 185 68 42 110 160 117 116 9 218 74 61 217 104 70 32 249 48 128 200 31 151 226
14 134 148 211 77 36 252 77 44 98 102 179 14 230 209 237 77 47 107 124 164 170 208 189 110 50 222 195 221 115 130 206 17 43 154 61 242 113 215 43 8 95 75 11 145 239 18 70 125 47 51 57 140 143 106 135 124 102 252 110 233 67 201 102 143 213 119 125 90 174 85 77 37 96 36 110 238 27 198 28 44 170 233 36 33 133 55 145 24 225 134 74 178 69 127 174 97 12 67 199 216 156 91 143 53 83 208 171 191 91 211 157 170 49 205 133 239 202 15 253 172 96 186 160 134 207 116 39 235 184 140 207 201 249 34 77 245 101 175 148 19 139 227 67 250 69 71 197 53 13 75 110 93 190 71 139 228 105 235 154 194 215 4 219 154 85 171 39 58 165 208 121 252 181 193 198 84 110 39 87 74 67 253 170 90 111 42 21 217 218 139 12 35 83 252 235 83 51 138 31 128 158 204 255 33 38 98 219 95 81 225 122 236 153 252 150 136 39 229 145 230 93 149 118 231 182 169 36 172 77 102 170 191 27 147 125 23 224 113 153 240 97 226 73 65 160 227 218 207 236 252 252 189 14 80 133 206 7 39 217 0 147 109 106 241 121 49 4 170 188 66 42 128 17 174 235 209 235 91 219 118 163 114 234 193 235 126 48 88 108 46 91 166 78 51 58 106 46 168 158
149 32 125 156 108 171 242 171 230 238 122 82 75 20 149 73 212 197 217 232 46 93 135 216 93 33 12 219 124 240 52 191 205 193 157 4 241 9 65 193 251 155 81 142 171 185 48 189 130 79 36 186 228 229 166 251 250 245 154 59 68 57 147 113 112 112 120 120 103 226 157 139 77 97 52 100 156 21 195 15 87 180 213 85 172 94 138 183 36 178 40 203 93 102 47 143 137 74 244 54 50 222 109 52 227 203 171 87 92 227 186 192 114 42 248 186 90 72 182 0 246 14 147 94 75 24 64 60 229 213 58 98 136 74 17 181 226 227 105 171 13 207 31 181 189 32 36 30 243 233 52 204 130 5 77 207 26 215 197 113 132 98 160 153 184 143 245 229 218 242 156 136 252 62 167 139 169 84 246 84 215 97 166 80 255 212 59 197 38 173 248 151 160 140 70 224 78 94 44 136 144 72 145 229 107 139 27 49 56 127 184 136 228 39 15 219 54 134 73 40 125 25 208 221 8 16 76 180 173 235 173 191 55 19 201 143 142 153 144 173 124 26 89 206 151 67 185 174 147 237 122 3 105 185 146 63 8 89 142 172 88 200 236 171 245 239 58 121 57 189 8 189 188 203 150 191 233 109 84 237 122 242 13 84 134 195 249 46 58 117 43 152 223 130 210 73 234 51 185 202
237 71 80 148 23 11 216 71 210 55 61 226 114 53 7 232 35 157 88 148 94 159 7 14 111 69 241 225 250 227 200 28 251 172 145 45 154 203 14 27 6 151 243 249 93 94 80 104 243 236 124 10 122 228 162 149 71 28 164 134 95 252 77 55 235 55 140 178 183 46 255 171 24 153 139 191 3 70 139 102 90 61 166 224 248 204 127 190 243 166 230 216 243 24 47 247 24 130 214 161 44 145 145 93 230 160 214 174 138 250 140 173 130 127 95 187 164 98 249 217 83 235 201 37 207 139 221 49 253 164 222 230 158 72 75 57 181 237 118 253 209 139 31 153 90 2 247 75 179 70 83 74 21 100 218 221 7 107 136 240 154 102 193 221 84 56 93 85 148 221 113 225 16 12 129 90 80 160 11 192 148 50 100 68 32 92 177 195 200 247 105 0 63 35 146 75 129 64 175 118 34 242 8 113 7 129 210 136 32 152 146 23 38 134 0 38 119 0 90 79 184 75 211 201 239 243 211 182 156 124 67 235 192 81 197 242 6 28 229 3 247 101 237 89 146 96 30 189 85 65 144 146 231 64 135 104 6 65 189 240 1 247 42 166 71 223 89 52 88 201 35 144 4 230 79 43 181 92 14 174 31 74 148 178 111 150 8 84 174 61 95 12 226 246 245 230 97 111 181 144
250 245 30 212 68 47 219 203 196 1 88 238 173 116 130 247 189 171 179 134 22 199 140 5 216 188 188 65 242 45 100 170 185 151 94 173 70 11 132 201 119 34 144 231 241 50 24 176 61 226 141 2 153 186 71 248 166 147 243 228 198 163 131 146 54 211 207 210 196 87 66 35 129 233 117 100 194 6 147 124 135 33 2 86 180 104 57 126 232 112 213 173 239 188 159 7 130 24 55 103 145 17 177 174 155 13 138 138 26 94 208 125 38 176 176 168 163 128 127 139 194 66 44 40 7 151 154 28 84 162 187 247 78 220 79 225 17 49 100 51 210 89 64 207 196 206 88 29 221 42 149 216 101 71 79 251 24 0 224 2 246 208 193 191 24 91 240 174 1 205 169 222 169 150 186 130 147 102 185 210 96 135 56 201 101 133 126 95 53 51 222 128 229 159 112 230 227 70 101 28 157 85 189 43 139 143 226 29 207 101 189 176 59 29 41 203 6 11 183 67 105 112 253 220 86 166 238 59 18 44 177 164 95 198 159 10 100 217 2 93 18 124 255 175 85 151 211 180 17 53 129 105 41 116 128 169 76 177 237 243 164 112 121 176 46 38 131 86 217 188 90 20 231 105 40 213 34 42 11 42 176 38 5 227 86 122 72 104 92 131 210 138 214 176 86 153 159 83 30 59
50 178 150 66 196 132 245 147 185 237 25 243 116 77 222 22 137 170 182 98 90 19 78 170 113 42 39 24 217 175 200 252 211 57 5 88 169 84 2 44 45 181 59 67 140 135 145 12 105 70 227 202 243 155 109 48 50 153 108 46 76 30 217 167 250 60 226 154 142 128 22 45 190 228 214 18 157 44 191 130 243 161 66 113 143 148 73 244 124 38 113 67 220 92 142 216 83 153 112 243 210 193 130 87 79 66 186 85 89 181 31 102 39 113 98 173 81 66 221 35 82 7 68 225 0 8 202 135 201 165 3 35 78 156 150 7 154 148 131 24 126 161 193 213 188 102 71 191 70 156 172 173 133 75 127 185 16 140 195 105 63 91 204 23 74 188 250 194 232 196 252 40 123 198 131 11 50 91 84 185 102 234 192 233 185 25 254 211 88 62 224 134 59 128 87 145 203 174 233 133 62 31 114 205 143 218 210 75 130 141 160 93 72 165 120 205 135 103 248 115 150 94 120 114 217 122 69 63 136 37 72 203 75 169 64 115 153 72 85 56 148 27 152 251 223 216 210 255 214 52 204 181 193 73 254 55 165 208 28 237 178 159 253 4 139 240 177 253 237 52 217 43 245 65 210 43 197 1 81 236 165 30 18 224 102 10 94 194 125 96 56 175 79 14 94 54 236 204 153 129
2 0 171 37 206 111 213 58 61 199 110 76 101 250 239 128 47 55 118 154 118 43 40 52 78 36 84 83 248 150 238 56 251 18 191 201 245 20 104 183 65 81 155 239 35 111 212 121 83 166 5 78 252 29 120 98 45 88 23 146 172 230 99 95 196 212 101 5 134 96 178 238 159 51 1 179 227 76 32 204 241 254 107 127 20 169 79 140 27 177 6 152 181 174 130 57 72 150 54 249 160 56 230 70 84 27 97 208 44 65 138 28 180 214 179 159 50 56 227 219 252 144 139 58 164 47 16 30 185 168 20 99 166 7 209 122 27 225 36 76 140 63 22 46 92 40 134 102 250 62 231 61 57 19 210 132 106 245 171 102 22 26 76 151 66 185 119 112 163 244 96 234 177 125 154 51 78 193 53 137 240 71 14 76 242 249 252 172 129 255 235 56 44 18 50 14 9 169 98 138 178 142 101 218 25 205 191 47 88 100 41 182 2 24 30 170 180 29 232 32 89 128 110 231 107 56 94 36 75 116 146 198 70 41 54 95 30 130 140 56 152 238 219 157 68 232 204 216 246 56 89 104 70 53 99 123 21 21 42 94 183 144 145 28 146 229 68 113 195 64 154 151 251 137 126 113 241 188 38 114 183 45 166 53 4 9 227 244 166 157 143 88 27 163 69 4 29 41 209 42
165 66 188 62 11 154 104 60 31 52 183 63 181 215 189 55 243 206 189 16 202 59 186 60 76 238 5 241 146 90 23 155 46 244 234 109 207 51 11 235 181 219 255 81 146 33 185 236 150 84 10 183 61 207 129 126 171 103 202 187 190 216 23 201 81 176 125 184 107 80 46 176 80 53 64 76 115 83 110 242 225 186 219 47 124 129 116 120 13 36 24 16 181 142 65 140 10 141 203 189 160 171 238 12 119 88 66 205 66 27 55 47 67 183 184 230 7 146 137 157 244 130 7 152 14 172 153 155 180 57 0 167 99 166 167 46 204 26 43 205 49 147 204 157 179 176 93 234 250 81 119 173 21 66 156 203 149 6 117 121 199 247 68 189 36 126 244 104 69 96 77 20 135 18 47 12 72 243 136 5 154 226 181 120 14 219 26 104 6 26 11 183 33 214 146 36 19 29 27 236 30 39 245 117 109 8 244 234 73 220 108 192 202 106 119 125 161 105 69 101 18 201 20 64 60 77 108 218 139 61 128 8 244 34 75 43 90 1 107 18 78 237 128 200 10 45 25 64 214 120 127 166 44 242 53 2 156 146 165 146 254 32 120 138 236 173 92 244 199 41 102 34 100 250 104 7 135 240 159 251 154 112 10 246 164 173 252 84 11 117 80 97 177 85 108 219 65 241 183 161
88 131 240 103 50 56 11 91 185 24 28 195 191 250 34 254 215 144 56 80 93 77 150 110 118 15 243 23 178 122 216 113 43 103 181 19 101 226 240 58 36 81 36 92 51 105 159 234 39 186 177 185 29 211 230 170 139 0 222 174 134 222 107 13 236 233 46 198 61 203 138 154 49 60 173 59 10 91 5 136 51 41 157 126 129 246 246 159 136 128 62 50 244 208 61 224 168 170 112 141 134 116 227 196 17 197 198 165 173 128 104 31 26 255 213 130 201 5 30 142 74 142 240 71 227 255 103 82 226 65 57 195 206 238 213 131 136 229 162 95 83 179 217 101 162 36 157 39 11 80 162 117 237 231 105 144 42 22 133 22 154 48 40 230 144 49 185 159 187 161 21 151 10 53 200 59 147 89 173 176 136 240 45 229 172 166 33 208 7 15 121 73 86 135 226 165 209 69 98 143 36 4 0 103 82 82 253 150 140 237 110 49 145 87 82 0 143 171 77 29 166 216 84 197 135 169 116 72 202 7 24 64 125 20 144 58 183 67 18 161 82 132 69 33 135 8 182 167 143 24 112 180 61 170 65 242 90 249 249 3 148 17 151 44 168 215 212 237 200 249 211 59 191 45 132 137 43 176 53 234 11 17 238 2 77 200 61 142 116 69 178 46 70 6 49 80 141 110 63 161
182 203 230 28 16 227 162 88 99 20 129 118 64 66 36 226 16 44 228 15 82 165 232 26 23 38 220 55 75 132 30 30 68 192 81 226 227 242 152 186 174 20 118 8 111 141 244 155 157 80 98 248 21 159 212 253 175 98 232 158 183 240 70 208 159 250 140 131 234 139 140 78 140 77 37 82 66 166 136 4 244 215 26 18 88 196 129 221 75 103 219 230 254 120 45 188 92 65 111 100 218 29 253 42 146 68 176 235 61 238 97 197 192 133 205 32 109 204 241 157 150 241 129 183 150 223 184 198 142 173 166 124 230 57 102 87 138 220 122 171 22 208 115 146 101 171 241 216 216 72 198 126 219 230 82 170 157 243 180 206 120 51 38 138 60 147 66 68 148 166 146 207 228 112 88 140 85 231 12 129 178 100 169 251 249 70 135 80 103 222 143 56 68 118 97 52 148 97 145 128 33 187 39 222 150 53 132 29 135 250 110 185 42 170 134 227 124 152 249 170 106 55 203 161 87 217 20 77 2 64 36 166 132 204 200 125 90 121 1 137 65 74 16 172 240 10 166 251 56 70 21 98 137 119 15 8 242 186 105 48 74 147 77 125 46 230 38 24 162 39 130 35 129 200 95 219 158 182 84 115 49 248 37 251 175 205 124 52 114 74 57 117 58 32 174 231 151 200 133 33
201 52 81 135 55 239 121 66 187 132 216 22 199 142 221 16 44 18 151 114 21 23 171 237 29 17 221 90 213 145 19 83 90 248 34 152 249 112 206 194 14 197 95 101 139 39 140 211 120 69 40 39 71 55 254 185 151 19 166 227 237 95 156 176 148 102 5 64 195 188 122 255 95 186 113 177 117 137 61 166 161 200 43 147 219 12 235 182 212 203 146 39 43 78 62 217 218 165 75 229 0 206 170 132 32 243 133 38 5 144 38 115 46 27 40 147 175 40 210 122 208 9 125 151 158 44 96 124 27 94 89 134 233 21 141 84 191 105 128 195 30 148 219 98 199 167 8 205 87 81 175 251 178 167 220 64 41 4 216 174 27 106 208 220 237 12 60 9 197 94 149 110 101 141 250 84 188 131 94 93 99 243 65 220 19 125 14 147 181 6 88 43 39 249 4 73 234 219 3 6 154 178 96 44 107 191 151 196 112 55 199 36 249 171 185 116 223 210 12 55 220 137 125 209 186 169 181 61 12 154 122 30 41 98 172 213 37 184 188 170 166 107 105 114 45 81 46 203 77 216 102 248 254 153 118 94 103 84 128 12 128 242 140 198 40 33 212 13 67 161 207 176 17 232 254 42 96 95 132 68 238 154 23 117 193 107 26 147 32 3 251 14 5 248 1 231 230 232 191 224
61 78 135 162 75 109 90 61 179 234 209 155 141 251 137 204 167 41 113 157 20 245 169 48 30 42 110 40 152 161 151 156 154 60 94 237 134 60 14 87 11 101 69 215 227 227 6 137 206 212 67 211 131 23 20 213 49 162 218 215 172 238 46 134 27 146 86 186 167 218 75 225 74 58 218 141 63 31 27 177 145 71 161 33 51 37 145 153 41 102 250 164 28 121 191 30 147 218 218 203 108 86 99 67 195 15 46 62 232 173 173 131 55 149 149 247 53 212 220 99 245 70 4 119 242 81 234 205 73 0 65 171 92 50 243 55 177 245 66 156 134 40 172 29 218 151 191 177 40 130 218 110 67 127 96 208 240 19 130 96 106 68 77 194 29 191 66 179 180 112 226 179 62 97 65 33 222 184 179 248 240 250 33 147 210 150 248 232 84 71 254 237 4 35 98 9 241 72 62 111 207 3 120 57 25 195 172 94 222 74 147 4 181 158 33 115 71 180 117 55 88 29 192 184 6 227 181 213 137 106 66 98 18 125 30 92 127 8 201 212 73 70 160 65 236 205 58 110 162 117 234 13 133 150 222 200 5 76 230 129 48 105 15 253 222 171 103 174 163 183 183 184 163 153 159 145 120 28 149 152 28 227 128 116 112 147 229 61 63 85 109 71 31 52 163 157 148 14 217 174
84 135 32 250 24 127 84 91 162 225 180 213 60 114 218 252 40 197 29 112 157 46 206 81 118 44 202 32 149 233 62 248 240 157 141 159 50 202 143 36 208 41 104 184 231 122 136 227 123 133 64 32 38 188 207 110 249 154 59 36 178 233 236 112 218 204 79 128 60 253 197 252 213 90 171 187 205 22 92 80 86 159 133 202 132 232 3 181 119 124 67 174 54 185 217 172 116 12 7 43 214 160 216 207 144 167 129 222 1 230 203 9 239 199 170 197 9 17 58 159 202 168 92 66 219 244 123 8 47 79 24 228 1 187 124 17 251 150 220 192 130 170 217 125 128 166 201 26 163 29 51 216 241 190 28 160 144 18 13 112 240 88 230 193 187 93 28 129 136 127 95 113 232 165 193 174 104 15 46 120 108 43 111 56 227 184 183 12 201 197 174 240 19 177 26 149 96 228 124 103 146 59 75 175 14 107 60 141 130 63 167 194 251 201 20 223 39 54 124 141 177 2 152 57 110 134 192 67 204 55 241 114 83 70 175 96 55 141 127 135 191 79 97 26 242 180 247 157 252 161 27 175 175 15 18 109 216 119 215 3 168 66 168 38 184 14 200 175 103 8 216 94 7 179 4 75 33 227 48 21 21 73 144 14 7 179 32 188 252 197 31 10 199 128 240 6 187 126 111 122
46 104 243 239 199 112 117 51 253 249 97 75 51 166 14 81 67 185 49 196 19 215 225 109 128 24 65 52 67 149 167 163 245 80 112 35 9 46 62 201 71 118 228 101 237 18 55 73 30 151 23 229 45 170 46 172 128 94 165 54 75 90 112 225 99 6 100 198 183 178 119 175 247 119 248 1 138 234 17 64 222 122 82 153 134 38 189 163 165 94 119 103 231 64 51 245 220 238 0 21 151 60 199 183 10 157 131 114 200 76 9 252 83 222 20 106 174 47 46 23 236 38 204 22 78 239 204 138 4 124 243 7 44 35 85 160 177 161 176 56 107 188 178 143 162 89 254 12 152 251 175 22 219 71 249 236 27 46 140 108 120 118 187 204 61 190 76 231 37 56 148 227 43 19 52 244 88 38 236 180 199 166 156 58 187 190 118 42 145 135 110 58 60 193 180 128 171 156 250 24 89 193 217 19 21 215 104 184 143 149 214 185 217 176 80 107 45 69 27 212 227 205 13 147 237 201 89 232 99 46 107 34 11 135 163 112 169 85 220 200 209 245 195 9 212 92 143 236 2 53 175 9 97 89 190 163 218 100 194 94 246 136 162 120 183 215 193 79 181 22 44 234 51 170 156 26 103 151 53 189 198 89 25 84 135 154 164 56 181 155 87 158 224 11 117 101 32 200 171 146
137 68 87 8 145 114 215 47 252 28 207 0 155 218 228 198 51 197 122 131 156 33 47 181 239 199 77 93 101 168 166 135 207 80 222 180 127 1 78 13 33 13 66 61 69 135 94 96 106 186 253 136 143 0 167 179 121 80 30 80 182 247 126 252 32 71 234 53 86 121 110 114 202 68 176 218 216 98 147 187 218 185 145 87 227 215 146 98 183 199 248 243 107 254 86 47 238 114 159 108 105 85 97 53 6 6 157 83 223 198 119 57 193 70 45 235 108 48 168 12 97 215 161 53 253 109 18 230 74 145 238 110 132 242 132 171 11 171 208 222 76 131 10 84 116 188 205 41 144 23 178 16 167 236 228 141 158 63 79 185 193 144 82 185 0 109 245 2 13 18 78 32 20 58 153 236 19 110 236 29 3 127 115 199 113 214 120 88 99 212 50 166 168 42 59 18 1 71 67 169 59 175 191 168 211 60 233 192 120 19 230 116 75 109 170 132 22 208 160 235 98 132 150 72 125 91 173 28 114 44 97 117 118 19 41 113 173 179 183 6 232 40 20 48 28 221 186 163 161 120 243 120 16 153 12 89 105 143 10 154 98 44 139 110 249 139 227 101 240 3 128 141 109 70 119 52 170 9 176 122 77 70 56 95 176 149 157 202 164 115 56 84 174 227 183 119 249 9 10 30
191 112 190 201 178 61 113 143 138 176 187 145 247 123 238 87 2 216 237 215 139 101 248 92 81 25 175 36 76 114 247 200 21 183 113 61 206 99 65 2 12 20 245 119 161 2 57 248 179 216 159 85 222 74 193 179 157 64 139 171 121 251 147 38 218 192 140 230 30 109 243 139 47 209 149 148 89 211 49 75 252 76 2 2 219 42 59 200 121 197 74 86 83 21 65 186 224 50 190 174 139 181 6 234 201 126 244 18 130 56 160 181 146 112 88 173 54 107 141 123 246 68 33 168 98 243 180 246 82 1 97 94 192 164 42 215 103 104 188 137 240 236 142 89 252 18 111 225 210 155 8 247 103 55 174 143 89 131 35 131 18 12 45 36 242 72 165 55 199 158 164 215 88 186 180 18 248 112 245 144 82 44 18 143 39 89 151 203 87 38 28 238 230 148 200 58 216 173 125 139 35 110 46 174 252 167 5 36 108 34 33 85 82 2 105 91 135 193 215 82 107 140 125 187 201 84 119 124 65 226 155 150 188 179 125 41 147 218 253 157 249 216 96 138 10 151 107 235 68 12 53 139 205 168 91 226 114 8 76 40 112 226 173 69 145 173 63 228 70 64 172 55 21 221 227 252 171 160 221 61 108 139 6 102 179 231 138 174 240 178 103 85 253 87 60 92 119 171 166 246
45 64 123 14 212 63 222 248 79 42 198 52 128 30 153 172 226 98 152 177 57 169 55 161 79 180 192 143 73 90 131 180 205 223 39 242 206 149 210 192 167 208 165 190 181 73 117 47 176 55 47 1 199 103 38 50 21 216 204 84 99 218 89 29 175 129 241 92 251 87 16 55 149 64 144 169 255 71 208 133 101 117 226 168 255 8 219 135 142 65 24 13 106 107 19 17 57 53 68 128 93 10 4 30 163 62 3 58 201 58 44 25 176 3 70 106 201 48 27 9 99 20 39 13 115 83 56 64 23 196 181 233 80 164 114 44 162 64 250 59 103 47 191 170 110 7 197 184 246 217 220 120 91 38 233 203 42 170 42 161 224 59 110 48 73 255 253 185 160 53 172 23 151 95 74 246 109 70 190 25 183 108 207 18 182 246 136 67 247 95 98 71 13 211 19 104 107 77 92 34 53 127 82 236 4 236 8 100 107 78 110 222 220 54 18 215 169 89 254 246 104 66 251 89 3 114 66 23 189 217 136 21 83 174 41 22 200 254 53 18 41 192 113 171 237 222 142 74 27 97 137 176 74 140 255 41 34 55 68 191 247 71 163 168 7 253 78 212 199 194 116 221 245 158 208 228 192 216 122 194 62 78 207 5 106 86 254 2 116 67 163 64 52 38 103 241 236 238 173 208
56 49 187 29 197 162 162 99 75 14 211 197 74 88 206 237 18 144 165 21 254 232 178 246 186 4 160 0 234 37 14 209 249 151 73 11 227 67 108 180 29 9 45 167 49 205 14 182 40 216 31 11 35 23 15 72 77 145 159 115 189 36 245 39 23 77 218 229 241 90 144 27 195 131 29 65 128 25 91 50 238 189 170 202 181 229 226 149 155 173 88 47 46 204 87 233 247 238 131 83 232 229 12 226 82 124 235 135 16 118 179 241 160 178 178 3 142 178 191 111 111 202 10 111 164 147 28 142 33 39 197 136 14 229 186 139 148 62 33 48 227 110 37 76 21 230 18 246 92 117 36 225 139 25 171 13 207 52 208 167 114 239 154 90 46 131 237 59 223 240 5 144 110 40 16 47 166 245 189 180 149 193 52 113 163 154 216 93 211 31 192 199 0 94 197 192 0 78 10 190 10 120 135 238 35 198 244 4 178 100 55 146 57 146 172 188 163 160 75 117 140 69 71 40 201 142 148 150 91 127 73 233 0 70 194 95 129 22 23 192 73 38 62 209 156 166 156 193 205 126 117 155 54 205 189 115 14 139 41 255 69 51 90 218 92 140 110 206 46 125 29 207 175 148 81 125 177 219 225 6 23 74 150 245 234 73 97 123 157 27 51 19 112 190 9 248 31 24 99 253
34 145 246 189 183 136 225 10 162 204 28 219 13 2 139 132 33 130 70 241 20 224 46 66 128 85 89 146 207 189 125 116 12 181 80 141 110 132 87 125 229 96 92 28 110 47 150 62 212 34 59 122 174 68 49 108 107 55 83 52 192 171 205 16 1 161 83 17 14 165 147 23 146 56 213 120 148 235 206 161 52 222 45 202 17 224 26 214 107 227 139 242 160 249 54 103 237 58 156 154 204 20 66 138 174 73 210 105 35 90 228 103 170 46 236 0 44 160 209 6 214 117 25 114 201 150 113 43 160 211 18 167 165 239 215 42 15 83 95 237 210 144 158 154 88 212 160 111 213 191 22 198 193 222 169 138 98 101 119 116 161 93 136 161 11 244 192 83 65 184 231 110 168 49 218 66 137 147 76 5 34 242 29 190 152 246 252 32 180 26 98 232 41 185 140 127 237 104 163 244 191 18 17 225 153 125 106 29 173 239 243 103 193 223 249 157 11 48 146 168 144 236 51 248 6 75 177 128 25 34 125 154 152 222 230 32 120 60 91 132 104 169 109 55 170 217 146 225 73 80 245 212 1 31 153 9 152 0 190 198 91 134 74 210 109 178 231 176 20 80 48 15 42 20 177 85 193 63 113 62 153 183 176 193 242 21 193 242 244 18 181 72 229 80 93 89 33 138 153 92
253 97 100 70 94 176 171 66 233 201 144 180 38 56 5 180 120 18 166 237 161 233 10 122 207 8 196 115 164 182 180 80 26 146 67 35 182 138 131 6 145 17 85 191 66 71 255 24 125 168 203 3 115 168 10 208 156 136 53 103 213 37 18 86 204 249 229 161 139 137 46 34 90 191 19 187 187 112 174 200 139 184 67 215 218 52 176 88 28 54 192 120 243 62 107 94 249 16 174 227 216 191 116 119 69 46 186 25 116 3 151 249 121 77 143 40 116 62 170 45 59 172 51 211 181 137 136 21 107 178 73 254 89 194 105 129 166 84 46 144 54 156 38 219 237 152 124 213 88 219 92 177 133 40 127 161 89 147 171 65 235 2 115 226 145 204 18 203 24 154 253 219 89 89 108 190 150 104 216 222 186 169 105 183 147 125 213 170 191 187 12 81 11 85 15 3 54 34 133 162 224 27 48 54 244 52 191 169 132 179 86 251 121 206 169 52 153 4 165 30 3 84 86 178 150 81 155 184 73 33 163 24 232 141 163 184 132 70 150 11 17 196 227 233 233 247 204 176 254 81 110 147 156 233 67 63 115 52 83 204 254 242 183 217 151 124 100 51 240 90 17 213 106 54 87 138 210 231 105 17 206 68 9 178 188 39 159 9 52 23 222 246 184 236 148 95 107 173 28 196
58 186 79 180 35 151 131 251 231 211 237 65 54 251 101 177 255 162 34 202 105 202 250 119 82 163 232 242 212 115 19 81 74 173 126 155 168 225 192 218 91 91 17 202 149 176 62 122 223 65 250 148 51 221 17 78 132 92 54 111 93 85 115 18 115 83 221 136 134 12 151 41 38 163 218 168 47 210 131 14 31 209 180 124 236 116 35 142 3 14 63 202 206 117 95 133 128 170 42 155 43 76 205 88 63 165 114 14 136 239 191 85 248 183 107 237 82 198 120 189 240 250 50 240 169 104 120 89 151 98 34 136 16 86 22 237 71 133 243 21 11 197 208 181 206 248 182 230 161 83 143 14 83 237 218 157 77 41 65 217 118 125 159 160 130 90 74 52 131 108 99 248 244 245 26 70 103 56 170 106 118 38 131 51 249 76 143 234 138 188 202 37 137 247 234 174 14 233 99 97 206 157 148 146 37 192 191 232 199 18 136 186 244 174 141 229 165 131 191 89 215 104 80 128 218 53 133 209 35 152 93 164 171 168 71 240 76 142 25 128 241 25 217 80 232 4 219 144 218 105 84 141 98 25 189 78 107 239 162 124 158 124 184 238 193 56 131 4 81 168 135 201 252 0 76 216 23 89 213 82 122 129 101 244 70 58 42 237 56 99 149 235 153 207 101 126 155 37 195 32
3 134 247 36 253 71 159 215 171 153 131 100 78 248 44 93 188 23 254 173 61 225 154 50 243 177 111 98 238 142 107 82 125 105 135 99 86 238 254 50 100 56 205 216 194 225 0 41 54 70 142 181 52 31 107 202 55 130 200 56 30 159 227 208 106 178 124 31 225 152 229 223 204 173 47 232 206 144 84 196 110 214 43 38 47 217 70 89 191 63 115 119 230 118 97 132 71 27 99 153 48 118 144 147 154 55 31 103 38 105 129 240 172 106 23 226 169 251 155 87 74 111 14 51 47 62 163 25 42 154 93 33 46 50 67 104 89 173 138 201 193 80 156 191 254 135 81 48 157 66 121 29 189 61 149 155 27 114 243 69 64 177 248 220 219 110 249 194 7 202 91 170 245 135 137 229 8 34 37 120 41 85 71 59 194 46 65 135 204 69 197 123 4 225 31 37 184 240 114 69 94 112 104 40 115 97 2 88 214 241 56 158 31 109 206 72 199 213 233 102 51 116 148 86 62 255 222 50 84 29 128 140 74 246 98 152 157 224 102 37 190 109 22 191 140 214 128 75 222 72 81 38 116 224 234 236 26 11 0 209 190 253 252 137 162 83 187 117 39 125 36 68 11 169 18 55 89 226 62 212 164 39 66 125 206 7 185 192 173 19 146 54 158 9 242 122 152 138 132 176
150 112 94 226 197 213 107 200 133 111 199 167 218 171 216 142 206 148 81 216 98 186 224 125 213 251 242 21 7 83 184 117 20 191 35 23 161 248 30 94 37 120 140 152 215 250 239 243 140 176 220 178 192 169 62 221 109 70 3 117 131 151 212 148 190 162 135 77 114 213 147 234 195 93 156 163 113 15 198 75 108 246 63 16 237 221 48 197 59 15 125 249 193 239 196 51 38 148 67 141 106 122 77 49 211 41 75 98 238 238 191 247 146 187 44 9 180 60 229 60 184 226 147 4 107 237 110 109 163 12 126 58 182 153 57 174 11 142 94 42 247 118 231 216 121 60 157 72 135 65 214 47 89 247 6 56 42 228 190 254 50 6 229 21 249 102 146 156 42 169 231 32 28 47 107 249 160 76 176 30 13 160 127 127 175 147 117 12 127 144 72 249 162 65 76 104 191 20 175 101 53 245 122 198 62 215 241 148 89 6 98 64 214 67 10 239 195 119 250 213 66 169 227 122 192 231 90 179 136 23 189 15 217 96 183 136 230 2 132 176 118 85 25 34 85 144 60 26 171 44 239 24 159 233 16 68 234 52 66 44 86 242 135 16 114 153 85 223 228 239 129 167 119 243 115 4 75 219 163 54 142 137 52 127 82 191 103 79 70 99 44 89 105 159 34 104 73 150 245 105
59 140 72 205 13 199 106 81 150 149 221 230 81 253 213 79 108 102 173 249 79 103 106 37 82 201 30 196 167 183 101 202 230 253 61 81 1 245 123 217 180 8 58 48 140 160 127 153 124 255 142 41 215 134 3 210 118 242 234 246 133 62 165 40 69 76 19 221 238 254 36 42 43 57 49 148 197 136 111 133 244 119 243 73 77 12 255 179 169 113 44 177 113 91 90 140 0 80 236 1 24 173 93 5 136 100 246 113 71 90 26 19 190 58 162 94 90 185 58 189 212 108 13 44 233 228 212 35 250 8 55 9 25 75 149 235 183 107 96 169 1 208 203 37 66 66 91 152 195 195 71 57 72 120 255 45 58 94 82 66 81 178 212 124 33 202 27 141 237 159 133 20 135 151 108 50 107 124 232 130 197 168 110 209 63 59 76 39 30 90 103 6 133 53 17 205 234 31 227 132 102 132 161 172 234 104 4 119 230 224 178 215 55 210 58 30 185 186 19 247 146 232 192 22 84 199 252 144 214 14 51 198 116 224 53 62 211 118 166 105 159 222 31 186 3 14 220 206 66 228 71 222 93 66 22 52 1 245 114 185 181 254 97 37 144 26 30 23 179 54 29 61 5 104 129 52 79 91 238 171 225 130 127 116 173 253 31 98 39 108 17 232 199 164 182 113 84 227 29 206
3 196 113 170 14 47 38 150 251 36 56 116 147 185 133 138 229 116 248 215 63 152 180 167 18 180 78 127 100 108 36 229 155 142 156 24 227 78 136 61 18 15 84 219 246 244 58 126 220 23 111 177 62 65 84 145 214 151 172 113 33 134 168 10 155 229 66 47 148 124 68 198 53 223 213 88 16 224 248 47 89 9 135 4 247 156 4 36 84 60 249 197 230 164 128 179 86 94 162 164 130 91 51 79 210 196 23 163 16 37 172 131 240 76 119 188 17 51 13 39 83 129 8 170 113 144 77 73 241 13 131 205 188 86 63 45 173 55 52 207 199 168 120 57 172 31 54 106 247 133 16 79 136 169 67 187 60 254 130 49 182 43 29 139 1 251 127 244 237 117 112 20 40 206 137 192 205 202 166 105 238 191 20 188 160 108 7 205 214 19 251 45 107 202 165 144 11 153 185 19 64 171 215 179 56 122 83 106 156 217 93 211 84 157 211 167 132 67 47 62 190 227 62 158 178 214 27 201 74 34 76 127 244 191 14 253 41 168 60 253 11 220 124 96 231 33 104 179 69 157 234 12 46 223 226 71 176 98 2 213 6 21 116 156 69 144 245 0 217 123 124 62 141 126 231 55 212 249 81 195 237 165 2 0 155 87 80 203 145 214 28 230 186 30 139 94 33 210 217 142
74 109 158 6 169 11 13 179 41 133 61 6 56 179 111 111 90 159 232 118 125 66 108 144 242 168 206 12 73 232 32 22 59 60 25 52 247 159 177 44 84 242 85 35 92 82 42 47 95 31 81 91 52 12 115 247 70 183 59 21 244 197 18 119 219 229 192 235 165 32 98 214 155 81 153 242 144 19 137 243 197 126 213 199 183 105 159 120 9 37 127 70 194 248 225 134 198 47 215 92 218 205 133 125 89 128 78 165 21 141 148 167 157 100 244 77 246 142 76 39 206 153 44 163 171 165 118 116 82 116 5 36 242 52 244 248 76 31 253 167 148 185 43 153 45 7 42 104 180 151 47 200 84 33 83 125 32 241 77 140 224 50 250 160 191 67 209 59 6 180 87 105 188 126 54 226 66 189 96 84 230 13 68 76 42 0 251 187 230 169 30 66 89 16 143 216 250 196 180 29 48 194 154 172 214 59 111 199 203 209 163 207 127 23 144 134 116 239 80 119 164 249 228 241 122 61 105 34 48 107 49 180 170 247 128 208 88 168 118 153 193 173 217 65 14 50 137 147 202 176 49 122 149 210 217 62 147 28 44 69 188 228 223 234 27 172 236 238 125 26 173 90 30 197 112 25 21 170 137 175 170 133 22 14 102 90 53 217 250 127 57 251 1 120 100 61 47 207 161 123
98 74 205 36 220 5 55 30 174 104 207 169 96 141 235 53 19 48 245 143 131 130 106 197 102 51 61 127 184 148 173 12 210 127 36 72 147 56 185 254 2 214 52 11 223 113 99 64 236 125 198 228 228 205 231 16 83 174 167 2 97 142 209 139 155 78 66 110 4 205 204 9 94 142 242 231 132 89 64 55 226 113 17 169 195 176 17 35 33 108 45 131 93 13 137 35 145 180 74 15 138 193 210 51 115 159 27 44 247 156 8 181 168 93 103 122 28 168 139 173 232 218 77 67 90 35 63 103 248 87 143 174 38 204 235 194 85 159 160 4 181 150 170 30 116 32 28 178 123 4 89 87 160 163 8 87 29 220 220 8 165 203 41 193 123 132 95 12 202 191 134 160 193 120 45 242 105 96 13 243 255 190 114 248 157 237 151 237 147 212 145 72 69 121 90 195 114 174 22 88 37 62 197 63 178 184 106 119 86 132 206 204 0 73 200 186 119 132 217 117 71 75 226 234 69 249 97 160 172 228 27 72 227 146 4 189 132 108 49 196 2 126 89 71 229 10 225 196 92 145 183 35 233 167 191 151 161 199 30 119 71 190 148 221 224 116 48 200 184 31 37 19 235 63 176 235 23 165 18 233 70 195 99 38 112 243 141 183 254 4 32 92 145 230 148 47 224 185 71 203
228 153 64 8 3 221 184 100 13 101 68 83 47 202 82 249 205 83 56 153 176 86 51 250 113 124 72 52 110 59 63 38 12 99 184 99 146 163 137 11 175 45 81 134 196 103 142 57 182 206 241 250 111 238 162 201 152 206 210 2 167 21 92 30 65 48 198 70 237 167 84 130 156 81 218 115 180 113 52 88 19 182 137 219 227 9 159 172 91 250 207 128 203 216 17 240 95 80 214 101 241 161 246 253 42 231 249 39 203 115 127 10 253 150 53 82 67 214 56 83 20 255 58 139 147 163 9 106 247 134 138 230 146 246 219 7 199 116 248 115 205 146 36 77 97 184 143 26 210 86 125 205 80 92 185 245 94 235 52 180 184 54 23 22 161 186 72 155 221 58 52 37 38 1 180 239 102 76 4 107 136 184 151 45 200 195 138 0 149 14 255 145 172 84 164 41 231 222 163 41 239 216 220 23 152 143 30 177 209 199 88 59 46 105 40 59 2 235 81 169 82 104 15 28 186 117 161 199 198 163 109 82 80 163 168 202 225 144 90 15 137 173 46 90 48 12 6 97 82 91 108 230 28 94 165 158 89 194 109 181 216 176 160 125 11 4 219 213 85 249 185 163 223 40 227 5 78 204 45 159 210 54 198 0 201 112 0 247 121 24 61 65 77 234 73 40 240 12 38 151
106 223 124 148 9 139 145 66 221 97 61 146 29 145 209 167 2 113 243 176 201 229 252 10 36 234 248 39 85 234 60 141 14 122 25 76 106 235 48 27 66 84 29 31 112 124 79 93 125 30 196 14 154 101 241 150 213 217 2 4 55 152 34 79 40 133 135 96 130 130 152 169 90 218 179 233 132 57 8 35 230 163 202 65 96 226 127 60 241 12 159 164 204 159 39 2 157 159 113 141 52 13 98 206 148 65 206 58 120 177 19 183 197 78 207 240 106 5 109 141 175 251 47 75 127 97 232 146 179 46 219 169 68 23 160 140 138 182 87 35 224 51 104 92 203 167 75 65 101 128 194 173 139 179 56 178 151 233 36 161 202 163 219 109 252 19 39 157 216 15 6 95 167 212 50 251 208 186 27 211 219 232 242 17 126 120 56 61 227 239 160 43 207 22 115 120 104 100 23 56 249 42 127 22 108 206 237 53 169 253 76 87 222 200 55 83 80 92 195 81 80 171 148 217 213 154 70 16 240 148 230 151 136 187 253 31 101 175 134 68 235 251 129 236 180 122 107 86 58 181 141 233 170 232 143 226 95 171 209 196 226 125 159 19 255 46 202 244 118 49 230 89 10 186 207 121 232 210 157 135 76 54 148 76 17 171 63 49 35 33 19 62 105 176 251 221 207 102 104 136
44 177 55 68 215 246 89 255 71 138 249 81 107 197 29 175 66 250 32 205 187 223 240 80 80 250 178 109 153 3 78 165 5 12 225 133 6 2 160 62 35 134 243 135 27 216 246 167 51 198 229 240 220 152 136 97 105 4 186 153 83 49 106 221 24 216 97 42 191 43 185 66 45 25 137 0 249 141 181 159 76 255 231 129 172 51 89 135 172 142 228 204 30 45 170 255 102 48 40 219 8 41 140 18 178 176 101 59 178 40 160 1 200 182 112 188 105 38 126 52 62 69 220 170 227 111 184 28 132 244 54 111 240 185 20 254 99 183 65 208 71 45 192 133 20 217 14 208 145 169 1 33 178 109 194 212 63 110 129 255 24 46 240 70 132 10 94 106 6 7 244 147 29 245 49 138 94 44 230 163 199 198 181 43 195 213 80 235 249 39 65 17 36 206 16 159 46 27 68 193 138 58 130 184 18 223 37 116 171 237 44 124 197 236 109 206 41 76 210 251 33 20 190 163 164 152 15 106 154 84 234 109 157 5 25 72 0 52 181 93 33 1 110 234 220 68 23 145 41 115 27 253 23 138 108 210 67 241 56 243 77 26 139 67 151 177 185 141 215 45 195 122 225 212 19 175 23 150 234 48 20 228 245 233 134 132 119 111 114 68 230 102 58 181 16 150 75 156 12 203
80 61 0 155 93 64 139 216 204 60 194 60 36 110 152 141 152 193 17 146 137 143 77 101 166 88 242 52 2 238 132 121 123 64 40 94 90 71 87 98 176 199 192 228 53 116 41 216 96 73 187 238 149 197 44 253 117 100 173 30 72 21 1 167 248 204 110 9 152 73 219 253 85 232 87 155 52 50 127 75 169 147 146 215 68 28 238 211 2 242 197 251 142 219 235 50 13 2 59 90 36 148 229 67 153 16 13 247 85 210 75 32 116 153 88 132 221 46 175 205 74 191 3 152 114 206 217 133 1 141 206 53 109 180 163 249 59 86 35 143 36 246 214 38 34 23 181 121 124 14 210 160 80 74 129 163 227 238 90 153 144 80 153 82 19 141 144 193 173 204 203 196 89 251 50 227 48 32 102 206 225 220 161 14 34 185 65 37 68 120 79 95 70 225 7 118 62 156 157 246 179 64 139 80 248 229 41 212 236 12 109 58 189 140 140 197 26 41 217 232 114 191 212 109 123 139 0 56 58 133 104 245 78 241 113 245 181 245 59 194 9 68 139 187 86 100 86 236 107 187 24 109 121 35 5 99 0 48 217 149 163 139 159 57 171 166 179 230 9 121 221 9 29 89 241 233 202 79 70 74 250 170 208 106 255 119 238 250 75 137 186 97 44 73 174 107 210 66 30 169
242 29 199 52 187 91 164 224 98 4 58 209 96 46 192 190 147 107 176 209 87 134 6 121 135 21 209 6 147 210 154 111 188 167 41 242 174 242 97 54 213 140 196 215 84 111 237 170 15 25 2 138 102 160 205 17 29 54 14 253 87 169 134 46 250 65 175 1 132 230 145 199 46 242 101 115 14 168 77 100 9 191 189 182 196 62 76 30 23 229 105 171 232 255 204 108 210 3 105 39 200 198 246 233 202 2 234 16 229 109 171 158 253 175 104 171 144 207 154 203 67 210 179 11 19 129 252 243 74 19 58 48 211 124 125 206 196 14 165 166 14 107 141 203 38 184 151 98 170 205 5 62 12 211 39 82 176 239 22 4 12 164 141 106 144 77 187 157 230 247 78 108 131 39 220 144 149 17 234 100 205 117 56 180 249 89 64 75 219 56 78 153 20 126 161 46 135 100 128 94 236 233 240 34 132 61 190 134 119 168 207 33 80 241 138 218 76 175 42 60 107 75 224 62 107 95 134 169 39 0 150 83 44 226 43 139 174 55 18 204 245 120 36 211 25 204 39 99 10 147 13 108 48 74 117 133 189 59 170 223 101 28 205 236 18 62 174 185 121 170 58 45 177 32 36 86 162 149 182 110 40 223 57 126 71 161 197 181 108 7 135 70 41 169 171 73 240 177 229 100
89 97 0 127 220 175 49 110 108 170 215 101 75 32 223 232 199 9 58 88 34 11 82 226 101 220 240 69 132 195 73 204 213 110 126 246 153 29 18 174 211 183 238 209 77 149 31 67 107 184 67 208 44 26 54 92 126 228 236 201 237 134 206 154 190 27 118 168 136 121 9 64 59 40 255 26 219 38 79 161 104 184 69 169 248 40 255 107 116 149 138 6 26 161 239 1 88 229 222 247 170 46 37 0 81 132 194 217 55 75 220 5 116 127 146 207 45 36 254 2 80 238 54 159 136 108 106 189 146 132 183 214 132 67 198 89 56 143 239 46 5 193 216 214 32 181 180 163 139 7 255 150 215 204 119 167 185 18 114 2 54 169 47 23 126 129 219 232 123 215 55 150 85 249 97 213 193 164 157 14 207 41 107 183 26 127 27 153 124 115 51 121 216 82 230 201 164 245 235 86 57 3 72 54 151 143 206 215 148 241 118 36 206 137 62 102 165 198 190 93 169 137 41 240 159 180 20 171 252 41 3 189 144 46 218 49 228 181 224 98 110 191 255 49 11 100 187 134 2 99 32 160 235 230 106 156 143 81 193 233 14 97 30 149 195 76 84 115 212 6 21 29 242 43 199 175 140 226 222 81 170 21 35 32 219 91 158 14 198 10 216 87 94 15 234 179 203 229 109 4
5 28 188 151 80 176 191 19 200 184 6 173 121 186 180 36 113 63 184 249 46 222 59 199 208 186 138 19 49 24 95 68 149 117 37 95 72 196 225 237 250 131 167 170 9 0 108 180 130 7 146 184 45 90 43 117 53 209 104 209 147 70 68 0 144 117 228 60 65 16 161 8 183 162 251 140 80 85 102 78 168 133 79 227 215 16 67 96 87 107 152 35 68 18 160 118 26 46 212 206 62 51 109 149 35 159 135 213 149 126 167 231 7 196 208 183 63 249 136 148 82 45 117 12 174 9 232 128 173 70 25 118 173 165 25 197 87 45 244 127 254 226 40 194 88 223 110 131 4 112 29 82 220 225 69 52 34 12 155 216 47 69 251 30 135 155 102 42 215 189 81 219 113 145 193 29 184 38 72 190 109 199 212 111 219 84 145 107 53 195 108 212 178 167 52 188 151 7 163 111 88 128 89 249 52 151 155 84 176 11 197 17 99 203 61 211 138 50 84 235 200 35 166 18 97 232 185 159 118 185 103 36 162 9 160 27 240 233 99 157 195 25 237 44 186 87 214 8 12 244 116 116 232 218 151 11 180 209 193 145 151 193 72 87 171 238 56 197 87 34 137 46 243 138 60 7 177 208 12 87 135 17 89 45 84 232 161 145 61 15 111 78 194 218 41 231 138 219 33 173
89 204 177 252 188 147 21 196 178 191 91 151 39 189 30 148 244 197 65 96 181 170 74 66 122 210 40 81 19 156 168 217 191 135 82 208 52 234 161 114 205 85 98 66 195 201 40 212 66 0 24 106 243 4 152 43 119 2 101 97 159 65 137 75 108 54 124 24 136 114 100 163 81 152 175 172 151 56 109 190 193 163 225 194 20 227 202 117 183 193 15 36 108 96 138 207 238 252 242 126 253 28 123 136 118 217 131 234 255 141 118 89 70 127 167 166 218 84 4 170 175 230 172 76 126 217 215 218 115 44 119 94 169 53 164 83 88 168 44 24 162 76 104 68 151 59 201 222 56 237 195 103 144 116 44 136 107 83 120 158 65 35 32 245 3 215 8 224 229 177 13 105 237 42 60 45 195 65 221 226 40 195 20 246 73 244 165 39 53 73 157 237 73 199 39 154 15 233 66 84 16 79 30 110 14 112 4 167 75 124 107 228 65 92 38 174 113 47 148 35 237 18 81 50 226 83 228 42 63 179 197 206 105 1 180 13 162 218 8 21 196 8 218 21 128 229 147 78 190 251 74 92 104 23 26 213 0 75 1 106 158 161 145 253 58 188 252 72 154 80 89 37 170 254 167 220 206 147 28 23 177 94 188 19 200 201 248 10 86 51 160 72 81 44 174 9 37 156 17 133
37 96 84 111 13 5 69 8 248 81 233 134 79 21 86 94 156 230 161 151 247 207 0 167 47 88 25 78 22 139 44 154 58 26 74 16 143 48 181 56 180 27 14 104 217 204 207 124 73 163 247 176 176 233 69 158 228 215 209 86 242 117 163 5 242 171 239 207 182 222 81 210 95 125 23 154 174 125 184 111 218 121 187 210 83 176 218 224 86 113 82 201 110 152 152 233 140 100 37 115 133 106 97 60 226 6 174 45 205 45 180 20 133 179 152 205 108 75 254 81 150 18 1 45 189 61 81 177 205 28 135 85 81 10 62 49 84 122 142 20 226 212 182 73 62 155 70 12 81 174 155 107 209 152 212 33 187 92 123 179 93 57 76 26 80 198 108 113 235 53 8 65 10 152 192 221 14 184 28 249 13 162 68 110 167 82 171 222 129 184 165 110 196 142 165 81 219 141 214 173 19 30 208 194 145 252 145 112 175 38 144 242 48 1 239 141 203 132 91 156 211 231 24 220 98 90 233 11 81 97 53 135 209 26 153 120 15 139 222 204 142 93 208 47 196 82 158 152 188 178 16 194 187 229 75 5 185 89 180 210 246 143 180 63 26 137 44 119 47 74 172 1 198 165 209 127 197 221 186 189 154 132 71 139 155 193 94 193 181 92 68 239 118 0 119 168 223 23 226 24
249 159 22 17 197 144 215 90 219 188 176 136 97 169 34 140 193 148 188 206 205 4 211 31 252 21 234 70 29 112 52 247 85 240 189 70 182 15 120 52 103 198 126 243 191 12 61 106 227 30 95 45 82 21 49 216 189 91 105 75 191 63 148 85 95 25 177 245 161 241 24 35 75 157 51 203 196 221 253 242 112 153 47 134 52 255 72 22 100 19 151 149 48 61 192 56 113 128 214 51 23 6 71 212 86 221 247 131 117 129 104 232 23 242 240 36 148 64 164 134 68 233 146 112 148 204 61 108 231 80 187 190 18 119 81 91 156 56 43 168 66 94 224 138 136 12 230 9 185 189 171 76 87 208 15 174 29 18 140 198 229 47 245 201 154 43 88 228 30 255 116 192 59 142 242 10 191 179 199 102 180 179 5 53 35 18 214 122 116 116 243 227 48 171 109 198 169 97 106 49 12 21 136 36 49 225 30 22 28 55 138 220 89 226 97 25 63 113 26 54 166 223 30 36 31 59 69 220 22 243 58 24 230 220 208 83 66 199 241 178 215 208 22 15 83 5 175 253 212 78 32 5 251 204 38 161 137 242 5 214 28 41 249 15 190 55 70 180 6 149 80 15 22 145 129 171 32 232 184 49 119 222 4 9 81 113 179 123 71 154 102 220 76 62 133 167 240 153 125 133
214 132 204 87 48 78 125 164 37 206 18 80 53 209 137 67 192 189 164 164 147 56 138 226 29 253 43 36 131 210 167 241 166 99 197 223 204 245 41 183 26 144 99 60 234 166 103 254 92 29 206 99 15 157 126 126 68 45 34 143 75 145 7 255 166 202 126 187 152 170 18 239 113 20 151 92 33 250 128 209 255 66 58 182 96 10 92 176 93 224 171 21 178 45 77 192 7 24 178 141 190 79 192 228 178 65 134 14 64 72 14 242 134 168 212 237 189 34 242 102 95 184 143 107 45 85 32 54 231 1 23 159 54 35 126 154 27 122 107 105 73 110 17 144 197 11 200 164 239 84 173 28 246 12 161 18 200 7 198 70 13 80 254 21 12 37 181 225 134 121 169 140 4 118 155 225 88 97 81 118 192 183 156 245 3 139 221 94 229 21 118 42 128 252 186 229 216 130 211 16 242 35 60 190 194 203 104 198 43 138 23 136 113 114 129 147 31 158 114 211 115 103 166 93 154 43 136 192 98 113 161 233 90 27 101 116 233 57 116 188 100 193 89 147 190 247 121 139 226 60 8 113 243 16 115 140 231 240 169 230 184 2 146 39 171 129 252 92 209 214 189 200 9 21 202 6 83 169 225 125 204 129 52 64 84 11 181 199 151 178 189 203 235 189 66 111 168 12 24 248
83 69 32 155 139 84 198 9 234 182 50 141 97 224 242 87 237 198 151 120 181 106 141 221 108 223 101 204 245 15 73 182 42 80 162 253 58 22 220 170 65 70 1 83 18 62 178 100 78 76 90 144 83 61 252 142 94 147 103 50 41 136 163 116 184 175 154 139 242 79 143 134 216 174 176 113 61 56 39 215 176 82 72 133 20 183 195 136 118 1 32 56 34 79 183 168 201 243 153 120 234 155 24 184 38 99 219 142 106 213 101 46 99 81 31 38 200 106 198 148 207 39 144 133 50 123 108 61 131 194 69 124 67 140 218 35 133 118 220 235 12 117 68 128 86 224 121 23 146 215 29 34 20 98 99 174 41 210 12 48 252 121 214 134 189 235 124 232 23 148 4 254 105 28 62 64 148 223 5 28 32 81 224 248 219 63 23 166 72 64 102 10 160 108 44 75 99 233 20 163 165 78 95 118 26 37 76 180 165 37 27 55 100 24 74 136 230 163 15 173 81 51 196 140 77 253 21 91 247 164 87 164 242 27 63 179 240 210 144 163 115 34 200 243 229 113 140 135 148 10 103 188 152 109 152 175 102 84 119 247 241 73 167 96 19 24 62 254 229 32 182 216 97 152 101 172 63 167 67 202 155 204 223 20 24 34 202 54 124 241 59 206 240 151 25 49 182 215 223 151
248 41 139 105 205 202 236 48 217 4 53 225 183 132 38 190 210 124 19 232 0 231 212 228 114 176 46 118 66 238 254 21 4 250 151 172 31 33 178 96 18 159 180 218 172 219 86 160 215 172 19 112 192 215 46 122 138 199 222 165 214 210 18 143 86 90 15 181 26 90 24 90 184 245 97 249 30 165 217 181 172 20 149 56 1 235 133 119 162 191 169 99 193 232 20 115 219 10 27 29 10 41 59 35 88 213 253 11 170 135 200 4 87 63 52 210 89 102 239 86 23 165 83 142 48 149 154 203 107 89 109 78 72 88 126 117 187 80 184 167 246 115 238 135 172 148 82 122 232 104 83 118 219 139 82 89 95 18 34 157 225 235 147 33 157 180 215 2 83 122 195 211 209 216 1 119 92 89 8 1 46 193 175 197 76 126 104 233 18 147 247 200 80 242 181 220 77 135 14 174 226 86 42 92 120 15 226 211 141 229 152 171 20 31 29 72 213 251 75 28 97 175 142 59 18 181 139 66 126 113 29 145 167 135 235 135 18 254 227 184 53 149 196 95 50 223 198 4 183 200 213 200 143 220 29 56 251 206 26 49 38 170 135 17 131 73 35 248 69 242 118 96 97 6 68 198 65 139 134 71 126 21 38 17 246 128 84 36 99 61 108 159 95 60 46 167 162 148 220 32
88 106 139 125 194 209 16 108 92 117 198 176 170 214 103 12 77 146 126 213 198 253 203 113 203 30 59 217 241 156 78 58 94 1 206 58 170 60 175 203 214 168 104 28 150 108 109 229 108 166 176 143 183 25 103 222 205 192 35 143 108 58 37 108 144 102 0 108 49 163 171 123 167 200 203 190 134 213 78 236 75 89 46 139 171 132 178 179 170 196 235 65 33 241 139 23 75 15 153 255 199 158 78 18 67 3 8 148 121 206 63 46 229 112 157 25 6 136 179 147 95 223 145 208 242 204 163 126 41 89 204 182 128 208 82 49 114 102 11 117 78 183 110 32 39 108 43 51 199 96 215 219 103 247 70 123 196 216 145 134 174 114 184 208 123 193 191 75 93 198 253 70 5 23 189 188 250 64 62 75 46 40 180 91 152 240 12 214 0 135 194 52 151 57 142 86 18 112 81 176 160 154 145 60 24 122 128 62 74 190 232 226 156 120 125 81 162 137 132 198 145 19 56 13 172 58 85 10 180 115 188 13 252 113 253 136 237 31 45 166 124 95 183 36 46 70 213 111 188 138 228 123 194 155 144 190 250 154 157 16 55 9 138 147 191 100 93 221 254 82 116 231 205 149 118 117 189 120 182 111 141 30 19 69 205 207 35 168 7 45 73 39 6 166 123 182 103 19 114 0
1 203 191 86 85 82 179 37 195 42 151 106 2 147 173 70 171 80 179 147 139 133 199 207 29 119 45 221 166 127 27 230 164 81 131 49 216 68 227 189 180 87 71 231 65 162 161 137 82 116 17 132 79 113 85 147 90 110 143 59 17 129 39 68 46 138 193 157 126 157 235 23 72 186 241 246 190 79 237 195 44 116 115 103 62 89 159 113 35 99 58 255 115 129 20 186 95 55 78 210 18 151 162 6 218 42 64 199 233 227 67 199 252 202 225 131 88 192 67 5 247 110 161 129 142 48 200 78 160 159 216 149 4 165 153 80 221 75 194 253 8 29 106 118 141 14 190 97 154 183 43 238 105 87 168 185 31 35 162 123 229 136 190 199 33 25 33 90 155 147 31 125 63 79 14 57 217 19 130 38 161 122 37 84 234 102 37 122 99 15 99 0 21 75 86 9 253 37 130 161 215 247 58 88 146 188 137 26 235 127 249 148 255 196 220 105 127 63 84 239 255 141 183 115 56 105 91 6 141 164 56 54 122 131 13 94 29 76 106 103 147 56 102 8 220 136 204 131 223 215 101 225 107 0 107 67 29 29 96 175 56 6 32 241 70 195 48 86 230 128 72 136 56 169 64 190 85 185 123 20 53 57 247 168 134 32 24 12 185 50 111 57 171 3 100 44 14 158 149 45
48 4 85 62 104 89 27 183 176 211 122 112 126 100 75 116 227 58 192 208 177 30 79 118 205 112 33 241 0 208 78 178 242 63 159 167 105 94 117 145 8 150 10 186 27 62 239 250 164 157 14 75 178 210 251 95 161 13 34 252 125 59 179 158 237 179 214 207 126 166 148 122 26 8 79 196 78 9 7 168 251 81 176 11 174 24 189 102 170 151 152 184 254 235 134 40 77 166 39 95 31 209 217 231 123 171 6 206 214 29 164 55 146 165 80 199 14 17 195 253 44 193 163 99 222 57 173 11 108 132 171 95 207 72 90 213 80 218 162 182 110 17 33 177 36 212 152 102 10 139 54 133 117 124 133 88 141 24 104 16 205 101 161 187 220 154 76 39 46 88 209 131 60 155 63 53 224 94 177 34 114 91 183 20 93 77 37 125 222 76 128 238 200 241 239 249 238 100 195 80 119 105 173 244 160 97 210 83 55 244 6 210 208 17 25 56 96 119 221 156 208 127 145 20 129 6 245 250 21 26 49 49 86 94 39 67 56 36 117 166 82 132 60 37 92 40 235 126 123 63 162 26 240 15 42 139 136 39 119 229 222 227 217 243 20 186 112 187 120 50 70 64 23 179 25 32 242 204 85 56 92 37 122 246 78 14 138 202 14 88 221 48 245 63 110 129 167 106 167 147
172 92 129 101 126 155 228 163 146 106 221 34 33 65 244 35 213 117 76 173 91 118 244 219 179 102 58 199 217 132 227 233 173 43 254 158 137 255 241 140 127 151 88 253 89 232 11 191 18 4 220 41 181 50 30 229 179 25 13 39 179 137 13 229 150 99 0 61 163 156 114 67 52 171 38 101 54 15 198 224 40 95 138 65 230 167 229 100 41 41 29 230 108 96 63 209 77 174 67 202 5 49 95 54 151 9 210 108 224 21 51 46 42 240 34 2 37 11 63 122 15 40 113 22 143 142 128 132 72 108 219 36 131 140 40 51 146 53 8 112 93 100 149 136 4 153 124 122 195 161 24 196 37 60 61 35 47 64 124 255 74 95 130 39 123 74 88 34 155 250 244 64 83 67 16 87 200 192 247 254 119 109 42 158 254 117 204 215 125 56 148 236 222 0 57 33 130 126 90 124 141 77 248 252 60 90 54 63 121 216 185 249 46 11 198 105 63 202 133 72 117 124 15 159 100 134 68 182 176 79 228 111 242 169 161 1 177 154 212 35 192 187 0 152 42 30 112 171 95 9 44 210 218 205 196 21 133 58 184 173 7 237 148 183 134 157 108 66 132 68 89 92 229 214 4 71 189 135 90 173 129 98 153 229 51 194 224 233 224 66 244 31 182 116 57 195 23 246 173 21
233 172 125 15 205 46 69 113 6 224 247 146 20 22 46 42 33 65 198 185 220 57 221 192 177 9 150 167 147 145 78 96 221 198 238 248 247 84 185 39 211 32 107 2 126 154 107 238 49 164 108 132 88 14 38 183 54 100 31 17 41 55 228 126 232 50 53 87 216 218 88 103 5 7 23 51 71 39 219 175 33 184 146 121 71 64 250 40 81 159 134 166 43 235 29 199 34 170 170 175 217 184 249 129 181 123 179 18 69 53 177 169 145 148 132 128 174 237 126 39 100 2 246 208 74 51 26 72 43 214 132 18 137 116 63 58 233 124 116 237 222 180 84 181 4 19 46 251 110 145 192 176 205 14 56 86 96 103 213 184 95 232 227 247 101 189 242 99 215 247 3 144 97 245 241 60 155 232 200 216 158 17 248 207 235 254 56 147 198 67 25 227 251 170 103 9 76 124 245 242 49 153 20 92 123 191 10 9 231 221 229 209 217 96 51 50 217 44 141 246 246 42 229 11 99 99 15 92 118 89 177 221 93 174 137 51 101 41 27 185 178 166 233 113 135 139 194 41 59 59 3 157 144 147 91 185 104 17 170 152 77 164 198 28 101 134 1 39 155 84 144 25 215 1 84 26 42 120 130 86 32 148 55 135 244 248 197 30 226 3 13 172 41 41 74 93 159 17 146 163
64 54 7 12 74 250 108 126 160 17 195 241 5 186 196 161 35 129 55 154 253 25 152 255 39 227 79 142 109 98 9 103 234 95 176 144 163 155 45 166 7 65 219 235 189 200 193 79 216 29 153 3 88 170 80 126 23 125 255 127 214 29 176 209 202 236 7 197 133 79 92 118 164 122 143 53 198 13 23 163 139 82 168 202 24 241 122 31 26 192 171 26 20 32 178 143 3 131 226 176 141 108 41 170 65 241 102 100 126 78 228 193 144 159 83 205 133 119 110 196 94 52 213 85 54 38 54 29 196 175 36 227 199 51 103 135 250 14 44 42 163 248 202 104 83 144 205 29 216 217 188 63 91 24 248 153 49 171 213 45 246 8 187 114 223 158 212 185 72 58 66 133 72 249 95 110 29 108 217 244 131 148 151 11 46 79 43 103 3 171 219 253 121 3 233 109 134 228 21 95 28 39 3 40 173 58 104 244 247 186 132 81 24 187 94 206 86 42 133 173 235 251 21 246 4 228 243 131 157 227 96 141 132 221 41 243 198 171 98 25 202 85 226 251 240 120 149 54 78 73 209 32 150 63 188 5 74 228 204 244 111 184 87 172 192 101 61 80 130 36 122 144 22 105 24 249 224 253 234 114 139 31 247 104 33 19 160 237 71 119 122 244 4 159 138 24 1 177 111 142
110 58 43 182 196 160 193 146 70 153 104 170 130 148 116 243 129 138 240 178 199 211 92 149 56 42 110 0 99 64 124 38 18 88 218 93 30 81 78 98 185 127 195 39 241 52 39 50 96 67 126 147 37 174 150 201 255 236 135 102 75 33 222 79 236 232 139 184 27 83 31 56 84 105 102 108 126 207 125 222 58 213 163 117 56 82 168 28 28 11 219 171 203 133 141 251 210 222 89 254 231 40 117 13 224 24 197 195 146 245 19 126 66 70 46 17 64 130 201 244 227 112 49 95 212 107 137 31 2 167 110 224 203 117 167 166 153 6 40 232 28 158 181 191 227 46 111 99 73 129 75 211 188 149 139 64 95 245 252 3 41 85 131 145 56 62 62 206 219 21 137 217 19 234 137 1 141 207 201 44 154 255 180 176 51 128 43 110 121 206 201 255 185 100 210 96 4 215 175 213 162 250 246 4 187 171 5 231 188 67 197 88 142 99 165 111 210 83 139 136 248 136 235 241 65 151 38 236 205 2 56 255 98 50 39 18 217 254 15 43 196 126 66 159 247 234 181 81 230 82 19 115 88 219 67 134 3 133 155 76 230 169 159 205 86 44 127 238 124 156 78 165 252 176 117 225 131 221 219 238 30 93 143 147 35 186 132 121 45 224 12 219 216 211 192 20 40 104 231 101
241 139 167 15 138 51 34 180 92 7 173 145 2 145 251 250 186 98 235 129 25 95 214 129 15 2 192 138 200 148 179 190 92 213 208 53 52 231 54 163 152 100 241 161 87 159 226 151 33 75 117 126 248 187 166 9 240 72 96 114 155 210 88 77 65 175 188 125 9 200 99 39 110 30 168 142 62 138 236 91 48 110 75 98 132 189 159 76 53 248 237 243 149 10 251 126 52 243 84 118 133 238 34 154 216 51 122 108 34 91 231 95 19 133 159 103 139 26 161 20 237 190 173 60 248 156 43 115 216 150 245 43 36 51 240 169 237 251 179 137 54 110 59 84 53 51 35 57 173 166 13 191 245 239 91 156 221 239 177 226 254 231 122 106 48 174 117 151 59 100 234 128 216 193 4 27 168 205 13 219 180 178 205 30 200 67 113 223 3 47 165 221 106 103 17 93 105 142 220 61 234 93 59 75 31 167 80 149 103 198 119 117 163 199 175 247 113 51 246 50 147 36 227 123 53 58 129 232 208 120 196 222 161 57 44 9 187 250 198 28 39 138 9 231 212 181 160 90 220 45 60 139 59 188 133 55 166 230 132 215 59 206 230 110 103 64 217 118 207 166 173 26 239 107 52 153 116 36 149 150 178 94 18 172 19 158 185 166 172 62 46 252 54 170 221 190 225 180 141 243
84 35 4 93 225 71 105 73 97 220 49 146 240 157 199 0 145 53 207 201 231 74 13 163 116 211 120 26 152 216 151 179 129 137 154 222 48 36 68 214 6 240 80 174 58 184 156 3 51 74 53 105 143 151 175 110 66 88 159 112 8 212 9 107 45 35 82 120 227 51 246 158 196 100 158 130 113 4 18 214 228 14 2 45 34 253 247 157 118 8 0 164 64 175 171 254 115 188 147 166 34 98 204 192 12 252 219 107 254 105 192 178 31 130 96 128 219 196 42 209 69 99 115 200 59 94 147 142 181 198 94 128 181 70 215 236 173 60 12 14 135 199 207 241 107 85 78 177 216 123 72 27 22 239 252 44 47 212 43 220 157 223 12 124 156 56 148 156 72 112 156 174 26 249 130 117 161 129 58 5 180 177 167 182 10 244 163 66 162 68 200 100 128 16 28 45 246 218 239 194 138 26 3 166 166 237 185 163 145 250 87 52 24 74 78 150 84 181 155 103 85 146 134 100 142 65 227 106 221 222 165 11 250 80 35 48 151 222 153 190 10 222 235 94 108 30 19 72 127 107 255 220 116 213 66 133 127 88 130 160 184 172 253 81 89 156 37 175 36 170 9 153 110 174 179 50 86 71 225 162 82 199 56 194 75 24 165 205 55 132 97 111 186 182 148 100 9 164 201 177
241 253 174 48 117 144 184 56 15 255 47 128 31 12 131 190 79 9 58 194 37 46 174 194 15 231 197 98 54 13 253 0 103 252 240 151 248 185 159 247 79 24 138 161 64 128 254 137 72 181 80 137 249 78 113 144 127 131 210 222 45 146 118 240 131 101 200 228 148 65 62 185 84 79 46 191 248 88 23 9 185 197 199 156 182 23 101 93 118 148 101 121 232 40 18 190 185 39 106 99 37 251 232 65 93 28 29 107 177 253 211 165 38 247 118 250 198 227 174 229 184 199 247 31 182 189 111 7 60 248 14 54 86 50 9 184 41 59 174 51 115 215 196 138 69 72 198 208 68 220 231 113 105 168 145 238 38 175 122 72 217 187 63 149 144 141 174 228 93 136 92 37 72 40 248 20 81 244 145 169 171 99 97 114 188 88 213 80 246 1 154 9 118 35 160 165 203 97 84 132 8 78 111 10 59 152 83 239 97 223 18 44 190 11 212 20 74 246 156 248 221 162 177 100 48 178 0 234 163 226 90 198 194 125 253 14 15 92 116 65 2 6 122 120 199 127 243 58 239 215 97 173 224 241 252 45 231 140 205 89 131 100 200 35 44 70 193 89 248 64 147 169 110 57 86 121 192 105 34 60 151 172 125 230 23 10 241 135 50 85 188 71 102 118 176 207 48 199 197 221
170 220 189 22 83 142 147 68 231 218 122 51 196 45 5 32 206 10 89 242 162 237 128 62 33 136 208 194 190 98 152 254 217 23 78 60 113 205 181 191 52 157 185 127 14 159 181 88 242 89 211 76 245 6 100 142 157 133 200 234 140 9 150 29 20 57 149 56 146 17 242 46 198 35 214 1 247 252 94 85 140 223 133 175 106 5 100 153 173 239 229 81 130 152 222 166 227 1 42 24 160 134 174 102 189 42 50 101 209 171 143 192 203 26 196 54 171 200 241 175 194 247 187 111 168 68 107 88 113 87 78 84 159 162 73 19 208 209 199 165 23 168 195 76 189 99 93 45 251 194 132 135 14 214 74 81 170 22 146 82 224 199 83 142 153 173 187 45 223 166 213 156 117 123 254 71 75 227 53 141 4 201 210 190 54 214 66 245 5 163 159 85 133 161 100 226 197 169 64 162 188 183 141 212 152 25 206 23 53 234 175 145 116 85 194 12 52 109 112 182 102 204 60 16 111 179 74 52 107 23 171 95 219 174 209 92 230 234 12 21 158 76 34 234 21 182 143 22 208 185 191 7 15 106 112 178 185 200 166 223 118 220 73 134 95 103 16 226 74 254 192 166 129 56 152 63 38 67 118 29 110 16 143 238 243 58 73 54 149 124 149 81 35 155 3 141 80 105 165 68
242 159 150 52 97 40 87 123 252 143 216 235 228 177 1 87 204 143 27 64 209 161 140 220 120 220 126 222 226 5 206 59 189 29 10 170 42 219 173 127 140 54 153 17 233 151 29 91 126 145 196 81 10 1 70 156 23 21 60 116 132 90 217 63 26 4 171 229 214 183 29 83 87 116 206 148 145 22 18 37 41 86 17 111 223 26 108 229 150 169 164 221 74 234 111 168 149 186 204 55 31 175 159 146 239 86 218 104 89 226 234 122 254 219 158 93 63 200 30 62 243 17 79 216 53 36 59 30 176 147 36 242 189 171 154 200 143 184 134 27 28 183 39 236 51 204 88 173 237 63 255 188 191 114 76 38 171 123 175 81 173 51 38 25 225 213 99 155 56 223 135 240 7 148 52 210 126 160 201 223 41 161 34 108 254 139 229 84 1 158 213 12 8 3 103 167 24 60 100 125 225 223 117 226 132 184 34 187 5 89 167 235 45 68 135 158 113 138 227 141 81 216 36 11 147 246 209 144 72 121 18 74 107 9 20 122 19 153 220 210 186 32 53 74 189 183 48 71 47 57 50 35 214 194 134 12 82 232 171 235 212 1 232 110 4 158 208 177 54 31 57 51 238 221 225 219 214 238 76 150 180 90 94 81 35 128 33 127 67 188 177 45 249 45 74 215 16 40 97 141
116 250 108 177 16 235 32 241 218 113 33 69 238 247 188 98 38 72 131 254 96 211 192 59 73 93 105 73 47 113 137 13 41 213 136 164 8 79 235 204 11 26 229 0 115 204 90 177 131 184 137 27 34 14 239 19 175 160 114 153 204 199 117 214 69 41 72 197 170 169 37 97 185 142 161 68 242 35 214 19 29 176 87 220 254 66 137 223 173 148 0 83 168 240 162 242 179 241 31 127 55 15 167 60 27 241 63 220 4 119 0 184 93 45 47 205 30 170 192 144 106 251 186 122 44 197 207 34 156 218 84 63 195 108 177 223 218 116 50 42 199 119 44 35 84 128 51 94 184 251 26 242 118 12 181 227 208 9 168 236 200 212 34 28 46 227 72 39 182 208 65 82 43 231 237 209 149 63 53 255 121 112 84 27 87 145 13 98 181 138 113 92 104 141 112 211 175 241 160 151 221 20 21 79 9 81 210 225 243 201 244 1 59 24 229 38 3 12 7 7 13 133 191 14 219 29 15 212 54 69 220 23 39 30 116 206 50 173 138 11 33 216 92 31 172 8 117 221 7 90 47 96 8 99 26 171 15 15 97 201 7 24 113 70 178 138 154 43 52 18 170 234 209 179 225 35 59 138 182 137 148 162 106 116 130 214 2 175 38 157 190 89 56 250 79 185 211 53 104 226
234 219 18 48 221 21 237 14 91 239 205 225 70 97 128 78 87 58 80 88 25 132 244 204 157 114 143 179 148 181 124 51 196 115 80 49 58 226 254 36 109 219 131 251 200 175 100 88 164 98 156 185 70 195 190 100 216 16 42 133 91 75 222 178 179 237 29 250 25 209 59 193 170 141 233 156 133 63 246 135 18 34 7 16 198 64 117 241 180 110 253 240 202 147 175 164 3 71 26 100 63 14 10 235 94 27 112 250 219 216 70 230 165 45 27 42 214 153 166 233 210 18 126 189 201 49 65 231 168 14 125 37 137 227 164 232 161 250 36 230 6 205 122 115 113 252 213 181 60 183 124 152 4 195 116 139 18 44 210 193 98 29 170 195 93 28 110 40 10 25 30 17 83 194 52 179 145 225 228 19 249 192 92 38 22 205 184 22 19 141 39 96 116 12 176 246 205 149 35 127 106 238 105 191 142 117 216 196 168 242 149 137 67 156 195 235 218 244 77 116 245 178 100 163 250 30 202 5 200 18 254 8 6 101 24 151 230 95 44 97 209 239 13 216 159 69 218 44 136 35 34 210 112 106 230 109 22 213 116 179 18 66 137 79 103 105 9 90 137 17 80 26 133 39 9 207 250 2 37 163 64 214 38 228 192 174 225 98 71 240 225 117 121 40 32 17 189 224 19 180
190 118 187 168 139 233 112 90 120 48 34 243 149 115 41 79 0 166 105 233 250 29 195 93 16 163 6 161 90 95 47 12 241 42 66 145 81 164 158 66 66 205 80 158 125 94 35 225 48 5 135 7 231 94 134 196 146 76 54 199 125 245 188 173 187 176 58 122 101 185 211 239 202 128 140 197 181 5 47 192 124 106 250 114 147 12 109 128 248 58 24 135 120 165 90 119 251 228 79 191 226 43 17 177 14 185 128 41 203 81 140 90 181 151 57 45 175 143 192 236 234 20 236 115 168 251 4 35 73 157 28 238 91 190 58 184 135 144 129 39 17 250 233 241 98 206 141 90 182 147 37 112 143 250 42 210 34 60 66 192 109 79 82 194 187 37 132 123 70 254 146 22 90 195 243 237 159 27 178 46 68 81 99 93 209 217 150 66 88 147 217 0 119 152 69 150 84 27 109 242 86 153 114 179 255 37 33 238 25 170 200 143 183 159 101 102 230 209 170 42 135 179 169 129 146 232 237 62 199 220 170 77 46 244 190 111 72 186 174 85 185 15 186 95 177 137 49 15 34 240 67 194 243 52 198 25 7 81 56 16 151 148 133 16 100 15 55 127 76 73 247 204 90 242 175 228 78 94 83 68 136 84 145 24 66 232 135 106 35 237 96 223 3 141 27 71 246 234 100 65
173 130 188 102 152 96 219 188 211 153 219 231 204 146 240 11 159 4 66 181 139 62 213 174 95 16 38 105 194 28 161 250 137 102 8 18 28 175 131 197 132 5 73 28 31 113 69 74 231 218 146 96 150 67 84 249 183 78 186 17 12 140 211 193 154 146 212 241 100 52 246 26 10 2 86 124 106 84 128 137 173 182 190 189 174 238 150 126 56 62 183 82 41 44 22 138 144 66 204 254 165 13 222 104 97 69 67 214 251 200 19 50 35 244 67 204 57 40 27 34 225 169 130 236 123 30 189 237 75 62 122 80 138 244 210 60 21 94 160 96 157 207 255 27 214 72 158 179 159 64 77 166 211 167 61 215 125 155 108 246 195 245 122 142 211 147 52 124 254 113 215 59 238 143 31 232 8 45 101 84 95 117 35 62 234 232 136 215 214 20 88 58 14 91 26 210 172 228 238 73 153 231 49 110 137 87 55 66 206 212 1 92 75 129 201 173 82 124 52 140 82 0 217 162 102 241 202 144 150 218 182 146 232 247 219 254 94 216 24 80 19 139 17 6 175 54 48 41 140 54 55 226 108 159 34 42 174 146 222 71 80 207 68 201 132 129 252 2 84 169 10 182 91 153 25 42 225 142 221 4 76 3 1 87 30 120 9 174 164 227 152 177 36 42 62 92 150 104 63 205
93 3 37 10 139 57 45 84 104 178 15 73 190 195 135 26 162 188 176 162 76 242 227 244 41 5 102 112 133 58 83 171 143 36 49 86 191 15 221 252 186 123 166 104 49 34 187 240 208 165 117 159 172 220 254 68 160 131 45 84 165 187 235 47 252 142 177 84 195 206 18 112 37 123 133 4 28 235 70 195 222 254 25 162 56 152 78 36 21 221 5 153 70 236 23 72 85 224 211 33 205 173 195 66 161 34 209 254 24 111 1 7 146 85 66 85 170 15 119 2 199 157 118 72 42 154 239 251 41 104 75 46 72 82 242 31 251 164 162 171 135 67 246 3 195 136 149 82 15 129 155 165 162 233 122 240 233 19 239 209 41 114 68 251 65 204 188 220 70 37 136 34 218 106 250 198 248 136 176 140 188 164 121 168 82 57 153 172 111 65 126 84 99 128 171 90 165 19 252 222 122 252 219 76 225 148 107 198 227 41 189 153 3 30 183 40 207 204 236 203 151 255 206 211 3 169 164 108 234 253 156 13 228 151 37 206 240 164 237 98 4 163 236 184 127 153 127 4 77 97 245 75 33 223 106 220 252 249 55 202 160 165 247 56 175 47 192 19 217 60 215 193 115 233 24 232 2 235 215 143 139 160 33 63 156 11 172 76 60 83 250 80 138 170 97 251 90 136 47 173
25 224 208 123 234 59 98 238 186 163 118 91 145 223 20 94 110 207 167 222 69 103 169 128 16 252 224 136 194 123 78 172 252 205 148 6 80 198 123 210 16 217 31 249 131 214 27 93 227 183 202 102 57 127 108 62 190 249 87 127 40 177 252 210 165 158 132 207 19 185 191 6 4 227 195 26 6 93 77 103 113 88 220 223 35 32 24 176 5 171 66 208 3 190 237 65 62 33 126 97 166 243 197 134 212 101 0 180 86 184 88 101 181 64 87 16 78 24 25 54 248 8 0 131 224 31 24 107 155 119 133 103 29 81 216 11 185 70 120 26 229 194 10 127 31 160 175 97 62 90 94 206 11 174 187 71 92 129 38 40 74 205 24 207 6 199 239 29 89 180 159 67 141 136 211 157 240 78 52 93 225 24 143 163 27 124 248 24 219 69 42 1 230 160 98 139 82 11 115 104 142 16 228 126 21 175 70 8 185 146 191 5 145 33 30 78 153 80 124 51 193 19 91 166 123 12 143 216 144 42 173 108 222 212 147 206 243 143 16 100 56 237 78 2 85 228 113 82 193 211 20 125 248 21 148 109 215 49 108 25 66 170 240 167 148 160 47 75 29 1 195 218 69 214 241 30 222 223 229 64 200 88 47 92 182 236 217 142 163 242 196 109 141 205 136 119 235 154 153 122
173 158 196 136 66 76 6 88 39 82 82 26 67 59 122 222 110 108 12 130 213 245 27 141 121 75 157 89 26 50 180 72 117 85 183 82 52 46 100 86 199 65 0 82 85 222 198 180 243 138 71 166 22 61 84 43 80 148 139 186 197 84 169 250 3 238 42 249 235 151 247 229 241 88 244 23 177 30 219 70 179 76 245 90 197 101 139 172 100 211 140 206 134 5 183 66 63 200 33 113 243 190 232 113 40 251 183 140 71 162 189 49 104 232 238 62 177 110 238 39 81 18 198 148 24 79 17 85 144 7 23 237 21 199 251 34 154 216 36 97 128 166 227 26 134 13 113 163 187 145 1 201 51 166 18 51 75 19 143 227 45 177 67 88 19 235 185 204 208 227 66 98 104 251 231 66 103 240 238 86 50 203 41 199 197 111 230 62 63 146 20 177 70 120 21 132 251 58 162 1 110 58 141 251 121 229 70 102 163 58 227 62 179 66 76 190 207 74 2 121 175 109 11 222 193 108 7 82 87 207 141 163 226 140 219 35 105 134 213 240 241 209 119 101 75 141 177 12 68 130 42 38 168 52 152 54 93 132 5 211 238 202 140 141 108 177 139 187 212 242 19 238 240 204 32 11 96 63 152 77 130 237 211 234 191 216 151 247 243 189 142 123 201 54 233 53 113 33 56 150
3 53 176 31 175 3 72 31 72 109 193 128 193 234 131 224 254 71 49 235 131 68 117 79 237 11 127 61 252 82 215 154 71 252 183 126 166 19 116 183 252 202 169 193 67 198 17 139 98 37 62 118 68 69 239 136 52 18 35 233 75 93 50 217 189 46 142 129 202 21 1 59 118 35 22 242 180 44 31 248 161 255 114 254 247 165 239 27 9 213 119 192 10 103 105 46 81 81 24 80 134 86 229 106 93 16 213 83 39 169 169 154 220 202 39 171 206 21 83 69 84 38 250 211 244 237 0 9 18 67 191 233 40 248 235 134 119 167 146 190 38 184 161 166 95 74 204 123 48 26 217 52 166 1 239 250 118 201 228 145 69 116 61 221 46 97 190 100 19 147 63 76 238 54 195 224 119 157 211 43 158 79 143 49 169 3 228 159 100 28 231 20 213 0 8 156 137 251 122 35 147 210 171 18 67 25 201 32 15 220 17 136 240 244 67 196 170 60 42 123 8 114 132 35 6 106 216 78 81 111 28 150 43 34 230 213 162 248 208 179 138 24 62 125 52 121 175 74 88 161 164 91 131 115 0 140 193 131 118 144 115 29 92 129 228 102 41 133 103 203 66 22 85 116 1 51 243 249 219 244 3 42 15 233 230 121 25 132 214 215 193 120 144 61 40 140 9 173 123 238
157 16 134 200 250 61 180 89 236 205 187 214 199 232 8 189 243 226 68 29 9 89 183 4 161 87 161 65 165 19 56 20 229 234 57 135 97 18 245 242 207 175 95 23 27 212 176 243 118 235 138 112 72 17 95 66 113 180 127 21 129 62 211 19 187 215 32 15 43 249 133 46 49 75 246 165 143 230 211 131 255 67 195 18 1 170 44 150 241 223 77 82 8 186 232 178 227 127 78 137 61 16 34 231 68 227 127 56 87 190 163 213 243 37 116 49 130 154 255 201 118 142 244 218 127 224 67 42 212 201 177 23 109 43 245 228 185 73 146 92 109 123 34 124 73 36 173 253 36 171 97 194 95 237 216 216 139 3 189 20 158 171 162 186 46 89 83 134 51 237 184 152 188 53 33 73 154 42 203 149 88 189 51 250 168 130 137 234 151 7 77 125 174 22 109 56 168 253 127 217 174 196 242 248 131 253 249 87 227 235 244 96 61 64 252 166 69 19 63 121 101 98 34 73 51 85 25 216 115 47 229 171 93 60 19 219 222 72 206 233 82 121 130 191 244 140 252 198 194 179 143 118 228 47 42 255 210 213 252 162 135 21 20 186 243 112 254 74 224 0 224 204 179 253 9 11 9 121 7 81 224 153 121 107 9 9 139 159 177 203 241 169 187 82 222 209 190 150 61 144
198 241 72 86 233 252 22 52 117 170 127 220 178 0 141 144 92 44 143 251 181 32 30 201 0 62 159 53 151 202 124 154 240 67 70 187 123 238 42 214 183 229 137 182 166 86 176 4 184 8 37 22 97 73 98 114 102 117 72 28 198 98 213 98 185 32 237 145 29 4 148 253 184 197 49 87 36 76 1 13 222 10 250 58 153 251 34 140 134 37 130 108 213 16 158 66 124 165 116 129 87 80 254 127 61 117 233 194 179 41 149 183 27 35 188 140 71 147 111 76 242 84 9 128 116 227 88 81 20 142 123 143 201 78 31 206 124 124 4 62 148 89 254 32 170 153 46 254 26 163 203 75 178 114 236 42 175 117 210 63 222 234 162 154 45 104 221 38 194 194 63 179 60 190 106 66 240 236 220 179 72 172 53 135 86 89 194 164 211 238 204 82 98 40 174 19 231 64 245 224 238 229 227 10 34 185 241 199 106 253 234 136 102 170 8 160 24 60 44 155 212 96 214 217 114 229 97 44 132 99 228 153 179 177 86 219 4 29 246 179 166 161 100 227 241 134 57 218 195 103 39 137 33 124 178 167 152 4 204 74 54 221 75 112 64 93 32 146 195 133 202 9 172 83 166 167 115 47 231 126 117 82 221 177 164 167 92 183 117 212 117 237 121 14 214 24 110 129 119 241
113 56 5 33 240 79 139 41 248 119 135 34 60 68 38 75 136 126 16 16 25 58 210 108 216 92 113 51 108 13 201 229 104 202 117 13 136 21 4 61 104 82 233 211 36 210 147 71 180 137 59 86 5 216 216 236 181 252 118 142 22 242 160 90 23 186 143 227 154 172 165 140 49 251 141 118 171 86 149 184 119 169 7 209 156 139 82 249 218 119 146 36 142 154 80 85 248 29 18 99 42 136 202 102 187 43 117 5 57 118 113 124 182 119 110 39 147 3 86 26 9 111 12 13 72 107 13 35 99 181 196 220 192 57 61 171 148 216 255 187 186 226 3 170 7 45 26 238 26 120 127 90 56 214 244 4 50 35 154 195 72 97 128 233 123 49 61 107 17 97 169 198 64 160 99 127 49 193 156 28 75 156 106 252 88 2 1 179 158 120 196 202 164 156 249 226 228 5 11 113 231 157 190 127 180 160 92 253 101 41 141 234 143 87 39 94 58 73 44 30 196 29 43 190 48 27 88 125 39 129 208 187 26 253 39 159 104 17 8 236 205 196 17 201 34 244 236 86 65 55 156 95 44 158 35 156 233 224 23 153 146 13 34 8 32 148 230 170 15 213 7 249 62 234 160 1 77 206 131 17 68 98 134 217 44 166 89 111 206 183 60 21 55 43 186 210 14 213 232 246
156 201 115 154 74 31 117 152 202 222 183 163 29 192 112 187 139 168 102 33 192 118 76 7 236 112 207 231 12 197 222 226 13 111 248 216 184 99 147 242 59 237 99 187 180 45 161 66 107 80 145 94 31 190 55 248 8 28 153 10 174 86 58 68 123 26 32 48 149 81 105 2 72 75 106 203 103 177 177 84 145 220 247 195 148 67 224 229 190 131 255 222 229 149 25 56 172 127 79 248 86 42 208 64 50 93 21 148 134 204 81 225 83 140 248 172 73 104 207 45 24 80 227 2 134 24 78 61 245 129 215 141 111 212 7 98 120 224 163 227 166 224 21 26 170 243 189 12 124 41 41 169 111 174 231 252 209 43 227 208 22 104 240 234 174 217 241 18 84 143 34 176 7 4 253 95 121 122 186 62 219 0 243 151 246 193 247 140 110 23 37 90 152 146 180 163 110 68 207 234 97 75 5 187 149 53 27 1 92 73 38 6 153 108 151 96 5 61 88 199 87 76 34 73 210 27 198 189 1 49 130 82 135 177 231 216 163 221 141 204 20 144 63 180 206 212 52 210 145 92 135 164 79 65 146 100 145 117 113 47 6 237 86 161 233 122 43 47 76 28 47 247 176 105 191 34 156 212 40 58 35 192 196 6 16 180 83 161 170 227 9 79 135 64 111 98 194 68 16 73
66 198 38 160 156 118 188 103 60 248 57 151 242 139 11 199 9 223 187 173 103 85 114 0 65 92 139 18 129 254 11 171 109 23 43 174 223 165 44 222 26 244 181 179 170 117 126 9 25 112 234 85 158 224 71 56 39 188 114 133 252 233 204 28 140 9 135 199 57 15 9 157 81 40 86 152 222 68 248 253 189 43 79 182 227 120 16 232 152 110 21 126 40 114 93 20 60 163 16 41 7 11 249 206 77 115 211 97 81 145 230 37 90 240 129 18 89 178 222 255 188 71 135 176 176 68 137 131 101 235 47 177 31 121 226 146 190 207 45 238 114 163 121 146 155 63 24 253 132 67 54 244 238 243 12 188 162 219 246 0 21 117 225 152 43 44 222 36 213 72 12 225 196 136 15 141 95 48 114 220 122 223 135 192 232 174 129 140 65 17 131 68 177 231 128 13 249 146 249 144 66 130 60 212 184 117 88 255 53 144 5 225 208 213 137 68 1 188 169 51 84 150 189 43 61 17 80 236 20 97 211 178 144 24 185 76 251 209 44 253 206 222 95 36 140 245 202 250 153 158 215 14 230 7 55 245 137 2 75 148 123 233 90 113 237 130 6 217 75 225 171 42 107 148 167 71 51 55 143 32 160 56 127 214 92 55 67 67 75 74 72 215 32 5 93 217 7 164 73 189
11 140 179 124 57 150 149 120 25 39 89 71 58 74 4 57 53 32 37 237 172 8 237 1 173 114 88 244 88 84 69 18 190 145 246 3 205 48 172 37 94 138 231 98 61 138 10 146 242 35 212 45 37 189 24 59 176 31 150 181 162 96 214 104 194 156 18 7 225 79 35 214 82 210 128 48 221 212 84 106 218 242 229 122 24 93 132 106 137 139 195 84 226 75 137 187 252 185 99 146 164 72 135 30 137 150 23 127 215 127 230 50 208 230 29 184 136 39 93 178 34 28 86 74 41 155 231 26 24 131 42 94 109 182 232 133 25 140 122 29 82 55 36 143 206 241 157 147 47 37 185 218 253 123 240 219 202 37 43 151 157 27 47 215 128 224 78 132 142 41 163 87 89 208 96 203 190 94 143 241 28 106 241 50 163 24 34 138 230 231 194 0 104 123 19 198 52 65 113 0 23 161 12 242 38 104 210 45 44 246 12 149 39 172 176 77 235 12 39 226 94 203 94 211 71 136 24 65 254 152 255 153 207 30 144 88 144 73 226 215 242 104 253 39 57 208 105 68 154 158 9 102 101 242 33 145 21 93 16 239 236 20 44 24 217 32 170 106 52 107 136 120 74 150 45 99 140 175 153 130 84 171 97 28 30 18 67 213 81 235 153 204 148 43 239 108 16 129 19 229
199 231 176 247 181 236 232 238 114 242 132 114 219 162 50 40 251 164 206 91 252 87 179 81 238 211 177 249 251 220 48 110 77 78 166 149 131 242 220 84 34 75 148 21 189 218 176 169 51 11 105 174 120 155 74 166 166 62 100 20 53 87 39 95 138 247 17 26 114 74 221 102 53 80 70 161 186 144 247 238 254 115 107 54 63 83 135 238 79 139 159 142 231 108 144 210 126 110 220 127 73 177 124 68 40 193 57 215 206 141 163 254 106 213 231 176 15 98 167 219 248 143 117 58 195 104 181 109 166 12 56 123 194 153 203 72 15 196 85 45 176 208 117 234 6 13 144 203 254 248 79 123 64 24 37 235 22 197 76 132 230 251 161 135 69 167 205 63 62 33 245 112 59 118 21 187 30 195 181 74 4 15 237 199 67 5 136 149 72 113 74 205 16 139 201 211 24 184 250 234 179 215 47 149 248 167 247 146 39 107 9 77 175 79 134 244 108 11 91 71 43 126 43 175 105 0 120 108 101 17 215 36 247 165 71 154 122 203 17 150 106 9 140 65 177 47 25 14 119 197 102 191 225 147 207 20 110 30 174 109 168 96 198 71 211 212 114 210 47 168 190 159 75 25 67 167 188 180 97 201 182 202 50 49 240 68 119 59 210 63 98 41 99 122 233 144 28 110 10 127
123 170 234 108 102 59 38 156 36 37 101 182 3 100 197 197 236 44 25 223 178 98 95 35 165 206 228 123 188 147 237 152 23 186 85 204 202 57 57 29 4 206 24 108 66 46 42 181 89 73 207 163 44 57 83 255 246 134 74 65 17 164 3 0 252 32 82 86 115 76 136 60 91 154 125 14 31 185 157 218 175 192 29 170 61 36 185 140 63 171 21 27 172 153 29 207 174 171 46 175 171 0 62 183 104 254 143 97 221 6 77 131 193 201 77 233 82 243 23 22 120 110 250 157 56 234 10 102 130 105 31 96 130 108 202 226 176 237 210 165 188 221 226 164 145 105 253 173 173 225 207 197 49 97 176 155 235 216 164 105 239 213 183 166 207 254 59 138 87 55 254 87 116 218 166 92 192 15 116 31 216 199 167 58 206 37 141 160 231 218 92 80 198 228 174 127 209 254 212 138 180 20 68 23 226 185 170 73 115 76 138 141 58 229 140 69 234 140 103 72 67 45 18 2 124 155 143 186 65 200 18 227 129 5 62 244 221 202 33 254 107 195 181 71 210 121 8 121 231 89 1 253 84 93 163 69 198 75 110 245 242 193 138 186 75 150 80 247 51 38 171 190 51 143 210 162 207 159 160 152 173 157 238 230 37 30 210 132 97 208 249 126 184 187 3 3 179 162 220 140
1 51 115 137 234 65 172 86 59 30 74 139 195 208 16 90 42 0 95 225 252 168 234 200 199 63 151 240 191 106 213 37 66 89 211 228 242 193 104 232 85 132 183 224 224 18 34 173 122 242 203 189 207 45 69 225 182 94 167 237 207 162 111 242 196 143 19 66 203 110 46 61 37 114 68 212 134 254 249 94 68 209 209 231 164 41 54 125 246 72 13 88 208 228 166 242 160 251 168 173 151 217 140 231 17 39 127 18 0 244 163 0 184 103 131 216 124 175 78 16 84 51 173 234 141 3 87 96 176 70 110 128 32 36 186 126 220 127 213 108 182 113 16 187 166 180 212 84 250 49 54 111 242 133 209 16 223 38 33 225 146 155 142 82 223 154 219 64 116 61 114 209 169 211 69 20 66 33 102 218 115 251 37 7 204 242 136 230 222 152 173 229 36 29 43 223 27 49 86 0 83 176 28 47 166 93 32 84 136 66 224 106 214 23 70 39 113 164 164 181 62 32 170 149 175 186 192 86 100 70 10 162 175 55 62 195 206 86 45 184 104 190 194 65 159 129 246 143 105 137 76 52 223 66 109 43 19 146 208 139 7 5 163 112 158 54 103 102 209 233 138 33 232 23 14 255 194 41 38 110 53 86 198 1 119 23 29 78 4 108 254 141 226 45 219 11 51 162 107 169
86 166 163 33 160 144 122 146 208 6 233 58 128 75 202 202 238 189 21 218 75 201 245 2 58 211 153 93 84 205 176 195 121 12 229 70 103 109 101 131 152 209 3 240 87 115 146 211 165 228 198 231 122 13 136 76 207 119 46 173 164 90 11 79 213 159 29 38 123 128 129 146 251 208 187 53 46 9 228 218 242 253 102 146 174 172 103 231 173 44 39 221 100 172 120 231 105 76 207 219 157 59 242 129 213 216 105 112 66 200 223 220 69 66 185 88 230 117 72 223 29 225 189 63 239 197 126 173 151 129 203 218 10 0 57 167 154 222 239 234 125 144 38 87 173 7 17 85 153 124 49 219 13 18 108 129 141 0 142 140 117 228 12 180 254 199 137 246 40 199 2 28 145 41 13 53 49 188 113 253 218 211 246 26 33 242 20 14 93 42 5 189 180 30 9 241 136 161 157 227 251 78 113 0 41 185 101 117 171 49 189 234 69 224 84 205 223 230 127 136 62 225 55 167 187 34 190 213 53 52 66 29 69 96 110 252 119 29 1 118 38 89 150 66 40 201 135 164 193 112 130 217 179 114 232 220 24 84 211 37 242 58 219 183 67 151 229 216 46 181 141 4 135 192 98 66 236 53 61 173 176 146 123 81 212 98 238 216 107 58 216 110 181 176 12 76 36 189 116 85
99 75 46 118 125 250 72 84 1 140 228 225 190 179 14 101 12 194 243 236 22 146 92 109 109 115 180 162 170 76 17 223 7 204 112 29 208 153 195 204 244 60 100 241 158 52 107 42 209 201 109 135 189 109 255 77 224 13 3 51 97 49 174 2 15 0 134 128 3 235 184 35 223 183 199 159 36 119 81 91 103 3 227 33 195 190 201 22 156 211 151 58 182 160 132 38 0 175 161 106 216 245 138 65 154 152 43 148 249 56 2 77 8 119 35 123 84 243 84 139 5 94 88 110 1 64 92 206 187 167 219 18 91 99 58 6 243 30 133 38 125 134 106 56 0 210 236 74 166 23 23 219 119 16 23 190 150 78 244 241 191 248 20 48 45 118 241 198 38 112 61 140 32 102 35 202 37 37 164 185 183 0 55 45 9 154 39 219 201 132 5 198 74 39 107 59 13 243 217 14 122 137 21 59 104 193 148 21 72 155 246 48 200 70 186 137 108 123 194 200 5 195 153 200 161 63 199 205 216 191 244 2 87 142 27 32 172 240 212 82 101 158 68 216 78 44 68 214 105 110 86 151 43 215 66 73 33 28 97 137 119 237 158 248 44 199 112 64 23 190 216 205 163 190 24 60 186 29 48 95 248 19 232 40 252 46 5 83 158 150 202 195 81 59 72 215 51 245 185 190
1 117 219 225 186 225 7 148 125 130 66 100 199 171 74 43 21 152 117 255 245 16 238 54 217 141 152 176 50 235 179 30 72 73 151 96 169 77 80 237 252 143 64 84 128 102 152 9 151 71 209 147 246 193 213 177 235 254 120 220 51 58 32 67 243 182 235 96 72 86 44 129 32 54 117 188 172 166 115 229 255 159 226 146 121 31 198 235 172 38 4 186 242 186 48 249 243 156 90 252 3 106 92 131 45 241 252 158 171 44 142 1 19 212 203 104 103 152 163 180 130 16 125 195 71 177 95 253 80 133 58 230 241 212 218 213 153 163 209 54 125 238 208 84 189 114 135 32 58 76 200 17 109 144 195 51 43 13 67 182 130 126 145 64 206 235 195 174 159 171 200 252 85 162 69 91 225 239 244 187 129 227 33 82 253 239 73 239 43 184 25 144 229 226 84 52 64 75 100 151 76 183 114 47 193 166 162 36 215 240 8 157 56 251 93 119 134 205 105 191 197 27 65 179 64 30 6 248 99 22 249 134 110 179 140 24 253 178 143 177 53 219 145 195 3 105 79 229 107 57 129 111 4 94 254 50 82 189 132 16 211 160 238 151 187 218 145 227 21 235 43 223 91 67 187 249 184 251 111 12 185 161 15 107 36 13 91 177 230 43 231 47 115 136 78 3 246 103 136 63
56 189 161 73 208 110 2 33 159 138 201 55 182 48 236 169 201 244 0 114 196 252 152 217 161 174 173 9 172 129 169 235 206 20 10 68 89 41 56 174 219 155 29 145 41 146 49 80 137 129 79 211 89 252 222 116 236 40 182 134 168 149 35 184 172 47 103 145 206 127 182 136 119 242 27 95 90 144 27 107 214 89 192 115 236 116 217 122 64 237 190 176 195 134 98 21 41 147 77 120 45 81 75 123 209 53 237 206 98 193 194 244 249 135 242 252 223 237 84 5 30 6 136 114 167 215 210 204 159 22 55 213 13 240 203 64 83 41 9 154 77 249 107 189 231 43 255 192 131 91 149 147 223 126 225 41 198 25 56 97 142 75 103 127 22 187 65 65 35 176 45 83 31 174 120 112 122 209 6 243 88 98 7 194 175 26 175 173 127 210 118 242 172 107 208 221 3 52 52 182 189 252 240 254 112 148 215 122 70 191 196 74 111 175 212 49 71 205 229 193 131 196 21 240 205 244 84 160 79 67 2 160 172 154 46 5 86 60 45 16 244 180 178 41 173 41 115 233 130 28 62 216 52 25 20 82 63 160 220 220 250 231 145 209 180 9 230 144 131 143 94 56 87 52 39 252 204 136 129 187 230 207 63 242 137 186 99 144 103 222 126 43 122 145 162 253 234 255 135 125
66 35 138 104 83 141 20 176 145 202 30 91 82 198 155 208 151 155 91 229 37 49 96 96 100 43 68 145 101 30 219 215 93 34 164 176 52 39 229 249 34 101 232 140 213 74 91 33 104 129 114 138 32 178 139 144 242 124 101 225 30 214 0 227 11 32 190 163 63 141 151 92 232 49 45 180 219 250 88 109 141 9 150 163 88 26 5 81 119 22 144 104 222 209 242 92 49 8 27 94 117 163 87 62 136 199 89 83 106 247 149 211 244 49 22 91 232 173 217 114 182 179 79 2 179 203 239 66 104 219 30 202 112 115 72 54 75 176 185 70 180 9 193 75 3 125 218 153 33 91 18 8 228 232 61 163 30 25 96 188 137 206 54 246 52 57 150 204 241 161 161 62 53 218 92 100 3 148 152 184 241 167 33 210 36 225 84 122 102 245 148 158 217 182 50 113 122 58 228 146 240 105 149 199 136 192 42 243 44 206 77 246 209 76 218 61 168 229 92 243 7 186 57 139 112 37 31 17 211 114 33 157 246 222 199 67 46 215 15 39 227 151 188 60 129 86 171 169 120 73 0 117 177 21 205 231 31 78 248 72 6 154 118 156 172 109 25 164 143 239 45 174 94 235 221 48 132 240 14 91 149 251 69 128 15 251 90 216 223 227 151 80 219 51 169 254 176 156 139 93
110 53 26 181 165 166 134 98 78 189 15 19 228 100 230 119 252 76 207 69 23 180 120 190 187 4 235 13 140 96 192 4 80 198 31 211 160 28 2 136 128 108 232 207 2 1 158 239 11 134 168 179 228 45 187 131 88 242 27 179 139 149 136 184 22 35 251 1 15 36 130 26 18 243 109 17 116 204 72 75 226 114 224 106 126 192 102 181 142 159 200 148 197 102 112 190 105 170 161 66 181 155 115 108 64 209 127 56 184 89 144 149 224 242 159 223 247 175 189 83 11 140 251 91 4 68 61 151 204 125 71 119 52 62 44 237 68 192 224 98 15 10 176 93 118 142 152 139 143 126 24 89 148 57 18 91 11 117 157 233 16 102 128 90 181 164 57 18 194 217 44 235 134 247 215 192 13 199 1 197 109 180 176 132 49 72 213 76 233 228 17 24 63 21 21 209 236 10 70 107 63 188 60 132 227 234 95 63 211 223 195 231 39 205 227 76 60 61 25 69 244 176 92 203 253 73 134 84 70 67 227 241 73 33 34 190 207 95 206 79 212 213 32 33 48 214 242 80 174 118 161 239 198 100 241 242 29 41 19 78 224 236 168 246 112 209 26 68 63 121 113 115 209 47 150 164 246 101 3 8 218 123 111 131 196 47 246 201 19 163 155 151 230 215 87 146 213 180 19 237
15 252 76 92 184 30 153 195 0 153 35 235 179 154 109 104 233 240 60 71 241 14 116 134 129 189 68 235 189 47 57 217 27 174 220 242 41 64 36 49 153 146 13 73 227 58 115 195 57 248 239 181 139 243 203 232 43 18 161 121 29 98 228 201 102 19 243 201 247 87 169 241 90 4 245 178 76 229 223 161 8 237 38 61 28 154 121 110 23 3 215 16 217 210 139 190 133 84 179 225 94 162 253 130 249 208 105 246 255 123 223 153 135 9 207 239 90 140 248 68 185 180 167 82 163 41 217 131 65 174 169 244 229 247 138 133 75 59 183 130 48 7 82 233 49 212 218 67 33 174 56 236 145 198 189 7 146 60 145 38 226 120 119 226 191 28 95 19 239 5 1 124 154 206 241 145 56 64 8 249 175 108 46 116 69 38 135 24 88 243 172 68 130 8 199 186 252 159 66 241 43 192 165 220 168 23 148 136 136 115 252 72 194 114 2 28 216 120 4 107 91 39 217 134 156 33 177 1 163 146 31 75 91 101 52 139 159 87 132 5 60 204 124 233 81 6 133 171 18 255 77 153 214 179 71 119 222 33 78 152 203 122 167 16 28 206 142 218 129 254 107 66 241 106 29 64 114 45 119 114 233 225 65 22 190 234 247 142 203 31 32 191 27 130 38 139 90 240 152 124
65 167 222 119 221 117 204 46 13 69 231 79 166 221 130 56 92 129 229 148 42 161 11 83 70 122 213 129 110 94 202 137 0 2 61 157 187 49 204 122 104 63 133 231 185 161 228 181 53 117 190 176 149 139 50 252 80 152 153 225 148 183 230 33 191 190 243 148 145 236 238 27 189 26 164 109 135 113 45 173 222 185 111 160 217 146 65 229 170 189 254 103 172 221 123 214 194 2 66 79 162 65 13 73 34 222 197 211 104 133 120 78 24 35 185 112 46 139 28 0 74 200 246 155 197 11 179 105 96 197 133 164 133 11 40 25 79 48 29 113 252 87 252 137 251 102 140 141 236 61 144 123 24 34 181 151 47 89 110 142 239 52 120 213 91 220 87 75 139 246 58 127 14 233 177 82 81 136 158 37 17 16 168 174 1 244 128 116 216 62 250 240 83 55 28 5 85 76 49 58 109 189 149 24 140 112 111 157 97 200 133 34 84 230 32 129 78 161 49 99 135 230 121 105 25 201 169 140 196 6 196 243 143 197 242 203 211 212 203 38 20 102 236 170 33 75 59 183 231 243 5 204 82 184 69 71 161 210 38 238 187 96 34 175 16 30 247 81 19 162 128 38 163 214 245 253 29 160 201 5 114 152 247 215 196 252 191 85 121 180 19 75 161 119 165 140 136 186 85 131
202 59 173 113 50 167 78 229 29 39 126 128 89 93 237 144 109 10 163 49 239 40 92 3 74 10 191 148 178 222 122 236 116 253 209 235 135 199 201 50 202 201 119 60 84 243 7 237 203 106 9 161 25 78 248 239 240 104 179 135 80 10 183 221 47 206 163 12 23 165 135 118 39 1 107 50 107 189 123 61 134 95 253 170 230 194 123 164 129 89 159 128 213 71 117 213 68 80 9 89 65 94 54 145 144 30 198 245 14 242 160 33 153 218 236 202 63 22 103 150 82 218 247 42 231 24 197 202 226 57 139 198 230 125 126 172 182 20 240 35 39 35 26 154 234 166 43 192 198 99 103 48 191 229 253 239 64 198 63 130 105 128 243 32 163 225 160 174 202 232 103 117 27 66 203 112 146 190 47 81 178 239 120 154 210 71 14 104 213 105 4 109 253 184 220 66 124 10 102 63 1 85 199 150 122 93 155 238 198 67 84 147 167 228 48 218 34 38 132 91 148 172 229 6 71 49 111 220 110 143 19 246 121 204 75 61 87 75 141 88 200 39 192 24 214 136 212 239 50 46 247 77 138 191 220 239 57 165 17 230 179 78 141 218 103 246 213 56 72 223 236 182 158 51 47 96 49 195 182 93 11 158 217 56 213 52 197 34 58 22 110 200 236 67 130 11 24 39 222 45
106 26 23 210 18 48 177 159 140 229 14 239 57 149 15 60 101 11 92 59 150 29 43 143 144 200 164 174 79 14 241 211 90 69 68 98 249 60 105 183 214 103 204 8 10 13 250 206 2 125 217 252 182 2 125 238 35 147 16 238 98 209 170 225 106 182 29 126 180 129 39 12 166 47 176 99 119 103 61 135 63 13 3 254 246 110 12 169 38 231 31 187 91 162 104 195 157 230 235 13 72 179 29 71 16 51 93 26 71 30 227 240 151 119 177 61 213 0 51 69 142 245 32 138 13 213 158 19 184 45 40 120 213 132 198 85 207 45 60 138 238 117 223 146 228 202 252 50 239 31 211 32 190 158 36 92 211 160 102 79 62 119 92 150 152 138 68 156 33 15 143 20 122 204 192 167 207 58 229 95 142 37 187 127 88 105 114 255 187 67 103 171 159 83 69 212 170 179 224 202 203 122 122 101 55 215 255 62 101 185 23 225 32 225 142 217 168 235 3 67 240 200 117 216 159 218 22 126 68 179 117 135 238 140 128 93 151 91 2 32 190 59 148 230 149 203 76 155 133 63 4 85 84 98 163 181 200 203 244 137 110 18 156 12 121 237 108 247 185 50 199 60 142 138 142 225 122 149 41 199 252 213 213 79 198 51 24 192 125 185 24 60 133 83 190 128 84 46 188 37
113 181 173 237 118 141 69 104 194 13 57 137 220 177 72 63 35 63 246 167 66 237 154 118 132 18 69 143 79 83 58 64 108 252 32 245 201 226 121 124 210 141 148 11 168 37 9 129 141 165 166 70 144 66 236 49 42 217 232 29 110 189 70 223 158 210 18 222 56 228 123 37 3 50 165 167 93 244 232 192 18 133 7 80 89 238 176 243 144 23 51 57 73 209 137 185 71 160 216 89 26 118 213 67 68 138 195 39 208 145 79 212 161 61 116 138 26 170 119 18 135 222 34 205 66 147 1 134 91 92 34 158 10 246 81 220 100 203 16 177 7 216 67 145 67 15 8 71 83 173 18 119 67 80 145 165 237 251 201 13 241 138 70 208 131 197 242 24 67 232 28 66 186 158 119 51 91 184 102 223 251 4 238 72 202 255 159 195 15 33 83 234 102 183 17 16 41 242 17 151 68 130 121 114 242 65 162 234 228 154 7 203 100 64 82 185 162 87 154 139 3 149 247 104 46 251 3 107 139 23 2 117 236 103 106 115 136 232 253 173 186 143 23 41 32 143 231 75 191 243 196 105 252 2 106 100 183 34 16 3 55 69 92 138 167 31 97 148 24 30 224 102 182 105 35 56 28 248 29 238 141 133 37 140 234 87 82 142 167 41 30 190 62 65 25 2 138 111 144 222
142 79 14 132 134 16 69 141 0 232 82 190 9 4 139 155 130 54 192 124 65 52 142 250 159 17 230 176 245 19 91 244 158 176 56 121 214 207 119 254 103 169 41 51 165 153 136 212 132 226 82 226 50 90 189 81 108 210 238 81 119 43 181 117 220 238 239 129 71 149 207 53 114 87 180 209 81 251 247 83 254 198 169 210 109 38 126 39 191 128 158 214 211 149 48 249 162 30 77 193 246 219 190 51 231 179 27 74 112 5 238 47 138 197 251 201 207 27 182 170 70 38 200 235 122 65 71 238 74 169 8 13 43 92 216 201 37 187 61 224 93 118 147 43 80 35 145 189 185 198 23 114 19 96 169 130 196 20 221 205 196 47 36 101 230 69 168 65 56 188 208 122 192 38 215 83 245 237 234 82 209 214 206 224 1 163 107 72 189 220 211 52 86 13 158 81 182 136 50 73 81 165 171 218 98 142 191 109 3 192 154 103 202 23 98 192 24 187 135 19 204 221 148 108 39 84 188 156 22 127 116 221 68 2 212 217 232 210 16 9 108 137 9 175 69 123 212 42 168 151 231 131 186 114 173 101 138 138 206 82 154 81 42 129 176 184 6 69 26 252 110 234 254 218 45 6 118 2 57 96 141 32 174 224 121 46 109 169 214 14 136 142 7 65 243 146 95 104 53 180
238 71 32 186 238 199 56 100 103 7 122 59 1 129 121 223 32 167 214 206 27 208 249 208 175 239 110 116 252 156 117 222 164 138 142 142 222 132 255 75 147 228 246 155 204 190 167 8 135 56 169 69 98 234 200 186 71 57 101 80 147 94 54 210 54 77 46 154 247 34 89 128 126 254 135 5 139 196 7 72 34 120 98 188 13 151 162 240 255 165 207 213 33 192 234 157 50 221 132 54 142 97 79 106 145 162 44 76 115 190 93 133 21 182 234 9 30 202 234 185 77 95 145 143 125 152 173 255 200 199 199 199 212 127 95 135 214 4 107 104 95 78 84 196 157 180 121 189 25 29 136 78 171 172 109 58 156 8 188 76 110 228 137 239 135 205 218 116 237 2 139 93 177 97 249 6 172 243 182 63 156 116 25 239 230 157 88 206 167 115 240 165 239 200 119 69 206 247 63 100 187 67 248 176 151 213 194 113 119 228 200 178 70 199 171 79 129 158 235 161 180 49 204 212 43 70 95 164 61 146 113 89 179 173 111 187 45 191 154 134 37 65 241 62 97 75 192 224 217 28 6 98 35 104 6 114 84 64 100 64 79 139 29 165 174 10 118 122 196 99 231 138 227 136 37 179 251 103 112 173 112 158 151 203 45 78 254 200 96 246 225 154 65 150 49 4 13 207 161 55
251 181 79 95 143 16 239 65 253 28 173 45 119 30 112 255 131 3 76 221 147 217 44 4 99 142 57 179 207 212 126 18 130 14 17 129 195 217 99 120 53 98 208 145 22 170 144 198 225 87 85 44 58 232 253 142 58 217 18 180 184 159 191 62 154 17 243 69 115 137 128 242 171 70 81 86 221 169 234 208 11 239 191 177 183 135 149 193 248 87 50 7 46 140 137 207 24 108 5 25 179 111 58 214 60 58 188 253 224 233 192 103 205 172 134 228 39 200 219 201 187 80 82 49 188 163 29 80 188 57 16 99 220 223 94 245 202 199 182 15 170 211 156 95 164 63 172 24 58 101 169 77 36 44 237 128 108 34 238 143 199 50 2 25 238 91 248 40 205 64 121 109 62 3 43 100 14 145 179 248 117 44 130 45 103 119 137 103 125 131 96 26 204 90 18 150 255 130 168 196 51 78 223 176 104 65 113 151 51 206 222 180 195 106 18 142 9 221 29 137 44 122 202 76 157 199 40 178 171 243 140 48 196 77 104 44 47 62 89 91 107 167 195 122 71 188 234 250 174 215 103 10 207 148 44 186 133 70 192 161 190 72 218 130 45 165 121 146 225 66 170 188 242 60 247 10 24 223 251 115 171 201 210 23 62 249 176 155 92 189 212 60 95 176 164 200 139 85 85 80
212 18 249 252 247 208 104 31 165 244 8 235 232 157 8 192 5 210 127 166 102 79 6 94 237 66 0 134 145 133 97 71 85 89 132 146 92 9 78 9 171 108 49 69 64 142 7 225 49 118 217 156 237 76 230 32 39 82 87 111 212 149 179 31 127 50 5 50 12 148 232 64 113 236 218 203 117 63 128 219 8 126 74 78 86 69 34 225 233 141 7 33 1 160 95 192 134 36 246 57 233 54 205 227 140 109 88 221 56 91 34 69 110 158 41 227 207 172 114 106 44 46 33 147 10 154 32 169 106 166 35 56 12 196 226 90 43 8 149 136 101 139 147 25 27 168 108 34 32 110 104 108 223 166 62 92 178 143 106 187 8 128 201 32 74 116 52 120 253 164 41 4 119 183 228 42 150 228 35 16 162 93 157 16 215 201 174 35 26 61 211 238 141 64 210 178 37 32 158 134 173 146 248 132 90 163 69 218 98 181 198 113 50 211 65 59 211 103 125 161 242 57 220 165 141 181 145 44 145 68 134 119 164 144 139 145 219 54 18 77 170 43 195 123 198 17 196 213 153 222 158 18 179 100 130 85 158 125 177 174 99 64 166 188 107 66 78 128 201 53 154 90 192 231 194 57 26 47 155 231 208 67 126 87 172 76 162 80 174 155 134 114 142 208 84 225 127 223 12 186
117 61 50 122 251 9 22 192 180 32 220 138 28 26 197 115 65 173 240 208 97 172 120 105 252 190 60 132 28 40 173 203 174 63 235 65 180 43 37 168 70 67 42 7 52 245 41 234 255 24 59 217 187 140 42 181 110 197 14 109 98 167 212 42 101 150 188 11 16 196 119 82 53 111 42 53 8 219 236 124 254 135 135 75 50 111 255 70 138 139 30 223 248 93 56 133 207 251 210 86 167 191 65 210 73 146 58 244 125 249 186 55 62 189 163 197 69 86 18 57 205 122 53 56 67 133 57 253 1 158 240 58 3 149 235 145 167 24 218 59 44 220 155 226 26 10 125 150 59 60 217 52 28 184 5 72 8 173 168 34 99 150 239 2 157 46 221 116 64 151 230 150 218 108 111 212 8 37 219 233 60 192 140 65 116 129 231 164 63 250 160 207 212 25 166 50 157 91 95 172 73 254 221 134 125 7 79 160 249 63 73 12 205 250 48 80 4 235 9 183 85 191 174 43 106 43 101 140 188 109 228 213 129 156 67 102 192 244 210 163 142 217 85 49 199 247 228 181 100 97 205 193 148 70 1 40 149 97 33 153 210 201 144 244 191 73 116 95 148 235 85 191 239 158 167 106 230 164 58 221 217 112 42 65 43 23 102 26 247 105 18 225 27 181 176 203 68 62 156 108
189 211 208 131 7 207 171 216 142 204 231 68 20 70 133 188 185 20 177 216 184 213 202 216 172 52 156 183 175 113 137 96 85 103 174 195 250 100 112 104 38 21 188 247 251 152 12 255 2 229 77 228 237 203 113 3 228 205 61 211 172 12 208 117 168 234 152 57 106 109 42 106 18 162 32 40 33 74 238 122 177 148 136 34 138 105 245 188 15 61 100 205 157 143 231 231 241 208 79 121 113 131 177 135 108 37 71 150 143 102 136 226 191 229 172 71 33 46 71 96 143 78 126 34 164 160 52 27 63 40 145 173 156 222 14 174 184 219 171 15 164 133 79 77 15 211 64 6 14 160 141 160 222 134 45 38 84 105 172 179 138 229 112 77 76 150 110 208 154 70 59 26 16 2 251 16 160 128 185 143 38 61 88 83 12 50 239 219 115 22 9 146 254 252 56 234 137 63 40 77 164 196 164 162 9 200 170 121 95 194 29 187 246 222 81 44 52 155 104 21 50 204 253 161 81 231 245 39 115 145 251 254 172 14 215 82 43 51 76 143 1 20 106 173 148 168 27 105 101 244 142 146 70 93 208 39 73 239 99 23 27 148 36 34 193 68 56 155 225 236 135 107 98 205 6 148 116 70 252 192 213 101 143 219 221 199 135 247 209 8 221 86 196 184 76 101 44 138 111 218
128 98 96 122 116 87 212 139 189 147 163 240 197 15 117 64 58 153 228 28 141 115 216 139 93 178 98 252 134 198 61 18 46 248 51 41 156 112 143 109 39 140 206 160 206 100 216 233 131 237 99 58 186 116 173 192 253 234 34 7 227 104 146 173 144 57 227 211 226 185 89 118 85 144 154 247 136 163 92 182 148 138 83 213 247 64 154 155 62 93 78 160 240 120 185 191 3 18 214 87 74 9 207 79 9 201 195 229 69 162 94 177 200 247 207 91 80 67 225 245 198 169 130 182 28 47 198 99 6 247 118 248 211 45 224 20 187 103 122 245 81 74 213 80 192 194 205 93 101 79 15 26 86 103 40 106 61 164 207 167 4 126 248 212 82 246 195 230 182 109 31 248 56 129 235 54 28 111 244 172 254 130 33 201 239 82 101 44 2 97 100 211 86 137 105 7 8 14 215 132 152 170 47 230 160 209 245 41 98 221 141 247 188 86 64 50 252 42 83 75 96 166 126 7 79 170 130 36 64 93 107 84 89 157 47 16 122 165 75 3 214 45 153 236 59 73 19 179 101 178 63 161 29 245 107 229 47 144 65 14 187 138 50 208 138 145 202 14 174 89 132 20 244 62 120 129 177 167 191 115 120 130 7 41 213 172 179 94 182 208 236 142 7 56 119 84 146 156 199 204
146 211 173 63 129 148 187 166 63 224 89 243 172 192 145 145 118 17 12 19 58 251 177 239 69 230 184 253 71 36 209 184 5 249 150 204 238 163 58 171 54 187 76 187 0 223 211 122 252 46 233 103 235 37 229 22 71 235 210 214 56 123 130 103 87 40 18 54 53 252 82 136 192 99 141 207 79 36 229 53 144 217 159 120 242 77 160 238 133 225 203 19 129 203 151 17 201 72 225 3 149 86 218 7 208 218 6 194 182 230 51 214 243 95 27 205 73 176 128 44 85 39 117 213 83 5 133 42 221 164 179 162 5 167 90 115 58 219 150 53 96 96 125 119 104 196 191 43 216 208 234 52 195 54 239 238 117 124 213 30 20 230 0 52 136 44 28 121 24 112 12 69 231 134 51 190 7 96 32 243 205 238 127 76 36 215 100 139 102 242 167 208 42 176 83 197 72 249 156 175 127 250 198 167 186 42 93 85 55 132 133 248 176 130 124 155 161 240 195 39 112 210 158 181 62 220 231 96 153 242 213 66 187 201 90 122 57 72 55 66 111 26 152 24 106 198 117 191 225 184 49 22 203 179 51 231 114 189 66 168 245 222 114 226 76 45 117 121 203 19 230 165 214 12 13 35 52 27 238 28 154 42 196 156 109 1 170 252 248 1 15 162 89 0 18 5 52 81 76 109
241 209 178 133 41 214 38 74 35 158 98 211 84 96 119 201 18 240 155 201 107 208 118 77 107 33 163 170 192 71 8 171 148 103 216 172 85 194 210 134 163 190 145 159 167 19 37 58 42 163 246 105 34 82 169 142 40 71 187 236 124 248 112 40 124 148 25 75 82 176 121 32 253 165 19 166 151 179 96 56 59 106 26 53 31 176 107 202 170 139 38 187 143 208 166 122 163 150 125 213 238 158 1 197 224 48 221 128 126 57 152 84 69 45 32 63 237 40 220 81 170 181 25 55 141 226 218 132 119 184 77 251 28 48 35 45 33 126 9 252 122 0 206 133 124 113 219 122 105 97 233 179 5 58 60 181 60 178 209 87 215 25 98 1 158 147 82 218 131 126 176 32 143 43 11 161 183 155 148 200 249 132 55 70 188 181 191 32 139 181 31 253 210 13 35 85 109 9 58 146 112 61 37 239 199 191 125 174 125 114 64 190 155 32 140 145 133 209 179 173 202 244 237 22 243 66 140 207 127 188 233 135 44 59 56 27 62 77 89 206 186 148 96 240 111 158 161 13 89 198 189 1 235 184 226 42 178 230 222 204 111 28 120 159 155 211 237 85 103 2 187 70 140 43 250 44 127 90 118 193 214 193 7 165 199 132 170 60 255 46 82 84 35 41 234 149 55 217 252 172
226 197 224 245 241 179 13 28 102 186 15 244 110 88 13 31 213 34 230 14 250 6 47 5 192 55 25 216 126 71 114 78 75 74 44 115 166 44 162 82 129 87 220 92 115 37 17 33 47 229 160 15 232 159 221 156 16 83 22 177 95 137 74 16 18 159 183 146 172 10 43 85 170 72 243 96 54 99 71 142 55 196 189 17 200 237 73 111 113 164 184 151 74 115 103 6 65 58 147 164 76 243 37 118 8 65 173 35 203 103 69 105 212 54 63 132 19 249 14 112 117 217 107 0 187 224 134 110 7 168 26 188 224 172 248 227 86 93 158 155 220 247 172 151 14 231 228 15 64 36 60 135 130 212 252 244 57 0 47 158 44 158 46 51 90 243 53 134 218 5 188 170 124 40 50 135 159 17 181 15 212 127 253 192 44 46 17 149 188 78 29 7 190 97 138 57 180 150 142 94 80 243 41 38 22 223 162 113 197 215 201 106 71 93 30 21 185 34 157 91 3 72 89 0 2 39 153 79 25 59 216 39 3 232 65 220 243 113 168 209 126 35 28 96 40 15 234 136 235 91 88 160 191 231 38 135 20 229 178 174 86 120 111 35 146 154 243 152 26 107 149 152 205 237 0 126 39 110 245 128 37 241 217 80 121 190 111 220 223 234 72 254 159 184 153 244 170 222 161 255
