P3
100 100
255
237 215 162 212 93 248 239 71 61 38 236 43 119 105 59 230 149 153 47 77 231 196 77 235 39 183 102 210 93 211 33 28 113 135 42 39 111 74 205 132 131 68 149 199 223 103 163 86 200 184 187 254 243 55 74 148 245 167 134 199 25 181 84 92 36 165 57 226 131 137 84 182 52 113 152 55 146 122 60 231 42 147 253 40 154 43 168 113 52 214 142 168 70 112 92 117 47 13 153 239 65 168 185 154 130 76 65 87 59 37 125 182 172 96 207 251 226 159 200 228 131 133 240 72 104 225 39 206 149 141 112 2 88 221 100 160 188 234 249 178 43 130 161 218 147 224 231 83 116 30 221 175 137 199 90 0 127 10 185 4 55 198 188 97 38 39 27 234 24 132 135 52 15 101 147 95 231 175 21 202 118 192 19 187 193 72 98 134 73 220 128 201 10 10 212 48 143 81 35 19 100 113 124 246 81 141 155 112 91 219 139 158 109 63 130 85 25 4 58 234 250 155 212 254 165 119 90 165 81 84 42 175 164 228 46 104 51 193 14 243 78 153 171 152 116 190 27 175 207 96 247 187 221 96 115 141 174 223 235 223 141 164 218 66 167 2 0 119 48 232 26 180 27 132 109 14 65 74 224 237 69 206 7 235 1 182 155 30 169 145 246 21 180 168 15 228 86 70 201 226
32 171 45 239 21 146 32 248 70 143 51 198 130 126 93 227 185 31 88 65 129 9 97 169 88 64 126 181 208 93 20 152 175 23 212 251 117 138 251 13 218 143 43 52 144 67 45 177 215 230 1 155 76 122 57 65 209 4 161 143 168 44 222 108 91 177 42 188 151 83 167 87 192 88 73 82 210 163 229 129 147 56 83 149 24 147 18 128 193 11 54 239 121 157 191 158 223 59 94 124 170 47 62 7 178 215 46 150 248 95 105 252 220 21 232 106 132 8 119 128 73 4 200 106 202 98 87 213 127 211 99 38 19 74 221 35 82 161 90 218 142 125 2 167 16 149 168 98 9 123 178 107 36 226 104 141 137 0 225 2 219 143 116 87 4 112 69 66 54 93 159 167 88 134 167 232 123 102 211 69 13 224 159 254 212 140 121 50 226 186 184 215 238 99 149 189 162 33 29 181 125 114 89 115 252 174 167 241 62 41 201 50 108 56 123 195 110 126 235 104 99 10 19 190 10 76 162 156 125 203 220 147 243 128 56 36 192 186 190 106 142 40 178 143 206 94 254 214 166 0 131 16 7 97 213 203 3 127 199 171 239 66 162 2 167 247 106 135 13 94 238 12 80 234 52 141 84 39 134 77 96 87 243 114 29 233 112 61 46 194 166 52 228 170 224 188 234 50 37 25
83 208 152 148 54 6 224 235 151 137 242 185 162 162 76 1 24 170 112 57 40 157 78 172 176 214 110 181 242 254 39 175 13 130 85 249 1 84 236 17 29 133 75 122 76 88 90 155 112 14 248 216 86 9 220 222 219 109 53 217 219 58 247 177 174 5 145 155 178 209 178 10 7 190 16 211 111 5 130 204 53 144 231 40 203 103 188 199 26 52 128 72 209 147 80 103 131 23 117 215 63 209 87 195 153 172 157 211 249 211 90 204 169 144 211 127 85 234 29 114 144 99 194 112 178 210 87 125 79 83 185 128 102 95 186 157 160 131 134 4 240 247 125 215 222 180 111 207 173 155 105 112 13 224 177 58 168 61 7 35 104 254 239 18 46 205 76 96 254 120 62 169 238 24 233 111 61 15 130 134 80 165 227 226 207 34 221 35 92 199 203 190 227 136 19 57 173 219 206 232 129 250 199 239 228 239 63 97 135 13 104 148 230 0 174 253 210 190 97 55 99 99 215 233 236 155 2 247 46 112 149 98 99 216 213 199 94 62 103 132 104 58 244 51 179 99 89 163 51 244 181 195 175 240 36 46 90 226 239 200 207 236 162 222 91 194 212 146 234 203 228 55 194 76 179 247 59 152 247 233 148 61 126 161 111 199 35 123 14 132 124 21 223 65 118 163 66 237 198 26
8 68 22 208 162 133 62 81 42 131 223 126 26 95 105 172 193 126 10 221 49 120 12 152 119 237 192 17 124 99 95 5 129 132 45 150 56 44 119 236 188 209 135 11 100 196 249 224 129 221 60 111 161 153 73 161 252 84 166 27 97 87 240 4 230 219 31 100 16 45 152 89 150 34 132 103 160 16 161 80 135 73 53 98 197 0 200 23 121 251 144 17 105 181 246 47 86 3 189 197 97 230 136 246 16 30 197 8 210 191 38 108 97 47 125 234 242 220 31 36 179 185 112 2 9 31 47 46 62 179 54 28 22 165 233 18 116 117 230 136 34 149 140 97 25 217 148 180 27 252 173 136 128 97 61 149 199 241 123 249 164 122 19 162 106 31 16 187 7 181 118 181 72 202 164 58 7 226 95 56 198 205 228 6 6 121 80 39 235 254 175 162 253 39 134 149 145 44 219 131 213 105 70 176 140 132 159 174 209 232 194 195 10 19 238 22 22 23 137 175 56 176 54 30 75 229 84 116 116 217 204 178 109 115 193 155 223 8 246 133 7 209 102 34 84 34 250 165 21 199 174 138 239 134 35 237 9 33 201 102 98 29 3 169 235 208 245 241 183 62 70 217 225 247 83 67 217 11 114 232 199 155 130 166 31 189 122 253 36 14 161 149 51 35 197 133 112 212 152 35
77 185 199 171 100 115 118 172 32 151 204 142 60 220 174 226 33 73 72 8 142 8 195 131 244 87 186 199 153 249 203 23 0 57 136 62 187 226 251 198 44 80 107 126 248 54 174 110 63 119 198 30 243 173 147 214 50 105 51 54 241 23 136 75 19 82 219 139 47 53 133 118 226 137 105 20 32 162 230 70 146 35 156 115 233 67 16 217 246 17 56 161 144 19 12 2 186 227 246 29 147 151 98 184 154 11 181 104 0 34 247 194 155 105 138 190 210 105 191 79 5 243 172 132 152 28 41 60 166 189 101 248 30 181 184 117 10 5 74 65 249 117 139 45 39 245 159 57 152 209 122 229 186 78 1 223 128 67 246 57 157 39 182 237 56 186 102 45 83 191 100 116 154 176 48 35 66 183 164 197 22 218 218 120 242 134 162 111 253 21 3 101 132 86 133 119 91 252 202 28 8 144 216 19 154 45 73 229 244 110 209 31 80 176 152 114 76 32 15 225 155 191 221 5 126 198 140 7 88 113 129 67 190 140 204 119 10 82 216 185 167 194 25 75 6 3 149 107 195 146 205 214 215 50 17 140 179 107 94 118 52 36 178 170 200 205 82 39 129 1 40 67 177 131 40 213 187 210 132 175 125 243 184 83 17 3 181 61 92 174 139 147 19 12 206 255 82 138 71 243
118 86 206 238 55 149 49 100 248 200 183 23 146 132 121 231 252 153 184 36 178 140 83 241 232 246 126 125 124 222 78 218 5 154 99 228 239 52 212 159 201 173 9 88 31 161 249 167 247 180 10 228 250 180 76 215 161 206 14 83 185 94 34 81 115 50 158 53 78 239 167 27 94 102 116 35 87 202 13 209 23 231 63 222 174 63 145 141 33 224 211 184 33 230 66 242 15 238 48 199 92 226 16 16 85 102 195 163 62 243 206 155 15 102 223 144 22 114 132 106 12 5 204 115 70 170 156 76 231 138 188 156 136 217 176 67 230 253 75 116 134 82 176 82 24 123 130 214 24 224 175 153 219 2 153 136 39 82 228 47 128 89 31 164 246 208 231 60 226 83 29 231 24 146 26 73 132 228 125 194 39 226 252 77 59 41 240 145 219 13 25 194 112 4 246 237 21 202 48 0 58 41 228 131 163 142 41 248 187 200 123 5 249 94 46 130 108 189 12 175 204 142 230 244 231 138 220 39 197 126 9 241 72 125 3 69 159 75 70 62 87 244 96 148 223 55 59 40 223 252 46 212 133 3 99 68 188 143 26 54 108 159 213 102 19 13 27 113 110 178 204 90 22 88 166 69 250 120 127 127 184 241 168 43 93 70 137 77 192 88 177 130 205 68 111 189 58 51 159 87
66 70 10 30 152 42 199 185 14 8 216 36 8 103 30 165 24 191 13 134 251 60 226 242 172 24 94 162 16 251 113 255 79 13 31 76 219 103 22 25 252 66 169 176 242 172 3 3 27 179 64 187 207 248 253 194 140 52 247 23 77 87 172 133 64 238 180 41 55 95 32 192 198 235 187 61 161 184 30 90 191 3 209 195 134 92 155 194 101 63 230 100 179 44 132 77 143 232 86 118 230 37 144 112 84 108 136 0 198 104 210 2 195 249 36 103 180 135 97 229 19 37 126 222 232 229 49 74 21 136 132 13 145 215 49 242 4 231 119 249 137 97 109 216 111 35 230 5 168 240 59 216 225 53 109 144 4 8 221 173 13 180 156 92 20 239 243 24 157 239 169 174 52 92 134 242 240 183 234 99 178 150 158 211 131 174 217 224 221 106 152 2 23 99 54 10 61 227 138 237 227 48 73 47 45 54 47 0 63 58 149 218 65 163 1 127 110 24 18 204 209 237 8 100 77 14 156 126 16 103 190 99 192 151 213 218 121 66 136 255 174 66 171 157 34 137 175 16 57 206 177 52 242 210 226 153 92 108 17 123 183 214 173 148 206 239 145 211 40 191 201 171 59 51 108 70 13 113 184 159 19 29 136 208 231 155 196 34 72 210 11 167 232 120 117 234 70 180 141 10
180 146 224 72 204 211 73 67 204 194 246 212 54 97 167 122 0 223 147 255 34 149 224 57 245 235 182 193 71 44 69 81 228 98 115 144 76 42 167 39 249 124 226 154 25 30 145 91 111 217 129 28 71 141 189 138 192 243 231 153 166 169 134 245 236 126 153 222 51 13 167 102 213 44 248 54 187 239 129 125 140 130 6 12 129 57 131 241 143 118 163 52 26 175 122 139 183 198 65 46 22 231 105 251 181 201 21 186 124 29 174 199 215 35 152 173 130 235 60 90 194 123 196 127 143 237 255 140 216 86 201 239 148 70 62 227 222 11 94 246 42 5 156 132 72 198 40 219 195 194 198 66 126 156 16 224 62 74 133 130 97 237 12 62 28 10 57 67 236 14 37 117 228 230 92 97 188 86 178 130 200 83 43 139 22 44 131 18 243 251 57 171 209 176 32 75 137 25 154 26 180 90 130 151 41 238 209 226 45 80 223 200 3 166 44 100 248 201 178 59 204 40 146 189 180 178 13 239 45 143 75 137 93 103 13 217 110 96 87 131 250 63 224 102 184 55 230 54 159 52 1 73 4 89 247 60 98 52 159 40 61 29 4 148 66 11 238 76 252 6 218 239 122 78 79 207 178 82 247 47 152 252 236 245 154 106 78 240 214 52 108 2 175 209 182 139 180 24 152 176
155 60 243 244 121 179 9 164 71 244 86 28 89 83 216 187 40 123 229 195 32 202 122 246 65 12 82 158 126 197 104 152 230 137 95 136 36 143 244 3 167 8 45 89 28 43 243 252 5 149 249 139 245 188 36 180 254 28 223 163 92 229 211 64 162 124 194 225 105 55 88 140 226 46 214 197 82 224 239 201 244 196 86 235 62 4 211 43 192 4 205 82 254 96 22 205 104 117 226 122 55 90 222 118 9 95 227 245 147 61 174 116 255 235 16 128 133 88 159 159 139 156 75 247 194 16 1 131 115 145 18 224 172 201 29 192 158 102 162 106 53 251 253 16 111 108 23 148 139 248 191 189 204 168 108 204 191 22 9 44 206 250 110 134 176 149 181 174 51 8 72 225 188 143 164 18 103 165 67 174 168 47 214 68 181 129 230 184 11 82 90 231 104 150 99 55 254 75 139 123 113 99 245 66 236 87 71 192 85 193 188 253 16 16 221 197 96 90 47 232 118 24 209 105 213 144 235 118 237 25 55 156 118 141 233 33 207 229 144 169 52 35 64 128 175 127 167 197 227 24 70 244 172 245 59 190 196 26 195 114 255 82 73 103 7 187 191 170 198 150 245 63 3 26 159 177 7 122 82 84 242 220 59 132 241 254 152 14 87 66 213 162 18 139 205 57 231 42 180 10
163 240 121 130 77 133 255 72 16 188 159 60 106 180 244 145 237 136 31 74 83 25 251 236 32 109 146 15 76 213 114 175 177 235 59 39 169 19 50 100 247 188 5 60 119 101 38 130 156 186 19 246 159 17 50 61 158 125 165 173 190 150 135 85 243 167 252 245 79 245 226 184 131 110 18 71 14 7 74 191 218 42 176 183 49 139 1 239 71 43 234 32 201 16 105 150 135 12 236 161 96 24 10 130 214 19 80 221 134 107 194 53 218 71 118 211 46 106 182 57 39 53 253 139 3 54 23 183 245 173 117 129 219 17 50 187 139 48 255 125 245 70 244 145 107 255 18 222 96 29 18 68 242 22 39 179 139 123 132 46 51 52 107 82 29 177 247 254 139 43 251 11 175 60 224 186 181 32 81 143 10 43 7 140 144 12 149 110 63 60 105 227 142 67 50 18 157 202 177 235 239 143 92 77 205 143 13 179 156 41 12 45 131 64 37 40 75 96 157 247 146 127 18 107 13 122 121 241 117 139 24 167 121 198 126 118 235 235 248 236 161 46 249 121 42 50 224 95 66 208 89 149 67 191 64 140 178 106 40 42 221 156 86 239 29 251 132 159 9 152 235 28 23 249 95 185 247 23 30 32 14 47 106 24 64 189 249 45 9 218 51 183 119 27 32 30 141 120 131 222
77 94 17 98 101 204 56 120 108 96 219 190 207 73 80 199 70 203 124 201 87 93 70 231 180 137 107 144 174 12 72 93 38 75 236 193 234 187 16 33 220 123 196 201 108 174 242 25 76 103 110 140 34 98 159 130 183 187 38 198 125 34 44 157 169 183 247 92 224 62 37 7 190 5 209 47 179 62 216 2 166 158 131 246 58 115 172 210 137 140 110 85 78 57 170 242 97 252 69 134 108 120 231 171 133 123 6 125 246 254 4 175 215 123 163 102 61 183 115 142 223 85 97 174 91 29 204 132 159 116 203 7 58 172 154 105 55 120 118 55 7 182 188 194 1 243 93 135 74 177 211 77 131 45 89 135 183 229 166 90 50 153 0 111 70 155 114 89 161 137 85 253 139 87 205 225 240 233 1 72 6 22 240 158 219 78 46 19 178 225 222 165 3 36 124 107 32 18 148 128 83 93 147 12 101 107 96 104 65 133 55 1 245 167 188 166 178 189 162 51 169 195 138 144 10 196 222 60 30 67 107 152 73 26 212 205 135 242 241 82 39 102 157 221 21 150 65 171 231 12 8 28 46 154 68 247 24 135 238 171 79 76 30 186 109 126 90 52 42 144 23 188 94 240 205 227 117 44 240 158 208 28 178 248 247 37 218 65 212 133 214 128 84 69 226 133 215 127 23 132
69 44 78 133 2 96 195 45 155 232 136 198 134 189 22 130 161 137 218 84 154 35 4 54 102 1 217 36 139 147 65 168 145 72 219 50 42 146 95 136 145 119 233 192 77 162 218 11 86 253 231 214 229 223 210 207 83 121 252 95 87 135 162 162 72 148 14 182 25 155 34 66 203 197 186 239 41 120 86 230 207 164 20 223 173 36 255 35 152 152 16 127 181 135 192 177 156 191 55 41 254 247 144 10 240 98 60 240 97 38 132 195 179 1 145 78 143 197 26 57 95 168 86 132 170 176 26 243 171 223 151 117 20 198 34 240 90 37 0 221 137 209 204 161 186 142 1 207 117 199 57 140 44 253 9 132 52 144 195 119 190 137 59 208 94 29 48 211 184 240 228 148 249 147 42 101 244 156 181 150 24 238 63 71 204 89 244 51 114 94 88 223 46 194 33 211 239 157 155 123 192 95 200 121 99 17 131 141 75 34 254 96 15 84 26 180 118 60 207 142 39 153 155 9 30 20 51 163 195 171 105 71 209 36 139 212 81 19 125 129 162 240 62 4 150 194 133 61 134 190 120 36 147 159 164 233 34 117 123 158 247 133 105 245 211 175 195 40 63 81 165 43 6 26 221 99 156 24 32 42 187 117 79 24 2 47 81 150 154 106 201 232 93 197 252 232 154 227 30 67
12 142 56 176 116 164 75 46 206 189 133 19 222 98 153 105 5 169 190 56 1 0 83 36 146 193 30 84 234 9 121 230 247 0 138 40 30 252 22 125 88 117 68 77 69 199 199 149 135 208 139 94 51 38 140 179 207 232 57 17 132 102 63 97 185 125 30 229 255 150 43 171 180 246 3 8 101 245 165 140 74 201 80 35 51 4 21 178 119 187 29 167 16 187 60 61 198 106 77 76 186 168 52 36 17 66 243 225 74 102 238 1 238 214 21 76 228 244 96 208 84 55 56 35 187 233 6 97 157 93 1 178 215 5 50 113 134 43 211 54 221 174 131 230 92 87 77 227 56 239 208 243 89 245 167 121 216 45 123 22 99 90 85 97 99 19 62 228 138 54 215 236 198 108 236 162 81 34 161 20 82 203 253 137 101 122 255 175 150 247 156 78 32 171 253 19 255 132 96 0 81 6 44 48 188 208 195 176 192 185 60 46 237 99 119 149 62 63 249 135 172 86 64 241 38 13 199 99 26 132 61 128 61 34 187 220 18 10 237 74 142 94 90 227 150 232 245 152 189 113 81 198 176 121 130 165 221 35 250 77 212 106 65 174 193 2 46 216 33 62 119 83 43 119 148 49 219 133 200 244 67 219 85 25 38 197 194 240 93 34 239 93 205 169 116 28 81 125 171 166
88 212 77 118 106 22 26 104 153 22 1 12 74 59 20 200 196 89 169 144 160 47 0 212 182 6 75 66 142 154 177 58 52 235 42 35 79 133 80 214 37 161 156 211 219 133 1 215 224 169 21 93 129 168 45 31 200 247 12 198 177 186 235 0 239 169 38 181 109 34 55 214 34 198 138 134 0 182 72 132 89 130 103 74 220 70 28 120 199 220 74 115 162 17 227 12 136 165 244 31 98 7 127 2 153 129 208 177 74 57 130 131 156 7 238 149 186 55 192 216 57 127 241 232 195 15 89 236 99 47 29 83 166 18 242 90 224 23 119 191 231 121 55 198 39 4 30 29 108 66 124 152 5 114 51 224 12 27 67 111 188 207 219 223 20 179 245 88 65 55 226 195 56 10 8 12 244 202 253 33 214 99 171 64 96 78 185 50 37 84 32 34 17 72 116 180 183 252 99 150 241 74 183 78 162 43 116 31 139 85 224 238 0 149 220 153 141 76 101 4 200 113 53 35 157 73 239 64 253 87 71 52 242 163 72 222 88 194 32 39 21 110 78 181 42 182 167 130 246 17 164 196 32 126 139 194 128 9 221 19 34 112 127 95 254 15 117 70 100 196 197 59 108 87 139 165 15 245 212 47 39 28 243 40 240 224 239 40 249 24 233 165 37 50 158 1 110 167 75 178
193 231 38 11 88 245 35 117 59 236 80 231 5 2 172 141 80 65 77 254 168 218 128 1 15 81 109 43 25 118 13 8 222 179 129 19 1 103 102 215 158 183 239 82 45 1 214 217 72 151 153 80 248 196 199 230 229 20 133 75 47 203 196 118 140 244 157 16 57 52 155 164 84 33 246 254 241 208 190 19 94 40 60 117 92 207 144 65 171 226 61 78 226 162 222 132 113 46 142 105 65 115 253 199 93 83 181 179 21 130 36 42 136 41 60 191 102 160 10 88 192 209 104 146 182 206 58 82 41 210 247 143 25 15 78 151 182 93 141 84 7 132 124 137 176 171 67 111 102 32 82 251 178 232 183 243 199 92 83 73 2 86 134 135 23 170 65 4 69 216 167 156 71 61 39 99 56 87 175 86 200 101 247 215 101 223 127 43 4 251 224 47 40 60 56 127 144 149 194 70 147 228 97 246 111 46 175 255 22 64 70 18 209 122 244 62 230 31 65 213 215 155 224 124 56 246 104 115 82 148 14 188 75 8 199 125 27 145 53 164 222 156 72 136 75 164 225 204 142 74 144 253 234 220 87 254 228 113 102 166 188 219 229 114 220 87 94 239 222 238 4 215 36 37 163 205 17 143 153 113 74 23 157 191 146 48 27 210 157 112 64 128 137 73 28 93 34 121 159 140
187 28 66 38 164 154 73 42 221 157 19 235 220 249 25 127 178 204 3 65 122 101 20 216 193 167 92 199 29 60 166 38 234 160 57 138 64 126 30 133 223 150 187 136 11 87 246 117 50 78 63 38 209 60 241 94 177 255 100 38 210 143 28 94 101 240 97 221 189 10 170 213 145 113 50 20 30 106 70 55 113 54 117 146 112 68 201 10 178 194 123 93 152 130 117 183 163 54 95 46 121 99 151 52 168 232 61 255 226 58 90 8 226 222 240 122 29 34 187 51 70 124 37 65 7 59 42 126 130 149 88 149 15 175 31 43 174 153 100 182 248 10 178 107 127 141 41 224 91 221 25 31 99 214 154 43 34 248 53 154 21 5 176 191 254 123 245 245 215 209 132 40 146 54 86 141 169 44 248 177 210 54 252 0 34 60 202 107 160 50 35 216 100 108 235 17 141 5 120 25 162 190 192 41 11 48 252 213 103 76 221 235 63 210 82 233 65 35 172 140 148 114 200 28 231 249 246 64 215 60 135 220 155 148 82 88 3 88 32 38 253 48 158 84 185 19 107 150 67 158 247 209 74 69 148 56 152 208 77 191 1 70 230 170 172 32 124 18 52 74 111 146 63 251 15 67 71 8 203 230 101 100 104 51 181 90 9 3 98 240 232 81 16 70 25 134 20 208 74 169
11 240 185 178 46 18 126 171 230 25 57 158 6 207 197 254 6 94 242 65 130 212 154 7 46 83 191 189 219 86 191 128 202 62 9 156 237 189 135 93 113 21 41 16 148 94 89 142 138 174 128 25 16 238 37 223 72 113 157 238 173 194 254 238 44 122 33 5 82 13 92 65 135 111 150 179 60 198 23 167 183 14 159 193 145 65 53 250 234 2 236 40 116 12 85 233 138 229 92 172 154 44 154 181 30 169 189 216 200 30 172 98 84 226 54 28 16 253 84 71 244 140 81 207 38 36 38 157 182 250 226 226 87 135 150 20 12 129 115 45 199 246 147 118 138 166 107 226 80 204 53 97 8 81 40 162 20 59 132 208 44 247 1 221 179 69 221 102 141 197 119 71 219 196 176 81 49 198 106 130 8 110 133 109 206 105 55 209 94 106 56 32 19 155 62 254 1 222 88 181 133 144 82 173 151 47 253 216 70 68 237 200 138 249 168 166 144 55 190 72 158 173 50 82 4 206 10 179 219 59 248 37 101 202 143 125 202 246 116 99 65 201 42 172 250 205 95 91 228 99 216 238 251 2 93 192 126 69 96 117 7 0 50 135 254 114 180 8 226 93 66 82 166 13 119 154 15 171 227 53 51 225 199 131 57 77 50 173 29 68 79 75 15 245 167 213 153 130 52 44
162 232 94 94 173 239 229 188 44 44 30 7 215 8 92 107 150 82 17 211 209 115 4 85 101 29 251 237 147 89 25 160 40 18 184 34 73 74 44 245 4 10 135 242 200 72 232 149 103 8 65 81 55 229 74 92 192 59 196 27 130 142 147 173 117 138 253 244 70 7 103 7 34 77 31 92 252 104 203 148 205 241 90 70 44 124 158 212 26 54 173 60 211 235 165 178 19 115 239 74 16 135 62 136 240 235 144 45 152 224 34 230 42 28 180 239 252 182 65 62 244 58 49 209 105 215 141 156 75 73 222 0 117 17 17 122 33 144 120 10 241 173 20 115 30 201 131 81 46 171 215 92 119 138 142 67 19 202 55 136 108 146 56 56 113 41 45 217 76 47 70 148 29 133 78 132 142 62 213 216 108 34 64 147 8 28 13 252 210 177 22 69 54 178 23 123 67 67 111 231 131 49 36 243 82 248 202 248 100 169 86 107 240 0 206 221 146 70 84 230 146 7 83 102 10 134 175 132 112 128 99 218 238 232 174 231 9 106 223 172 154 95 138 122 46 255 230 78 217 102 181 58 89 184 172 33 116 37 242 148 173 216 45 251 63 1 147 165 214 163 12 244 165 47 83 128 154 161 177 151 225 222 13 62 193 134 219 77 143 71 1 150 62 151 125 129 81 49 60 231
193 119 59 40 107 229 169 57 9 228 52 49 249 7 240 73 200 143 223 106 70 241 162 207 203 142 67 177 232 150 152 240 201 34 251 183 179 190 208 238 220 185 123 238 253 158 39 243 231 206 238 219 101 137 210 125 39 8 131 246 217 5 196 68 19 82 201 21 19 191 148 180 62 202 104 139 148 169 31 32 13 162 181 252 18 216 93 80 118 139 12 87 155 188 40 203 31 36 25 12 37 12 220 145 112 80 108 156 188 223 110 244 248 209 202 233 249 212 240 1 97 93 54 6 23 228 252 239 90 10 20 184 52 144 12 110 245 184 243 197 156 184 99 128 63 144 212 250 120 95 37 217 77 146 99 253 76 215 143 248 236 60 44 101 152 155 21 21 96 214 203 168 136 221 158 50 59 40 205 1 120 96 29 198 89 236 161 250 235 182 130 138 9 57 95 91 196 100 239 103 142 208 69 198 112 13 28 160 221 28 237 96 88 97 188 197 22 45 49 45 62 97 51 164 126 11 28 148 115 4 241 162 128 141 177 82 216 83 236 184 218 253 178 135 22 99 201 1 165 182 160 62 243 228 31 114 46 199 70 24 151 138 252 227 79 143 221 103 149 15 182 9 254 60 242 193 165 217 96 146 87 100 56 113 19 254 164 16 227 140 104 2 49 134 85 184 203 161 34 26
113 64 216 253 2 191 185 41 110 243 153 204 128 134 254 166 3 7 93 125 76 17 37 13 10 158 23 4 168 40 164 248 59 50 215 28 143 249 52 139 35 243 122 95 102 234 72 102 184 28 22 221 189 138 237 199 203 225 100 26 52 176 197 112 239 183 145 243 56 137 99 82 74 33 30 213 85 85 8 107 227 132 216 115 16 4 15 181 219 150 118 217 36 97 82 162 248 85 3 153 65 190 26 57 115 49 43 55 37 78 239 81 49 225 15 105 171 159 61 146 177 151 48 247 132 44 91 110 178 90 108 115 227 35 128 33 145 98 39 118 250 36 191 213 32 74 184 120 190 124 174 38 182 147 196 225 21 48 174 174 46 199 96 127 94 189 170 68 231 186 39 224 12 136 177 98 47 145 241 76 113 188 114 64 41 165 175 51 32 202 8 148 118 50 82 96 18 106 235 66 34 71 228 65 98 178 74 170 63 237 74 176 202 21 12 232 191 128 79 236 211 185 183 86 127 182 61 138 169 206 238 183 81 243 88 15 45 6 20 197 118 235 213 11 134 188 48 41 153 151 17 148 75 16 136 240 164 206 236 145 124 1 198 237 145 41 13 33 56 210 225 139 77 54 41 226 184 221 2 187 105 121 17 69 26 134 178 134 82 236 87 62 74 206 222 88 65 153 251 129
244 157 150 95 190 157 44 152 140 63 43 116 231 120 151 185 71 77 210 143 180 69 185 68 38 205 161 125 156 232 168 221 231 41 90 219 156 64 156 246 131 151 230 83 106 186 190 181 124 87 250 176 180 125 219 85 85 111 140 129 85 236 227 123 229 101 241 94 144 82 74 201 212 20 118 137 120 170 189 8 204 100 171 68 198 107 190 127 61 182 127 128 138 128 25 225 123 2 71 63 200 97 252 171 88 34 229 143 115 131 173 177 145 182 154 143 73 138 143 155 248 242 22 83 57 199 122 72 235 106 207 18 124 160 47 17 213 100 155 122 57 24 47 187 236 253 230 215 215 205 154 43 168 22 21 82 154 75 78 160 131 67 23 164 29 228 92 106 220 209 192 157 50 201 108 177 231 9 195 209 230 91 120 209 224 223 55 233 69 7 231 184 124 32 152 199 58 70 22 189 120 250 173 243 217 246 75 73 213 68 137 192 208 149 118 3 106 218 242 155 211 218 37 234 208 164 202 78 117 169 213 190 3 51 170 2 217 115 87 38 54 36 85 183 192 249 122 151 87 133 231 207 193 206 250 27 135 89 82 38 119 232 120 226 149 10 252 224 217 184 249 148 132 91 91 40 130 180 17 178 115 174 34 5 80 12 155 96 92 99 191 187 183 34 107 64 193 176 65 247
175 242 8 166 44 170 245 184 228 100 69 228 240 198 142 119 21 204 81 223 193 80 212 170 9 192 12 26 118 191 192 220 98 244 250 183 22 11 241 246 249 45 183 178 192 27 11 130 122 35 215 226 107 247 115 240 127 16 241 201 251 139 58 27 152 153 53 185 247 204 213 41 233 217 18 193 210 134 163 137 243 129 245 233 73 152 135 1 206 42 243 96 254 209 50 102 63 86 181 45 129 139 168 71 105 112 106 59 38 129 169 193 76 218 135 3 241 204 65 21 22 52 100 128 116 79 6 199 182 184 20 47 249 173 175 93 175 254 102 115 196 233 61 139 218 159 40 236 189 65 95 23 82 248 152 252 28 106 77 98 136 25 228 123 89 149 21 113 1 90 149 122 234 154 9 199 33 77 183 101 66 24 25 187 105 19 219 239 88 88 249 168 86 254 100 72 155 141 134 40 186 184 248 91 33 218 91 107 121 45 178 107 100 104 28 110 239 96 196 158 196 174 143 28 175 151 67 219 142 123 1 147 251 224 184 84 109 83 44 125 214 167 39 117 144 2 17 213 12 190 118 157 20 46 157 54 133 213 183 25 230 106 215 172 217 216 195 185 126 54 102 5 114 126 228 104 86 138 181 237 12 205 5 98 225 238 139 66 72 245 165 90 81 120 131 152 203 112 86 9
163 192 115 253 67 130 165 99 119 240 222 182 120 213 92 81 102 198 30 137 132 7 69 25 107 166 173 154 111 103 2 215 158 238 126 28 39 214 210 245 175 51 125 120 178 64 54 133 247 247 178 220 251 184 229 1 19 18 200 131 54 74 147 245 190 203 145 230 161 217 22 17 50 63 79 117 21 23 67 0 254 74 208 197 134 110 26 172 119 195 160 13 40 253 71 124 171 104 154 131 192 167 226 20 17 158 11 155 59 163 106 43 104 236 216 82 161 106 199 105 177 239 116 26 56 113 58 4 25 221 186 78 146 81 7 116 171 52 222 132 153 24 119 253 36 214 189 236 169 30 246 245 152 184 23 19 50 242 177 243 185 22 190 45 139 59 152 141 174 124 53 242 11 240 0 135 9 228 31 110 254 201 220 210 239 151 244 232 8 7 58 8 42 61 127 32 36 97 97 105 180 106 132 122 120 70 39 117 92 237 184 159 203 236 89 45 118 216 241 239 38 244 96 203 33 57 204 254 52 53 52 63 213 17 177 160 55 67 17 101 28 173 70 99 255 29 44 80 8 114 223 69 144 148 15 194 167 172 59 226 34 245 31 24 208 231 98 123 245 233 87 101 85 141 21 140 209 148 11 119 96 243 245 184 50 155 118 29 106 59 150 31 213 142 227 152 40 208 253 195
32 150 249 135 97 146 232 7 179 54 48 99 233 108 146 132 35 125 112 134 8 18 90 156 124 71 236 31 220 215 224 237 56 200 125 235 64 126 87 172 118 10 63 55 85 49 93 199 185 23 185 26 164 12 144 127 107 245 36 96 168 124 227 105 78 168 74 16 68 77 104 130 13 51 158 48 194 210 118 127 200 78 21 71 166 195 34 163 170 45 126 124 157 173 137 204 234 199 174 231 84 253 76 184 187 79 27 86 43 199 166 207 113 2 225 55 156 229 25 21 48 19 6 38 151 225 58 213 114 235 186 244 59 140 249 255 57 190 143 86 176 86 232 252 180 167 138 8 110 78 28 115 110 181 0 218 180 166 155 255 149 150 38 77 103 247 161 92 228 150 219 208 38 66 255 142 144 233 101 76 137 249 132 94 170 225 243 98 235 114 48 169 109 96 57 63 11 21 159 76 230 11 157 173 83 145 224 81 121 216 165 45 195 227 38 239 135 245 208 214 86 83 124 99 116 104 226 52 160 253 4 215 36 201 244 76 200 109 240 83 95 223 9 32 44 115 70 220 5 110 6 69 23 117 106 36 62 41 221 198 106 214 62 112 74 100 92 237 104 109 88 49 188 253 242 10 40 23 229 50 12 21 240 107 254 113 145 89 189 55 195 16 56 46 69 196 87 115 254 240
46 29 214 162 115 159 25 21 172 194 211 13 79 189 106 42 26 38 113 246 153 255 192 81 0 60 144 145 232 234 233 113 162 253 212 127 197 233 217 213 71 95 143 32 78 126 118 46 64 148 77 86 156 181 194 222 199 152 133 127 152 183 9 5 202 44 47 173 156 251 84 244 178 35 249 106 149 111 220 208 61 214 93 141 55 46 198 201 239 91 138 51 57 206 187 19 100 33 207 22 165 225 7 232 95 44 116 28 220 252 68 127 88 23 144 27 236 236 198 255 139 239 130 30 237 228 175 200 88 114 98 10 228 79 56 25 235 193 183 80 97 6 13 208 147 237 131 139 21 103 109 231 63 156 61 77 86 172 83 61 235 120 7 149 67 224 180 180 148 238 32 126 193 136 38 56 239 14 162 182 24 235 253 81 8 227 72 162 89 87 244 196 232 239 176 78 208 42 57 128 162 95 101 133 190 162 36 121 77 52 215 139 116 167 225 132 27 108 242 20 129 226 82 17 121 117 135 170 69 83 111 159 108 18 48 195 16 202 109 32 169 163 174 83 69 28 164 39 102 58 88 100 142 13 102 191 14 109 48 172 159 44 239 163 231 168 209 140 4 170 81 107 129 70 144 242 255 123 90 152 41 253 208 253 7 145 240 253 126 28 237 125 147 86 215 140 226 44 43 53
36 61 28 65 225 12 15 133 204 29 160 185 143 54 158 76 154 64 141 6 245 111 219 137 194 14 240 212 128 13 194 29 1 114 223 49 209 151 219 95 113 164 119 206 220 85 31 202 156 192 14 248 53 101 174 176 66 47 160 243 66 74 99 184 135 174 254 202 218 94 46 152 121 4 135 89 137 231 98 185 10 58 56 58 125 11 163 139 53 27 4 11 142 85 105 236 179 154 159 8 66 34 235 221 140 94 145 162 152 193 138 118 23 80 110 254 62 249 130 5 159 195 124 32 43 190 110 26 38 109 70 180 175 125 206 61 141 253 244 104 158 155 213 114 234 241 71 235 231 45 16 141 82 129 223 178 219 87 77 35 162 232 5 229 232 133 35 75 42 191 79 43 180 89 34 179 147 106 183 223 108 238 217 54 46 45 57 179 220 206 88 70 29 183 38 200 68 168 105 219 128 31 126 25 137 216 105 127 73 158 209 15 168 139 27 224 132 128 57 44 180 0 224 109 21 48 241 222 143 6 246 15 186 36 81 22 70 167 199 116 14 218 75 20 254 75 211 220 153 77 114 108 221 249 22 125 21 13 223 243 245 223 229 131 231 29 171 49 139 165 211 140 101 18 83 200 36 145 113 250 134 204 234 134 206 79 24 152 123 178 102 2 11 164 238 41 43 19 49 221
187 134 192 67 102 72 206 86 97 34 48 146 241 224 145 75 172 42 153 68 132 53 228 179 159 191 232 28 116 98 237 210 190 15 105 234 113 99 112 57 155 255 102 53 113 15 230 163 168 143 169 129 121 72 24 27 127 133 186 33 224 115 107 89 33 213 94 89 241 115 201 131 140 247 197 214 19 120 53 35 100 3 6 20 158 118 61 120 16 56 246 101 26 101 93 131 242 162 233 233 24 85 120 138 184 80 239 31 189 230 232 224 29 185 251 111 104 11 125 218 166 102 77 158 167 5 183 95 128 185 135 94 106 183 105 97 150 145 79 129 251 216 120 103 53 68 132 65 7 201 59 208 5 31 30 123 234 255 245 69 123 221 26 29 102 63 241 157 142 217 30 139 243 85 73 40 253 117 25 238 187 39 224 246 229 242 221 223 158 102 177 217 125 86 156 33 108 187 102 172 173 162 60 13 154 169 207 234 246 219 0 204 134 133 69 13 177 242 243 8 60 143 145 230 34 166 190 234 55 16 106 139 101 47 227 155 110 43 36 8 2 188 125 127 216 116 120 57 121 254 161 89 234 194 220 244 144 251 74 214 163 224 161 53 171 190 244 89 39 51 76 213 189 106 149 62 41 126 169 230 27 77 75 77 215 240 80 69 165 131 72 244 115 6 189 177 107 58 239 39
6 212 101 3 78 12 109 146 19 182 204 82 167 4 120 172 165 162 200 128 235 148 229 168 248 60 41 114 32 191 188 147 163 214 126 170 43 120 51 59 135 225 61 177 119 252 207 202 225 22 2 12 77 164 54 227 15 185 60 89 15 155 153 185 241 235 146 158 142 83 156 197 200 21 57 197 14 246 54 49 255 171 244 142 98 147 166 39 158 55 75 95 238 13 136 100 113 179 193 38 149 1 25 202 237 199 111 130 0 89 90 218 242 95 226 196 207 82 45 54 114 207 144 119 99 144 14 141 105 136 86 219 116 141 136 51 240 244 113 220 240 197 28 248 182 201 114 187 63 136 217 20 199 54 230 214 1 50 106 252 119 214 135 245 222 158 246 108 107 134 183 56 24 206 224 90 199 121 141 170 36 36 80 224 200 45 236 124 185 182 177 124 121 118 130 41 91 252 190 150 226 236 166 5 63 175 247 211 91 9 67 90 74 3 189 100 194 15 59 59 144 145 253 129 211 235 208 239 154 57 42 2 125 43 4 9 232 161 172 190 37 212 235 9 70 123 165 51 185 173 77 163 13 39 69 40 38 243 232 116 102 29 18 203 246 119 233 181 76 170 131 241 95 124 106 229 73 123 0 87 236 138 131 231 252 23 220 26 122 204 55 157 202 217 60 6 223 88 16 139
253 72 163 151 244 206 23 40 8 244 97 89 194 213 70 143 221 193 7 217 78 236 148 77 203 85 69 71 142 0 166 43 55 190 145 27 125 113 10 35 57 138 244 181 233 143 190 29 13 194 40 208 52 8 250 159 123 200 36 3 139 80 151 159 73 93 217 95 253 197 95 110 29 212 94 45 242 162 243 83 222 186 241 88 223 181 84 168 39 105 17 223 70 20 93 153 112 203 94 20 82 135 93 0 163 135 75 67 247 144 169 4 184 255 179 123 1 49 68 114 101 59 161 29 150 100 127 26 99 115 211 236 93 116 135 27 139 62 104 147 34 169 82 220 250 78 41 113 58 35 25 73 116 104 109 218 17 109 145 71 142 68 164 229 191 217 166 109 199 104 206 235 230 121 150 220 240 38 131 149 170 111 185 101 29 191 37 36 250 18 104 137 29 148 239 119 154 165 88 181 166 30 87 83 24 245 182 216 241 125 133 102 167 108 139 130 74 44 144 26 93 211 26 99 10 106 87 188 46 126 143 173 105 225 209 60 113 174 122 5 38 62 27 112 253 238 239 67 28 171 231 208 243 246 132 60 186 43 114 246 163 117 35 248 230 56 167 3 125 136 163 254 90 161 174 160 240 156 110 225 7 183 227 57 200 199 191 64 39 63 215 108 228 252 36 205 181 139 41 249
252 252 43 241 217 224 69 201 175 43 51 3 127 148 204 143 27 219 46 214 204 94 149 219 196 211 158 161 10 252 99 133 205 11 122 18 197 140 129 194 48 164 114 39 71 163 200 207 230 149 173 68 252 170 248 12 51 28 236 201 177 9 35 72 17 154 58 153 91 200 26 35 9 224 64 104 228 167 74 130 111 242 1 202 222 28 73 223 24 217 61 254 142 58 196 179 163 143 213 121 192 180 191 200 145 254 102 171 142 126 155 225 9 229 142 224 238 141 173 90 135 213 121 197 121 92 216 116 213 127 139 33 136 158 251 39 158 208 25 27 43 239 215 27 97 59 115 86 90 213 253 79 85 80 168 143 200 183 191 13 245 176 229 221 227 45 30 165 159 166 242 83 212 150 38 170 99 77 15 79 235 125 139 218 161 61 113 56 10 54 97 216 175 123 204 79 10 176 210 20 105 153 209 15 98 194 224 51 126 248 90 46 56 229 51 226 45 84 174 32 52 244 66 112 17 7 199 152 88 131 1 42 240 35 173 195 196 70 34 25 52 55 104 60 40 157 186 181 143 204 213 85 219 3 104 179 8 253 25 214 106 163 85 99 194 99 131 9 227 208 204 10 90 101 75 167 174 24 198 185 118 69 197 107 1 59 130 155 14 233 54 171 133 234 161 101 211 167 85 208
180 66 16 245 165 108 129 160 23 47 122 81 71 17 92 130 8 75 225 121 84 93 13 77 171 17 105 130 240 182 16 1 176 144 43 206 25 10 13 143 180 150 67 93 50 160 53 179 89 124 169 176 217 241 55 228 52 16 1 231 89 130 173 98 47 88 224 113 118 227 196 184 69 220 250 211 82 63 46 152 115 59 250 12 115 153 167 22 238 185 217 176 5 31 219 8 114 199 36 56 78 11 138 195 150 203 242 217 168 228 141 161 79 46 252 104 252 116 104 207 26 89 23 63 133 47 173 120 195 0 202 120 82 152 199 42 76 130 28 190 251 8 152 100 65 81 220 210 199 118 174 34 167 245 192 53 243 79 167 21 136 138 71 139 81 114 105 205 3 114 37 159 4 213 221 27 32 96 237 53 174 120 9 167 172 56 231 141 200 39 196 55 135 31 48 66 153 154 58 27 202 208 181 137 134 39 111 15 213 106 46 176 235 205 112 166 68 46 218 195 131 123 198 136 251 136 97 179 7 59 225 1 220 196 237 180 230 104 139 236 52 74 137 78 13 67 126 65 99 8 25 20 152 9 132 95 198 182 163 133 47 155 173 53 168 53 60 82 49 203 218 122 116 179 20 135 222 110 23 243 30 210 217 141 196 67 81 197 19 47 33 34 13 24 220 75 94 77 77 0
144 41 52 65 244 58 196 207 74 180 4 101 211 98 132 36 191 36 136 160 175 235 13 139 128 192 11 67 143 166 117 81 46 7 94 66 52 217 246 70 108 158 242 208 152 173 112 212 9 66 136 234 217 148 162 196 167 86 99 101 232 220 158 89 130 98 159 144 217 20 206 115 156 83 33 130 203 198 52 160 225 146 204 223 74 11 70 129 37 8 92 25 9 4 70 130 67 219 123 184 101 123 153 244 34 106 76 248 190 202 35 164 78 133 198 216 160 42 44 116 174 94 64 87 223 142 237 82 216 90 188 134 175 41 207 182 63 23 193 183 248 35 96 118 54 58 152 207 209 61 169 153 137 118 216 1 125 203 39 106 6 222 174 132 240 204 90 8 243 99 255 14 133 168 217 186 69 160 92 21 44 35 139 97 251 135 227 230 146 148 255 135 119 9 22 97 70 247 154 196 163 49 149 26 5 252 44 78 33 187 142 184 47 150 242 229 79 27 134 43 87 149 87 176 114 216 28 248 150 130 45 178 248 42 247 99 154 5 20 143 25 150 240 163 237 87 122 36 204 236 7 249 188 97 65 10 158 143 103 217 108 75 111 217 18 128 13 174 242 234 251 117 186 117 95 249 83 179 115 80 157 52 61 49 219 89 123 12 193 100 235 167 91 245 119 246 120 185 7 57
141 93 34 132 98 12 56 116 86 116 61 133 23 214 133 53 150 135 86 18 226 117 118 150 128 78 205 68 156 60 252 50 7 74 17 43 166 199 232 191 180 78 202 173 138 196 193 12 63 7 33 129 79 189 183 63 228 189 54 4 128 28 134 84 38 39 209 111 77 143 25 99 86 97 45 170 29 71 236 98 203 93 120 133 109 137 210 71 0 227 155 230 128 198 146 186 33 199 220 149 197 68 176 240 34 36 101 235 210 250 57 2 196 205 93 194 220 153 109 247 85 198 247 19 247 224 72 202 26 181 188 35 28 232 241 115 94 122 113 38 60 148 56 138 202 73 191 167 252 221 142 36 130 30 200 56 61 163 255 97 211 227 40 148 178 141 100 41 34 29 214 80 248 242 120 165 203 138 106 88 194 254 161 62 124 168 113 139 13 132 186 142 68 25 90 234 99 150 41 98 13 222 41 204 75 176 73 177 204 120 43 105 103 227 166 53 230 70 194 12 123 66 202 106 154 37 130 200 191 231 3 22 238 237 95 39 171 230 200 210 123 110 139 198 66 200 106 6 227 133 239 172 240 23 54 27 228 242 242 200 188 243 52 170 169 0 162 23 94 148 199 175 217 17 158 238 159 198 89 226 52 98 19 174 9 18 188 241 209 197 171 228 90 175 209 171 79 123 138 191
161 143 186 252 205 130 127 35 212 215 201 237 164 26 104 21 248 229 213 227 64 124 27 254 213 95 193 87 127 94 109 54 37 122 217 2 153 194 255 234 207 161 135 4 19 243 0 85 8 220 127 38 29 98 232 180 64 218 5 68 33 112 15 225 255 143 253 112 115 250 4 114 152 197 225 152 243 9 40 244 134 238 186 134 64 146 134 72 57 82 48 128 58 35 44 132 49 74 153 99 57 106 34 236 46 218 80 35 5 212 69 5 234 206 105 25 14 100 155 46 166 130 150 84 186 122 255 76 217 20 212 228 20 131 237 155 255 250 53 243 35 191 200 108 68 122 225 41 58 196 237 195 82 145 147 254 150 68 227 181 40 17 53 208 179 122 213 1 136 217 205 127 175 221 124 232 135 79 179 73 154 37 82 146 86 98 149 18 197 178 238 71 26 247 79 212 185 195 204 244 243 87 160 234 40 81 185 64 81 28 239 48 226 206 155 154 97 97 155 72 151 211 179 222 246 52 67 85 158 154 138 227 86 36 99 60 51 96 109 217 5 79 180 117 133 142 232 4 156 112 243 160 250 32 197 150 237 11 203 37 150 193 73 104 87 65 151 223 43 106 192 233 158 57 209 121 172 18 94 88 122 206 109 53 64 80 46 206 122 205 179 226 150 250 53 125 114 25 19 154
27 177 105 36 73 70 138 112 104 42 224 59 91 187 142 125 50 95 246 66 93 210 159 59 139 122 222 247 211 128 103 212 113 253 178 34 100 86 238 37 243 254 133 57 216 135 137 32 244 19 64 145 244 177 192 208 112 146 242 242 148 160 98 159 2 132 39 121 239 149 88 5 221 228 178 193 105 212 144 78 81 209 23 249 22 14 106 152 230 42 170 188 18 255 242 121 244 179 80 103 232 53 208 42 55 36 15 86 43 204 145 92 25 94 214 105 38 146 232 182 100 189 144 57 171 39 165 73 139 45 180 105 197 234 71 27 44 117 74 254 226 85 177 156 122 19 181 1 32 153 35 99 167 132 36 145 248 21 35 240 134 12 218 217 73 161 166 34 217 70 39 138 176 0 214 178 182 162 200 179 162 185 226 125 187 231 134 168 145 69 218 97 222 97 55 65 75 149 82 205 138 247 136 113 66 215 170 58 193 190 11 122 242 175 228 11 44 186 111 243 15 2 185 244 162 99 106 6 207 63 51 21 118 47 140 192 178 215 139 251 190 72 189 221 73 248 96 194 6 124 9 232 199 13 169 204 233 38 88 174 47 56 221 216 232 219 235 232 84 175 240 8 217 159 60 170 218 58 87 75 108 208 183 168 8 228 153 186 1 203 19 246 159 223 119 110 8 58 58 198
243 222 153 173 42 42 55 164 35 175 70 43 219 83 87 166 73 173 4 196 166 14 36 252 193 134 65 236 248 225 233 109 4 174 195 139 27 145 213 64 2 65 142 129 241 123 73 129 19 176 113 116 143 184 197 14 204 255 233 87 175 146 38 235 191 103 13 64 51 112 97 121 41 92 142 239 113 23 236 252 192 58 195 113 12 201 68 100 26 72 168 17 113 92 253 0 100 5 61 57 9 76 252 85 245 253 175 162 21 155 60 96 40 233 184 80 44 62 35 15 250 143 209 43 75 51 136 211 126 90 127 144 176 229 67 14 205 10 163 245 234 89 92 193 96 253 77 42 85 194 65 197 83 132 1 91 220 140 228 24 128 240 32 234 169 127 19 44 212 180 220 164 13 148 71 8 47 1 96 195 31 209 9 90 106 78 50 54 235 124 24 58 197 75 197 93 194 235 110 123 116 160 59 63 157 111 97 132 55 32 160 78 244 204 169 62 0 21 56 32 71 163 185 171 225 122 47 57 165 137 179 135 58 175 137 79 98 224 241 129 242 200 46 182 24 126 82 2 254 243 217 10 118 85 89 168 125 36 30 171 161 139 82 120 103 231 52 78 116 43 18 86 3 240 252 38 176 159 148 46 44 217 71 126 62 192 160 231 234 121 74 129 98 133 176 214 135 108 231 159
201 234 249 49 201 128 74 159 209 176 192 12 213 85 80 224 6 55 95 124 205 147 196 147 19 95 234 119 124 89 195 209 124 54 27 37 159 36 232 197 32 224 38 49 203 81 33 119 10 204 98 203 209 111 14 54 66 166 21 104 19 216 134 115 168 110 224 106 206 98 194 105 143 49 86 172 102 139 83 130 130 191 3 88 90 98 35 28 183 55 41 19 32 201 44 179 221 4 204 156 144 131 164 107 74 16 110 136 207 25 146 79 55 252 19 163 58 41 121 145 143 86 252 231 206 146 86 248 227 143 134 171 135 32 250 230 247 107 176 210 158 3 156 1 251 183 128 99 66 107 90 182 90 15 11 112 117 154 7 128 72 174 86 106 185 119 176 176 213 29 72 193 33 247 6 191 235 15 206 18 117 23 77 251 210 5 6 240 231 178 107 31 163 3 152 181 49 20 55 253 222 5 194 12 200 222 4 125 16 15 13 217 9 128 140 103 69 248 5 206 182 88 234 96 177 196 119 159 148 164 122 107 18 227 174 241 138 136 82 84 52 205 223 175 235 214 137 6 159 82 43 123 212 7 40 62 125 177 211 120 139 97 129 120 117 169 33 121 240 96 111 164 101 60 133 202 125 137 14 101 114 8 242 37 18 2 250 45 130 200 213 124 5 212 166 121 9 192 189 136
150 232 41 32 138 250 178 150 176 210 152 78 17 203 185 183 81 25 55 221 144 225 143 177 63 22 231 73 176 178 81 212 175 73 172 115 170 175 20 129 108 37 53 125 207 34 125 68 5 109 90 0 203 28 111 139 138 71 133 101 206 64 140 221 165 178 51 26 170 189 205 109 28 14 66 162 224 36 152 176 168 23 4 149 250 47 117 150 15 226 250 78 229 96 121 133 77 11 198 81 160 155 164 217 157 71 65 253 125 220 175 219 243 108 129 134 18 22 92 149 158 104 8 234 176 227 169 88 192 225 165 28 116 34 64 167 5 150 0 211 165 128 200 203 126 81 5 29 239 82 43 24 183 21 201 228 172 75 239 31 34 214 6 48 163 148 194 31 88 106 220 39 20 44 191 66 165 225 213 46 63 169 93 51 237 42 71 218 54 37 82 178 195 182 161 115 234 166 186 105 151 46 154 13 95 160 134 35 92 136 237 31 21 122 148 16 191 201 53 29 217 64 196 253 164 52 123 232 85 219 150 2 188 197 194 235 189 243 148 182 130 68 114 102 232 61 105 147 119 5 6 128 89 206 86 202 241 12 23 42 69 159 108 86 246 235 205 230 69 219 97 228 226 251 91 59 170 50 221 77 71 247 169 63 213 75 95 219 153 58 92 46 0 166 73 203 74 150 1 78
218 214 216 75 236 126 250 171 77 164 168 200 37 193 188 229 92 251 154 157 132 238 99 14 207 194 165 217 122 4 235 190 235 235 120 193 244 223 85 210 123 63 121 129 162 86 2 153 179 16 211 245 89 214 220 50 123 26 122 210 19 187 99 243 252 41 156 212 39 131 163 41 44 42 44 177 88 223 168 14 9 176 216 166 230 250 192 214 237 201 4 226 111 249 208 75 4 183 113 150 161 63 101 57 210 117 169 214 89 78 158 56 112 170 86 101 84 150 138 167 60 76 234 132 140 168 90 197 150 69 185 87 240 182 202 95 68 237 1 235 174 67 144 81 195 13 178 132 179 81 90 251 115 9 18 186 24 108 241 21 45 57 134 192 205 22 58 199 227 54 173 247 41 230 204 101 156 2 186 14 94 245 12 204 0 62 166 130 202 104 122 111 220 197 34 236 105 47 162 227 50 184 66 146 17 14 30 183 172 21 188 48 185 41 246 255 252 118 169 146 94 227 197 200 255 74 212 47 20 1 19 104 224 43 204 248 172 107 232 84 168 132 228 188 186 105 176 199 119 89 68 67 178 8 67 64 46 81 77 70 232 89 123 173 250 42 159 18 86 96 34 240 99 151 111 12 54 68 137 63 171 189 237 41 56 191 34 127 200 223 50 64 44 148 246 43 138 219 96 89
193 188 246 218 235 132 219 153 53 142 48 167 190 191 98 101 90 189 70 127 87 13 208 250 157 145 154 207 156 30 123 112 215 70 182 193 115 31 96 50 4 44 47 51 29 222 59 117 236 177 210 87 200 220 215 101 2 191 203 89 208 19 21 154 57 84 42 252 179 13 152 5 213 21 172 102 205 222 53 28 188 224 219 174 252 28 229 34 221 230 189 109 207 136 95 180 247 65 80 22 248 79 254 87 93 230 250 184 26 116 238 83 125 229 51 12 8 201 101 34 196 108 105 52 114 28 229 187 59 111 46 221 139 198 166 181 23 37 184 125 150 27 177 220 206 218 183 239 200 79 13 79 4 35 20 180 51 70 115 55 200 226 205 48 85 156 109 154 25 166 136 182 242 248 54 114 239 242 61 127 192 181 42 142 242 62 212 24 73 199 56 119 27 10 245 161 50 99 57 159 230 214 64 149 195 235 101 103 214 156 73 247 108 114 42 107 75 35 141 144 35 144 97 41 48 206 31 86 212 247 57 24 216 52 114 44 215 181 126 129 164 105 130 20 199 230 182 251 47 26 86 13 132 212 128 133 188 124 239 77 26 106 118 81 118 236 243 193 46 162 97 152 134 235 137 91 228 145 184 3 156 163 201 180 255 2 93 95 214 59 68 9 126 233 201 222 138 35 207 147
201 32 152 159 85 11 157 113 9 180 59 212 108 35 111 62 205 221 97 113 223 119 33 42 47 85 143 29 28 173 72 193 252 203 131 3 189 88 15 38 96 12 158 220 88 247 212 208 52 123 149 108 21 25 122 32 92 6 86 126 15 96 56 11 153 201 246 155 156 248 86 113 188 112 187 181 214 161 172 164 135 137 239 246 221 160 177 71 169 122 26 18 83 43 241 155 141 188 139 49 31 169 101 106 209 113 223 131 49 13 190 100 190 252 206 13 229 68 226 166 94 147 157 182 27 140 255 223 221 132 119 204 19 149 137 198 17 38 11 137 91 18 165 75 79 105 184 19 154 149 112 10 64 7 32 242 0 3 36 47 48 2 211 69 95 107 190 249 39 183 166 201 4 50 143 198 125 253 208 58 22 6 15 167 20 19 48 216 112 143 169 12 44 51 11 255 31 206 47 225 243 66 39 142 121 69 35 127 112 253 71 187 206 69 222 11 174 79 38 224 68 21 227 2 187 99 150 152 73 132 5 223 97 9 123 253 56 239 211 1 87 119 83 193 77 193 228 23 103 110 16 28 189 224 160 241 93 141 214 255 155 54 202 178 224 46 125 248 39 252 191 214 218 226 210 133 95 183 127 154 162 42 151 247 254 254 137 236 55 179 54 44 186 90 220 173 41 145 22 144
249 222 19 85 169 129 205 71 203 86 254 204 110 38 151 219 165 79 154 240 58 158 189 143 89 219 123 131 124 244 123 171 207 155 142 3 115 90 248 141 33 58 182 175 36 90 125 116 97 198 176 162 6 5 97 250 100 158 156 105 29 90 159 28 161 35 79 131 203 30 252 0 14 99 35 175 254 128 71 110 180 65 191 137 193 251 80 175 37 13 214 59 8 249 224 198 134 235 145 175 46 72 94 149 204 236 68 57 106 222 93 92 35 102 8 19 149 198 232 131 254 242 244 185 193 233 118 62 124 32 176 160 163 70 97 128 126 250 161 145 161 107 204 188 156 40 28 153 66 64 220 165 255 202 112 32 146 14 195 32 106 184 154 236 91 186 22 219 183 111 237 63 94 142 235 79 94 6 129 175 120 241 154 25 207 108 246 92 87 68 125 77 148 254 1 83 0 240 128 8 105 128 176 100 234 178 208 170 20 94 120 119 230 213 65 245 160 39 67 141 11 26 92 59 233 41 93 82 43 159 45 122 227 101 120 125 114 249 160 125 202 95 143 157 103 200 200 95 69 8 204 103 18 86 197 188 59 93 198 213 46 173 164 175 103 231 102 228 88 95 44 60 37 25 65 68 56 199 239 222 133 204 246 221 110 22 193 138 208 150 42 245 152 139 22 150 54 120 86 9
134 25 192 10 168 243 70 81 206 57 3 42 115 38 139 138 143 78 222 93 244 173 143 244 206 25 212 133 201 96 251 53 8 240 119 88 21 186 50 70 45 216 21 196 156 209 89 226 96 36 167 39 182 25 199 59 200 242 208 133 224 43 74 248 139 253 111 100 167 32 218 251 72 96 62 67 59 93 88 232 121 21 213 253 70 89 51 153 111 141 2 243 225 210 195 192 45 124 192 234 139 166 149 219 147 6 254 212 182 58 88 40 47 112 132 130 27 68 211 81 109 93 245 133 136 71 249 38 164 71 4 136 191 192 243 201 192 108 147 33 122 161 198 131 235 103 166 154 207 18 56 51 170 228 110 186 166 133 25 126 84 151 223 94 103 131 145 213 36 181 170 251 184 20 81 175 247 146 85 86 91 28 151 153 85 243 226 168 189 96 81 231 80 27 62 210 109 107 250 249 149 252 100 178 146 99 0 152 5 55 160 126 150 109 138 83 149 248 96 8 213 218 77 251 39 15 197 191 35 182 3 72 58 141 119 183 98 81 194 88 33 139 16 1 105 242 154 82 56 152 72 249 153 239 51 192 180 250 246 83 123 171 132 214 25 160 86 174 164 187 238 169 70 130 14 58 230 80 166 221 40 4 124 161 154 243 10 222 233 228 225 84 162 27 140 155 241 22 180 164
72 46 33 243 212 37 248 4 235 241 139 14 41 152 240 236 135 224 228 170 158 224 18 188 37 36 104 128 130 4 174 114 94 252 182 146 52 40 63 25 16 100 184 115 117 43 241 67 241 107 34 125 234 156 105 117 204 74 93 231 28 103 160 175 214 71 106 237 76 76 232 154 6 82 4 135 226 218 95 189 123 80 125 186 91 58 238 231 209 173 217 252 227 246 105 149 44 229 209 189 85 126 91 66 208 100 47 193 110 41 59 25 136 208 199 7 92 217 161 116 152 41 57 204 236 104 114 35 178 155 160 112 120 232 20 33 183 103 19 172 191 122 224 211 25 250 51 236 206 253 24 186 155 137 252 150 194 103 52 81 169 161 144 234 202 125 175 63 152 90 232 198 199 86 32 101 41 79 81 190 16 73 82 180 165 135 140 146 67 45 163 189 150 84 49 110 205 231 74 189 185 157 182 124 230 231 198 47 144 173 166 49 37 143 112 45 184 16 53 86 140 245 92 48 124 254 229 73 26 228 232 144 196 3 203 40 95 212 8 64 188 35 85 173 251 119 11 17 28 79 219 37 194 65 227 70 175 92 127 255 109 142 71 31 193 185 90 83 48 66 109 117 120 61 141 241 176 225 151 207 184 178 239 87 162 167 188 43 233 203 109 126 143 22 163 113 167 163 65 183
70 104 254 90 81 205 255 236 76 251 113 59 138 83 120 14 13 223 125 87 18 213 194 146 26 172 222 136 0 58 101 56 177 252 145 146 143 225 204 26 80 242 35 198 141 219 6 197 10 1 125 178 78 98 24 144 23 40 233 243 143 249 59 114 111 33 38 215 93 170 11 172 88 205 205 211 230 110 27 52 232 25 148 241 219 160 29 125 1 198 65 221 55 107 212 99 87 4 218 137 147 46 45 153 44 73 245 6 229 82 4 111 156 255 233 49 249 191 155 114 166 143 251 239 200 110 202 60 56 226 71 11 171 196 239 132 253 18 78 243 136 206 173 54 74 103 55 51 215 21 49 91 4 226 20 144 19 170 212 155 60 139 25 88 98 96 178 55 30 124 212 185 241 76 238 253 125 5 174 195 149 212 168 132 156 139 173 182 127 71 58 207 3 31 227 234 192 219 149 114 19 66 10 42 166 173 121 245 215 109 176 246 181 182 134 74 180 22 166 116 71 239 212 128 162 254 187 195 211 212 76 238 200 242 211 54 91 143 208 158 114 6 204 207 23 228 244 187 116 13 19 139 198 3 4 255 179 58 177 210 26 96 241 31 27 218 167 200 20 195 211 227 204 213 65 116 190 109 92 223 109 97 16 184 205 175 49 160 24 169 224 5 100 33 219 128 41 57 48 78
166 78 57 35 69 39 9 172 115 226 173 148 47 85 112 189 182 141 86 112 78 128 101 15 178 249 18 90 169 11 47 115 209 214 169 11 140 103 239 225 210 86 48 55 83 108 198 146 50 95 193 215 74 178 213 8 123 37 214 231 175 14 174 202 104 77 55 230 236 65 49 10 116 184 215 140 184 161 106 203 179 191 249 181 211 52 215 45 36 45 186 34 115 196 241 229 129 129 129 25 137 134 189 217 152 112 94 61 235 146 36 3 47 176 248 151 100 71 167 249 201 58 248 135 244 82 41 129 149 180 207 32 118 10 123 212 182 244 142 55 243 147 68 97 224 103 244 246 85 160 106 147 152 208 23 227 3 190 120 67 229 61 1 65 163 72 1 211 78 182 252 128 177 229 70 145 225 81 124 10 52 70 214 93 136 24 211 63 195 40 143 255 123 246 248 186 176 203 199 115 99 36 181 251 104 235 175 235 129 142 244 168 170 35 120 141 16 173 221 80 57 244 176 215 225 212 69 116 252 4 214 170 175 38 245 191 246 244 81 233 181 24 33 248 91 97 45 95 201 62 9 206 31 172 1 246 212 94 20 134 1 109 78 68 243 147 192 234 156 31 192 211 110 54 175 98 143 147 172 81 196 48 204 116 195 181 47 125 132 68 55 204 78 204 245 194 84 14 137 227
59 2 51 54 40 102 59 233 59 183 116 27 146 229 142 23 126 58 188 85 61 182 24 144 174 66 228 219 210 127 200 98 207 160 165 250 185 105 3 238 8 32 235 86 175 35 252 99 152 193 229 11 252 20 29 80 101 164 147 246 253 86 171 37 189 73 244 157 68 9 31 94 105 108 152 42 34 199 16 5 96 54 78 168 165 80 25 174 122 40 124 26 216 246 102 177 69 186 128 191 210 188 141 69 19 254 11 88 44 13 13 224 215 106 102 251 96 18 44 208 154 85 138 103 137 227 35 120 140 38 246 255 93 121 66 130 190 29 89 146 176 226 169 217 46 120 90 82 136 120 51 248 125 7 77 210 244 169 238 229 212 185 164 0 133 180 139 163 114 241 185 25 149 254 88 185 87 129 105 222 71 39 96 188 235 222 196 4 82 106 191 99 92 92 237 183 10 203 231 35 66 144 159 47 253 137 177 150 72 253 108 124 119 26 185 201 168 34 231 1 195 59 99 188 75 213 242 210 163 109 103 187 159 111 95 71 39 176 29 123 77 229 211 63 85 202 235 54 180 7 110 8 148 58 35 133 14 82 95 229 62 189 154 96 78 226 57 112 152 106 91 15 62 65 217 192 91 124 102 89 24 251 114 248 151 27 121 136 130 171 144 1 88 91 136 149 66 1 154 163
145 167 64 174 145 4 159 129 99 67 92 244 24 155 22 212 244 126 119 99 112 99 120 253 139 45 142 11 249 162 189 66 200 163 147 159 237 8 94 111 13 114 14 233 239 24 117 25 123 159 41 36 84 56 99 165 63 136 53 8 198 7 75 94 4 83 15 217 239 3 153 64 96 158 162 65 35 222 84 180 12 99 245 115 9 78 80 56 42 238 111 248 246 101 200 123 152 60 148 206 254 67 38 24 214 184 147 22 9 57 209 52 247 69 125 114 70 3 0 163 59 225 33 232 154 157 35 13 42 237 76 42 53 155 42 203 132 237 214 216 107 72 227 25 64 58 136 195 174 193 85 96 190 123 138 4 144 33 122 94 107 160 216 14 134 207 68 56 185 91 61 4 129 91 143 61 2 254 88 209 82 191 110 75 105 61 206 17 207 204 50 71 196 167 178 50 74 198 31 243 243 0 174 255 186 89 231 159 51 201 21 159 113 68 23 28 16 8 112 177 128 130 51 3 155 15 86 83 135 225 54 54 226 109 90 80 153 75 44 234 140 104 222 225 128 22 26 56 230 110 204 240 70 202 219 69 65 226 119 130 137 129 215 192 198 135 80 9 155 18 149 150 223 160 244 126 116 158 170 198 224 8 242 180 215 224 172 9 61 96 131 221 166 143 34 244 25 190 146 241
135 51 212 109 239 246 81 178 16 160 64 29 226 45 237 240 116 254 136 242 49 240 22 93 40 47 210 123 179 40 177 75 176 3 63 78 216 75 98 49 115 193 50 207 4 158 115 148 17 226 57 215 234 226 123 230 147 13 183 57 140 242 120 154 235 192 167 195 105 166 250 224 112 211 58 128 68 55 176 194 13 53 185 83 169 202 78 29 247 235 16 207 63 252 126 79 83 236 174 101 84 1 253 39 56 129 215 46 241 187 35 209 122 82 187 238 56 49 74 50 96 30 18 220 17 17 241 253 172 37 255 8 248 198 19 11 77 188 247 95 100 89 61 115 197 97 168 205 213 88 155 228 202 122 28 54 241 159 214 156 135 92 37 177 62 149 167 222 255 234 100 140 153 218 157 19 200 54 201 108 171 43 71 154 116 117 69 99 218 191 232 92 129 33 19 134 70 137 249 217 56 227 178 46 229 210 1 22 68 91 232 69 211 64 250 35 3 238 23 102 80 220 187 16 155 66 235 12 35 187 30 231 56 94 19 237 62 67 77 247 166 38 39 64 222 149 238 67 240 79 175 23 146 40 239 46 40 39 141 82 44 93 249 104 100 213 253 166 159 138 45 181 78 38 33 236 72 210 198 164 64 111 123 214 200 54 100 65 224 236 13 58 124 209 233 240 137 116 172 67
114 128 40 7 195 63 190 214 16 144 172 124 22 96 3 210 91 176 66 165 21 172 25 248 168 155 147 124 203 9 211 187 104 136 242 46 62 234 37 230 164 147 152 8 179 98 125 144 229 42 231 164 252 137 13 103 233 99 64 63 57 51 198 114 104 181 11 59 22 159 113 176 108 10 217 240 255 82 113 177 97 159 245 142 90 194 7 244 222 70 150 123 238 151 12 149 193 49 153 210 245 79 110 115 192 252 180 126 121 137 186 203 105 136 4 90 27 110 121 95 154 116 216 14 250 248 197 51 207 87 178 38 48 248 165 231 163 232 246 86 97 216 224 210 239 155 135 134 51 81 194 166 7 38 71 230 224 101 18 153 11 59 25 166 91 124 165 151 94 108 219 78 170 245 44 12 119 249 150 150 13 49 87 7 184 27 56 69 176 51 224 16 76 153 198 96 144 190 208 254 113 21 65 13 52 67 59 1 213 52 130 26 217 204 250 82 157 165 172 199 115 108 4 63 166 191 218 245 97 39 90 158 58 67 225 26 164 42 201 94 26 199 254 216 148 50 141 234 239 159 181 81 135 29 52 232 169 166 118 129 242 61 221 200 69 42 139 75 168 138 10 43 224 131 216 2 132 118 235 103 95 97 3 97 15 153 249 227 6 95 80 169 99 199 111 188 85 118 81 27
247 238 216 129 219 186 243 137 10 25 162 127 225 122 61 232 240 68 41 24 17 40 69 179 163 48 180 66 73 212 102 169 128 129 203 117 56 121 63 205 58 231 25 148 53 40 184 4 125 138 68 177 123 85 49 148 50 197 65 147 176 47 76 191 178 154 208 19 222 97 196 145 166 47 184 42 233 152 86 175 2 123 166 223 53 217 130 197 199 125 5 255 110 8 102 203 4 25 152 235 66 197 199 210 244 206 146 179 69 75 198 73 113 218 208 39 21 24 24 73 109 83 133 114 220 53 246 10 101 71 38 126 181 192 125 68 126 37 77 133 173 219 143 41 111 3 164 107 114 36 128 6 89 236 24 4 218 14 109 28 254 57 100 70 189 250 153 171 56 97 7 221 59 59 172 169 66 99 24 139 33 76 239 175 222 28 236 73 66 59 136 199 185 10 142 235 41 140 61 56 59 147 75 220 203 129 67 12 195 206 203 157 81 14 26 230 161 215 13 226 12 185 61 221 196 246 247 26 22 241 93 144 36 171 115 213 46 88 47 103 220 61 161 51 178 36 46 11 6 188 51 166 81 195 75 24 44 210 42 250 221 243 151 19 98 241 209 170 44 14 30 11 219 4 96 119 122 8 23 73 72 225 34 66 96 113 107 116 205 186 70 49 173 240 71 80 65 211 255 153
164 143 179 185 60 194 82 50 68 207 237 181 184 209 164 150 70 180 245 57 199 61 53 71 90 197 65 80 229 9 79 189 17 156 192 95 190 73 29 11 251 127 238 239 25 81 19 13 141 58 16 112 47 217 149 128 98 228 37 200 70 38 107 229 40 6 23 87 210 98 31 45 92 32 103 158 11 34 236 230 151 79 212 74 119 87 82 171 254 189 159 194 64 176 7 101 46 33 154 120 237 106 3 56 133 164 135 229 162 124 45 43 173 188 75 128 216 56 99 119 153 77 168 252 119 242 107 136 140 51 239 51 185 82 86 162 204 188 158 201 127 170 24 47 144 107 190 47 178 149 146 155 109 15 122 4 34 40 63 102 247 120 92 219 81 60 50 244 109 43 59 203 82 156 132 196 222 11 249 119 138 203 47 118 139 105 111 113 85 66 28 212 80 208 3 119 151 171 44 8 234 2 160 221 99 178 24 136 216 88 96 45 77 40 39 37 15 70 112 50 115 140 211 204 227 157 236 148 167 1 151 119 158 236 223 111 132 210 147 130 18 64 0 247 66 14 114 74 28 60 74 47 227 106 208 7 196 209 144 178 64 182 161 33 174 82 209 159 213 48 151 13 184 206 17 239 200 9 90 215 172 204 216 40 60 240 224 167 137 205 253 190 72 7 48 14 8 68 205 192
218 91 95 115 185 133 60 42 185 186 150 170 225 198 75 7 60 102 2 159 132 20 167 30 224 184 151 85 163 123 102 216 241 62 161 229 233 111 174 255 183 2 98 11 55 19 114 54 231 218 113 173 180 168 125 62 147 199 57 215 26 123 121 180 13 2 56 213 28 255 131 14 245 142 147 83 237 123 22 154 187 155 104 78 173 201 91 48 60 155 169 230 186 253 125 189 19 194 207 124 83 23 215 60 245 36 178 95 128 43 36 254 29 81 6 226 212 45 73 225 22 230 48 204 108 4 215 177 191 97 226 254 222 110 106 89 31 102 54 235 103 198 228 193 165 182 113 83 246 138 157 4 32 35 127 230 14 171 102 30 101 116 115 245 51 43 119 58 109 2 246 189 42 238 18 197 146 129 105 247 132 132 222 242 82 6 181 158 38 146 249 56 81 8 18 128 138 91 211 101 118 199 236 255 49 34 205 107 165 7 151 10 43 132 14 151 2 213 199 22 80 223 197 76 53 54 105 243 75 145 173 19 3 127 98 72 137 47 253 67 134 244 17 173 160 181 49 89 199 116 122 251 7 113 74 190 50 1 16 52 41 121 240 45 81 190 172 31 84 106 100 50 219 255 207 231 162 207 94 42 15 217 254 150 22 62 178 190 13 143 232 55 85 75 161 190 177 19 148 44
227 54 18 64 183 225 226 34 164 103 30 43 179 165 0 34 17 96 141 248 149 241 78 62 133 239 11 158 168 37 67 57 168 161 120 35 194 37 119 65 92 237 25 45 85 65 254 224 167 121 65 228 48 126 95 146 6 160 22 54 171 160 20 252 110 245 237 48 216 248 92 204 28 232 111 112 22 250 138 1 210 1 5 222 233 223 87 167 26 118 160 38 93 11 226 37 182 198 127 167 152 201 110 227 94 67 135 252 235 82 33 181 16 182 35 120 54 192 80 41 26 228 23 34 232 244 79 92 160 76 176 112 152 175 195 207 163 160 81 92 147 135 71 208 53 188 242 158 126 144 6 255 89 107 114 20 73 246 245 43 244 160 14 105 100 133 139 88 146 158 200 212 113 131 122 163 0 30 111 12 199 7 166 150 82 45 161 175 190 90 19 83 223 77 230 54 171 224 98 86 101 100 110 24 93 111 3 2 45 233 222 124 122 244 183 68 63 175 61 54 251 218 84 221 94 88 203 4 223 97 227 109 137 167 248 164 98 128 108 116 168 251 174 240 37 137 254 57 60 114 180 64 146 162 11 67 114 89 163 2 109 237 38 116 252 193 178 207 181 223 3 22 116 189 195 237 77 100 150 67 38 133 140 14 254 183 100 175 202 105 178 118 121 132 103 18 98 255 149 49
50 169 100 135 117 39 20 197 208 71 198 48 217 75 150 73 201 23 86 44 60 247 38 108 183 21 227 58 161 134 149 70 22 18 222 255 87 196 82 251 148 43 44 160 122 175 203 209 11 173 178 108 198 188 88 6 183 115 176 41 145 168 202 253 160 142 164 70 66 249 21 183 1 67 49 17 207 207 29 159 194 177 158 205 55 70 52 223 12 102 150 40 118 98 189 220 119 119 122 230 76 200 226 118 61 54 111 60 124 209 107 234 115 163 99 41 240 135 228 29 87 175 156 17 234 112 206 118 208 208 148 130 134 116 206 162 11 50 63 242 157 251 145 25 218 102 69 192 42 166 219 59 95 26 226 171 219 193 130 150 133 6 96 53 52 77 173 141 137 150 2 117 157 234 20 124 190 251 79 99 71 204 3 250 202 27 147 64 50 207 154 52 72 225 135 58 8 11 47 4 123 143 4 33 225 100 14 100 77 84 98 150 146 162 223 125 246 210 18 26 36 91 147 150 39 144 142 82 76 42 203 245 35 87 74 95 73 87 187 8 148 5 212 174 65 151 247 141 105 113 197 114 18 37 208 225 93 185 19 168 234 187 179 40 146 35 111 222 4 24 55 231 246 103 57 138 185 222 249 85 103 19 193 199 217 92 201 62 22 24 231 182 161 237 22 70 172 146 212 103
128 167 134 113 172 142 85 252 144 125 95 97 114 216 167 216 51 14 10 138 164 244 73 91 187 248 43 20 223 96 88 46 239 87 81 159 184 149 129 216 14 243 172 71 141 144 97 42 73 1 155 159 187 61 217 225 4 86 47 198 144 127 102 240 3 201 250 234 84 181 70 55 211 200 138 25 5 45 170 194 38 139 83 69 61 243 128 241 81 60 62 14 226 137 183 62 140 230 15 35 20 230 180 70 115 63 30 232 3 179 79 236 149 191 96 170 68 250 78 129 34 124 20 114 213 248 207 31 101 210 64 128 222 194 93 66 127 91 60 88 131 14 196 96 171 58 119 111 15 217 34 187 43 232 152 16 56 98 165 150 120 97 152 199 217 24 104 99 31 131 202 58 67 210 235 185 14 158 204 68 135 14 192 22 130 56 162 223 124 200 63 101 85 138 212 231 79 189 41 255 4 95 97 168 27 231 74 44 18 80 145 185 115 186 211 15 25 29 74 187 9 70 136 237 61 11 53 192 26 31 210 230 252 31 213 101 12 157 165 188 82 251 109 54 247 241 223 1 103 255 93 149 104 52 139 230 113 78 66 115 42 152 179 171 228 91 70 42 130 181 193 196 151 178 71 58 243 81 232 189 246 61 244 11 171 249 233 102 186 233 126 81 213 54 62 92 91 148 182 186
101 121 33 148 48 37 124 101 116 146 149 82 208 253 126 53 2 52 66 127 105 154 213 64 103 26 36 85 58 72 199 190 180 59 208 115 62 100 10 18 228 23 123 25 172 46 248 177 99 110 2 33 79 165 112 113 60 92 188 210 126 241 31 230 209 221 36 107 251 131 222 160 9 163 196 170 176 191 234 202 62 97 148 129 218 75 49 175 18 190 209 92 228 168 69 87 107 186 157 221 13 152 109 204 2 126 180 9 162 235 171 55 31 6 8 188 52 51 53 248 103 135 34 131 162 85 24 142 32 175 128 77 253 60 113 62 16 179 59 128 253 62 182 82 206 186 52 3 153 79 153 65 213 52 56 127 194 73 194 250 3 124 39 63 24 148 90 115 87 61 174 34 158 180 77 63 251 126 225 163 185 116 133 159 156 105 203 156 36 77 18 57 143 184 173 180 92 204 26 22 34 132 141 75 22 225 204 119 210 200 122 238 180 222 145 61 23 180 227 72 254 2 45 181 143 253 220 201 62 65 180 147 61 162 235 92 197 23 20 4 1 23 80 229 86 207 82 147 99 84 91 124 44 126 17 209 91 6 151 102 183 43 216 117 133 243 7 245 10 2 88 103 221 128 122 41 80 211 24 34 162 71 211 146 112 31 165 101 11 82 99 167 16 53 50 36 137 20 174 93
226 192 231 138 49 29 98 211 83 71 48 19 90 8 157 200 86 100 175 203 125 170 92 47 34 149 101 146 164 5 28 205 237 25 219 168 53 16 114 57 44 131 81 143 167 78 125 37 128 147 166 145 217 33 253 26 211 175 84 205 71 5 149 78 127 119 182 175 234 177 43 91 177 125 0 112 142 72 237 181 61 90 170 134 99 93 243 217 88 152 168 142 165 62 251 71 184 196 149 134 161 193 8 45 204 148 77 29 157 219 45 26 249 114 69 252 107 134 103 157 24 96 191 56 189 39 116 192 70 205 106 218 167 188 119 232 59 105 146 97 57 206 81 221 40 147 157 65 37 192 30 20 241 149 157 198 100 49 174 160 58 157 68 211 254 226 113 218 208 204 245 60 230 236 153 191 105 70 224 176 114 123 173 246 59 88 37 84 124 246 44 209 87 247 147 21 160 32 77 207 178 7 253 71 230 25 90 164 204 201 97 139 39 42 231 130 139 246 255 52 221 148 195 255 215 48 250 210 172 171 91 228 208 110 95 159 157 154 161 85 154 180 205 195 168 252 195 0 244 118 39 174 124 113 162 117 105 157 157 2 142 116 112 241 23 49 190 38 21 250 220 70 156 199 203 79 188 98 28 131 140 126 211 28 122 209 0 69 129 2 45 133 145 23 25 118 146 12 78 69
79 138 131 213 57 67 220 142 25 245 183 32 4 43 176 45 67 219 137 108 249 230 187 244 229 7 50 216 13 214 185 103 109 23 152 118 248 241 167 114 151 252 62 253 104 227 251 68 64 246 83 251 15 176 95 202 18 160 31 96 10 245 238 36 126 253 2 40 186 36 156 237 241 232 11 125 239 238 237 56 241 45 248 67 120 4 61 88 211 4 151 184 42 19 175 239 117 165 208 128 238 82 155 74 133 66 54 50 241 65 145 129 143 200 158 151 162 194 153 134 30 182 140 248 28 248 127 99 149 80 102 151 188 123 214 1 243 52 237 218 107 156 11 150 137 148 166 244 252 100 19 7 231 250 3 52 223 147 195 87 16 83 122 36 226 168 28 157 24 78 46 17 73 24 68 120 172 118 194 229 184 45 71 66 51 71 120 225 27 56 51 109 188 113 125 62 80 220 165 120 72 226 191 15 43 234 42 18 135 99 154 126 44 249 191 106 23 180 79 1 174 242 231 40 52 168 43 225 34 72 223 245 115 155 255 34 203 62 89 126 81 68 162 233 162 37 41 184 3 157 115 75 83 200 135 114 171 44 87 142 118 185 42 18 12 213 17 141 101 170 89 148 86 40 222 204 253 102 175 204 109 86 36 83 70 126 8 3 175 211 173 125 12 26 134 70 135 216 88 251
37 188 225 70 1 44 119 39 30 35 104 125 42 79 29 45 176 133 115 121 34 86 100 195 190 241 83 217 100 203 214 186 245 194 121 168 175 62 3 153 70 113 9 34 150 30 84 198 135 165 182 217 179 97 95 179 23 255 101 32 86 4 100 59 92 241 45 214 65 155 214 119 251 121 247 233 189 97 27 107 68 31 135 53 62 158 187 80 1 101 205 107 72 193 30 60 225 201 214 181 134 20 44 82 221 228 173 43 68 3 83 33 72 185 35 134 101 72 153 35 189 213 83 65 59 227 7 255 28 11 137 40 96 28 132 161 133 168 166 79 9 162 122 254 210 128 110 135 55 189 65 139 37 127 141 67 135 128 164 156 139 110 12 197 57 28 56 137 30 218 196 72 127 174 5 196 161 225 179 138 231 208 220 208 96 9 26 150 184 96 173 221 89 163 169 187 20 133 92 50 37 253 117 32 139 2 154 151 153 155 122 186 84 253 27 160 187 110 8 112 144 5 219 142 226 34 233 211 62 183 49 23 54 159 39 240 189 35 161 238 253 232 157 41 83 193 20 203 142 11 97 48 129 71 165 60 239 196 89 252 248 7 235 191 30 177 47 85 148 164 13 62 0 55 219 83 31 32 66 225 34 11 71 112 187 160 70 11 29 190 194 75 174 184 255 145 147 124 47 85
104 16 237 150 25 221 245 159 225 115 124 56 241 231 0 207 140 28 226 233 100 51 125 110 103 4 0 43 148 25 211 133 137 220 103 239 31 77 223 231 50 93 51 78 76 103 60 254 65 41 41 100 50 252 67 170 132 162 241 156 249 138 216 236 237 244 106 80 232 2 86 83 93 227 63 10 133 249 56 57 244 52 108 143 108 237 161 101 132 49 58 65 177 89 212 192 152 168 233 132 212 210 210 49 89 196 176 189 126 189 107 58 117 25 220 107 117 16 220 8 147 175 245 195 142 97 254 237 51 44 118 89 44 151 6 23 252 226 22 130 122 137 201 172 80 89 167 15 212 175 198 248 5 250 143 161 33 214 1 149 164 96 226 136 35 145 236 44 135 213 31 115 55 51 148 51 203 54 88 40 20 67 83 148 222 90 117 204 231 104 54 62 208 131 19 41 157 78 98 91 247 222 165 238 199 143 114 223 51 92 87 141 213 142 253 82 109 134 80 38 18 243 87 255 200 35 161 240 21 20 105 247 108 190 152 200 200 234 144 94 93 148 71 236 233 247 85 207 229 34 187 8 13 71 215 72 39 188 136 125 77 182 194 168 5 229 16 229 72 156 85 213 248 106 58 118 251 255 142 112 137 93 186 77 76 3 100 50 20 110 77 101 232 138 144 106 36 179 87 239
185 30 195 222 233 172 45 92 80 139 73 74 178 96 2 83 24 164 83 7 43 76 155 208 219 78 169 66 244 58 11 220 95 223 174 8 22 227 18 160 156 247 196 180 80 224 232 38 135 102 99 218 59 34 151 10 2 246 245 151 246 160 170 46 209 194 171 232 37 65 47 145 42 67 78 57 231 196 86 115 68 7 40 21 253 58 51 228 110 124 95 118 47 31 203 186 53 247 162 199 193 46 39 0 0 240 130 122 32 120 75 32 244 134 183 221 154 50 51 149 169 187 154 173 30 200 185 134 207 150 220 169 71 6 40 120 245 244 156 233 244 26 233 97 96 191 209 127 236 163 115 12 34 58 60 48 58 22 232 250 84 242 39 66 125 239 114 194 139 31 63 90 183 56 224 140 250 106 162 167 225 117 229 184 173 180 82 179 45 127 163 129 253 135 190 168 204 164 82 236 250 243 138 11 241 208 201 60 59 64 19 189 178 56 179 18 41 55 196 138 59 115 186 44 211 129 198 95 217 139 230 20 135 250 55 185 212 246 226 99 35 40 233 144 56 63 0 12 7 85 21 64 207 19 81 22 120 194 11 13 107 241 46 111 96 59 118 60 228 157 133 17 118 185 81 241 188 202 181 108 187 134 141 29 236 252 85 101 20 94 168 115 67 96 74 40 239 87 131 44
214 181 132 54 94 57 234 34 185 219 225 133 199 105 232 230 236 52 249 0 223 194 34 150 193 227 117 105 12 206 246 164 31 75 94 126 98 254 42 42 173 237 71 164 183 20 119 47 136 159 103 26 88 197 192 146 69 173 163 95 130 28 41 42 252 92 73 141 1 36 21 70 184 21 113 136 155 166 123 93 173 218 42 194 173 105 136 121 202 9 226 97 90 145 112 50 32 243 129 149 165 107 6 172 16 107 192 121 160 216 73 89 238 171 236 167 171 192 30 12 144 188 200 95 3 47 252 47 161 129 34 209 161 78 195 19 233 252 195 53 229 173 244 173 72 177 51 145 19 141 204 251 204 188 25 58 88 42 105 187 229 126 253 92 150 86 42 137 56 210 59 66 54 120 181 171 210 137 228 115 143 136 168 52 148 181 5 62 183 242 102 103 46 252 56 102 222 115 159 237 164 152 228 15 130 19 158 151 195 49 113 84 58 173 30 16 212 93 155 17 102 175 4 47 205 193 135 145 116 245 109 89 148 52 129 84 140 1 196 200 102 221 134 75 182 11 65 99 236 129 238 78 46 248 127 222 49 78 27 8 21 220 67 148 176 220 133 171 52 119 20 120 127 120 32 24 195 213 34 188 190 15 216 99 7 172 108 135 89 86 94 226 1 120 205 169 185 232 121 133
73 1 182 0 102 106 34 137 224 154 199 68 211 101 166 27 188 241 240 202 205 231 113 199 178 153 109 255 61 205 128 45 175 160 1 74 106 135 70 192 24 226 57 59 109 26 165 233 156 163 100 167 237 4 40 63 28 117 225 124 61 53 151 176 163 4 37 121 83 199 178 161 152 110 185 20 133 230 207 1 227 122 42 2 185 248 37 234 153 155 159 19 194 199 49 211 122 246 55 179 75 135 220 162 62 237 139 129 69 102 191 99 89 207 216 162 34 140 42 39 90 174 75 115 94 81 180 157 217 197 136 186 170 103 118 38 182 109 214 47 150 208 98 122 51 148 97 128 77 159 185 254 95 17 152 89 223 228 88 169 203 58 28 251 216 235 126 70 178 40 128 175 249 149 220 255 156 163 253 25 6 59 89 66 137 46 126 40 36 22 255 92 217 154 186 160 57 22 54 107 106 86 51 9 169 61 165 95 87 152 142 116 106 4 239 218 43 142 105 163 119 8 174 87 75 158 223 252 159 134 135 1 42 49 70 38 178 240 22 7 160 60 77 77 45 74 29 125 199 61 153 42 234 39 14 224 178 27 238 63 149 103 229 48 89 25 149 243 105 146 247 82 95 79 11 192 223 2 74 234 198 187 108 95 204 196 62 190 155 52 105 237 233 98 48 100 116 126 61 90
93 94 78 245 134 73 82 201 129 140 193 241 18 224 232 210 29 233 180 242 207 222 160 240 15 15 147 87 141 111 212 0 76 89 246 138 29 232 82 90 134 198 102 78 244 234 46 240 208 241 23 227 80 158 98 126 163 244 144 36 196 248 240 133 37 236 167 48 255 17 148 201 176 69 206 173 122 171 5 43 216 157 148 169 59 205 43 37 20 78 24 88 53 9 209 96 145 156 51 19 2 133 220 149 43 165 54 241 176 93 245 13 233 28 175 164 164 7 17 224 44 53 137 218 169 226 220 148 148 40 234 20 238 84 196 96 239 162 176 97 247 65 254 102 98 252 156 139 26 45 218 211 71 193 248 131 106 194 29 254 111 21 194 233 148 104 26 16 249 244 249 223 89 72 222 110 63 241 172 217 110 245 100 34 210 180 128 21 152 40 96 189 255 82 107 227 172 118 197 27 51 86 241 13 142 57 71 20 6 41 175 192 54 218 143 179 177 123 246 206 132 247 96 160 14 102 122 15 73 217 53 152 199 255 148 104 189 100 155 49 10 29 7 132 14 207 67 12 47 116 32 6 19 40 27 20 205 183 67 101 144 181 65 129 15 75 20 221 181 197 192 205 77 81 184 240 47 167 74 97 80 71 124 136 16 76 108 191 24 229 22 168 44 27 137 189 81 252 34 58
127 224 9 181 225 243 129 185 19 7 44 171 84 169 12 49 85 88 254 82 106 168 98 167 213 55 92 149 206 199 56 77 7 254 185 160 54 74 48 67 223 180 207 215 234 185 153 27 154 135 82 58 144 38 94 235 135 241 101 141 128 92 141 72 230 20 195 141 16 186 250 112 250 192 171 156 233 119 67 112 194 109 160 178 13 77 39 200 172 233 245 254 193 161 170 62 234 226 61 124 98 226 236 181 47 191 234 10 64 38 16 34 130 121 74 80 62 247 34 28 116 67 145 197 52 61 168 136 141 94 192 0 1 199 15 15 245 29 36 63 0 148 29 166 111 102 124 16 209 173 166 182 170 171 104 43 57 121 222 27 29 69 237 57 15 86 5 70 45 48 159 232 130 235 135 78 24 132 69 67 214 54 114 82 4 46 17 193 139 238 55 135 226 182 151 97 156 114 166 216 74 192 16 218 206 134 192 129 183 180 242 71 165 122 102 104 252 101 163 187 84 235 153 203 254 89 34 8 38 96 155 47 222 23 41 158 153 207 162 84 52 167 216 150 229 55 17 180 87 30 21 200 123 4 3 175 151 136 65 107 43 64 91 199 247 199 211 186 153 149 217 220 29 146 126 172 162 234 91 238 143 86 11 215 194 135 138 35 20 236 207 79 13 177 164 145 214 131 78 221
39 10 20 136 133 202 53 127 116 96 132 202 144 48 165 168 255 112 10 249 226 114 34 92 173 71 171 206 36 34 249 14 82 147 87 213 84 132 42 57 109 99 58 58 97 186 21 33 96 218 60 211 104 75 123 235 126 241 95 112 209 162 18 4 226 101 127 169 218 103 8 93 113 171 89 214 240 207 199 155 235 69 208 142 245 243 136 118 8 209 54 80 181 202 45 76 210 22 207 28 146 175 237 217 119 165 253 210 254 253 171 141 96 178 177 75 136 45 148 209 157 2 25 26 27 176 9 231 242 212 127 175 188 247 231 199 173 160 241 51 217 3 132 40 132 204 214 229 228 52 222 29 47 144 215 99 141 171 66 175 253 56 114 71 234 214 25 89 45 248 150 96 30 42 14 73 212 123 120 120 15 6 146 106 230 254 237 148 145 228 171 241 61 92 41 236 169 101 117 251 40 85 6 189 196 170 192 117 79 112 21 106 156 75 172 222 22 64 244 205 43 142 186 155 167 43 70 107 199 31 52 164 188 20 73 186 215 208 4 240 99 63 219 53 198 175 162 228 125 252 80 165 48 203 166 50 212 238 5 162 255 32 157 242 40 56 254 25 218 12 161 75 117 35 238 234 239 49 28 247 191 199 113 85 165 161 190 41 89 88 174 108 66 12 236 250 63 151 212 27
190 190 186 246 230 185 12 172 30 136 235 65 232 3 231 88 222 88 122 250 173 135 59 246 168 211 41 253 179 68 137 108 146 109 175 179 135 157 158 153 30 128 0 27 111 25 212 214 26 21 165 10 132 65 185 231 211 77 230 173 61 147 140 205 47 78 41 89 197 173 96 255 185 29 125 118 162 169 232 50 190 4 198 209 72 253 250 129 252 194 64 76 238 35 70 243 219 47 50 7 187 45 48 6 72 107 147 144 79 84 81 165 137 37 165 136 98 144 190 98 188 61 82 166 125 30 125 96 29 157 14 198 251 233 248 123 224 188 74 1 79 46 176 234 106 1 247 50 109 173 238 177 27 54 157 124 180 3 219 23 31 238 109 78 166 116 37 136 237 157 131 206 233 26 73 14 58 75 37 229 244 68 111 203 195 219 90 146 149 203 75 149 1 232 197 140 83 81 245 105 61 225 19 230 170 98 105 18 248 152 126 214 119 137 173 229 172 125 225 64 168 253 157 100 254 229 127 203 17 6 59 26 192 249 133 97 103 203 215 244 196 184 232 244 188 218 37 168 50 103 16 128 94 215 168 166 231 251 88 196 134 216 195 115 226 120 223 183 159 165 204 204 217 189 195 171 163 202 189 169 237 246 51 104 226 166 147 48 94 1 153 188 216 41 238 43 209 169 95 171
233 112 140 57 209 167 135 189 248 171 0 103 71 249 56 71 148 74 27 226 238 158 205 215 233 164 0 173 50 12 96 224 215 133 216 45 186 229 164 218 248 236 182 49 217 203 10 194 88 21 1 191 83 250 2 203 111 61 216 215 184 255 197 56 43 216 191 248 242 88 184 84 246 28 190 177 202 255 241 200 166 123 8 75 100 29 49 57 106 254 153 106 139 31 43 169 100 147 188 112 132 225 118 18 85 49 26 2 102 157 91 182 126 214 222 74 115 49 40 138 86 171 227 107 212 141 42 129 49 162 141 153 147 91 230 136 56 114 250 226 65 88 85 60 240 55 190 110 251 105 99 113 44 72 98 41 10 17 43 4 246 222 53 31 245 46 79 80 15 157 21 52 86 8 100 230 208 147 255 18 182 13 54 209 88 250 227 246 40 226 157 188 163 178 197 223 195 245 116 39 167 182 218 255 251 8 41 94 215 192 227 148 23 108 184 137 129 65 190 164 220 193 116 227 120 57 100 70 22 254 124 164 16 208 84 243 23 135 239 27 114 147 107 228 155 207 228 255 54 74 115 61 201 108 140 30 2 98 120 209 79 167 137 2 133 171 10 163 245 149 123 243 91 33 226 175 0 206 89 149 239 10 36 40 197 221 190 24 24 123 114 1 219 119 130 176 53 103 62 207
188 138 73 193 98 217 250 16 96 219 158 49 73 130 224 13 12 55 203 88 71 112 3 46 63 42 10 75 206 197 43 165 130 72 172 247 253 209 71 246 34 200 46 140 198 211 3 114 165 236 181 23 127 85 212 110 80 204 152 54 83 4 77 206 154 45 173 203 241 233 239 166 60 133 225 59 213 138 241 226 161 93 54 204 3 155 173 63 138 38 200 157 216 65 89 98 26 28 84 46 90 148 110 141 220 65 68 183 42 113 143 174 24 125 143 97 177 132 168 246 129 141 6 23 6 133 175 152 7 205 72 199 207 8 248 20 77 169 20 136 43 110 99 163 83 172 104 68 8 175 26 82 229 21 10 30 160 79 0 2 55 168 250 202 202 184 139 21 73 133 76 199 219 9 217 95 186 58 100 82 39 199 189 115 240 112 250 37 209 217 179 112 217 108 156 161 227 233 61 128 18 119 99 183 122 154 68 27 190 38 56 71 235 205 248 42 210 114 188 120 9 172 149 117 127 241 162 253 119 11 204 6 8 134 94 45 11 172 249 36 70 216 48 144 67 39 132 11 56 70 51 191 187 55 177 186 193 134 26 13 38 148 112 102 243 106 77 20 25 135 62 174 162 171 151 163 218 174 166 38 83 0 79 73 12 206 208 218 96 219 23 126 39 68 107 234 50 74 230 183
46 96 39 126 184 97 22 136 68 83 112 177 88 46 49 138 74 136 53 41 215 124 59 227 227 182 9 207 87 165 130 128 223 251 230 255 245 116 135 240 227 30 193 242 103 20 108 56 206 84 100 125 179 139 75 224 18 30 2 153 215 109 150 16 5 134 61 19 201 247 87 184 117 241 148 206 254 117 36 82 221 142 34 203 122 5 229 231 160 105 183 139 82 28 93 229 160 88 178 15 26 228 137 220 161 250 200 45 127 178 133 185 71 129 114 12 0 129 65 96 208 65 22 115 235 205 65 186 185 83 141 72 48 42 53 77 250 238 236 74 248 103 87 158 236 242 195 117 211 131 3 57 162 253 245 127 45 144 62 84 129 132 127 232 222 57 203 216 54 244 115 129 185 150 55 192 35 0 137 65 246 26 111 131 20 131 1 216 244 127 255 224 106 134 237 119 84 216 220 230 150 38 65 144 14 44 66 140 87 84 171 35 116 251 84 10 196 19 113 25 220 159 71 158 164 101 114 105 86 14 114 172 191 22 195 240 209 68 12 141 185 92 172 202 231 19 83 209 56 51 134 126 124 174 94 29 241 154 230 152 59 236 109 21 247 39 35 141 21 100 83 16 44 124 157 3 144 196 254 189 72 119 0 84 255 158 94 4 1 212 55 126 173 34 148 8 82 3 26 127
17 190 0 87 28 78 137 126 62 238 60 123 218 114 201 248 187 31 101 228 151 173 120 62 179 1 213 238 204 68 120 208 115 67 114 8 183 115 142 93 158 29 153 252 220 27 188 227 242 105 227 226 94 91 237 15 83 195 213 72 210 13 63 106 4 27 204 235 215 65 157 158 155 76 205 145 56 213 213 114 54 138 142 240 102 167 160 27 82 24 140 66 145 253 11 177 39 205 201 173 165 41 143 117 99 249 177 123 16 49 169 70 150 254 85 166 69 160 221 19 188 78 7 97 21 224 123 3 223 9 30 113 208 66 252 66 1 39 164 187 194 103 7 118 94 55 2 116 89 222 37 81 150 179 20 129 134 83 55 136 76 182 160 167 88 230 47 227 50 48 243 228 55 16 32 5 45 226 204 33 146 165 26 19 133 60 205 199 188 246 73 246 202 224 158 208 90 74 51 108 166 6 192 113 82 54 41 88 11 94 62 229 9 124 22 198 7 167 98 187 224 33 194 4 107 94 41 182 179 192 220 33 227 94 238 118 89 112 95 123 73 182 105 96 227 116 222 222 40 149 35 72 166 249 188 37 90 14 116 218 29 42 243 111 211 204 38 174 80 82 130 254 208 52 56 252 222 43 189 183 172 240 238 97 47 13 49 177 240 16 112 170 66 165 176 130 2 51 46 62
164 184 153 167 162 160 202 234 38 252 68 65 81 240 57 66 180 226 84 105 224 136 88 250 240 215 181 174 67 7 137 30 55 135 252 148 126 236 41 19 54 208 198 164 227 137 164 118 245 231 115 204 131 128 190 199 130 9 54 68 34 67 231 24 26 105 59 66 143 218 97 120 24 69 74 86 138 236 211 210 179 199 198 209 253 193 141 46 52 64 67 5 129 200 249 229 203 211 49 244 133 219 154 168 199 63 143 27 28 29 241 240 40 177 204 60 160 254 245 200 16 144 244 85 75 131 29 122 231 73 222 140 190 103 148 216 247 201 152 232 199 120 203 76 48 48 184 86 197 64 192 192 90 255 146 12 237 36 1 132 249 20 14 192 164 214 96 187 182 11 246 123 215 174 13 149 199 8 89 173 151 218 207 158 253 184 55 84 66 31 74 96 80 131 54 51 84 69 97 87 45 129 153 212 81 160 126 72 255 152 101 194 223 198 249 110 88 105 127 133 90 43 134 8 176 254 20 89 54 120 46 139 151 118 27 85 164 2 45 117 95 175 69 93 209 183 194 199 168 179 60 3 217 196 231 118 184 13 219 19 226 152 25 90 74 27 203 246 125 190 61 220 132 120 0 187 160 16 207 150 70 65 11 45 185 46 84 125 104 194 242 6 187 157 73 169 237 108 100 129
76 11 220 6 47 140 25 232 120 222 253 12 97 242 244 201 66 207 242 72 11 38 32 149 70 105 101 150 249 33 224 37 176 9 69 204 84 211 37 247 65 245 214 230 33 225 221 15 164 26 31 139 58 47 212 79 107 236 186 193 59 157 116 126 186 157 176 192 253 105 38 95 124 215 46 252 10 198 229 101 211 85 179 129 229 253 12 179 143 190 14 57 123 89 30 155 38 119 162 212 46 248 77 237 112 119 138 59 251 17 238 112 220 97 133 56 73 74 122 34 198 179 160 107 232 233 131 198 44 97 50 183 46 178 74 161 25 34 241 241 233 139 76 181 206 135 100 62 91 218 138 63 20 114 30 229 62 175 76 207 201 66 195 8 77 39 156 11 212 124 47 11 201 168 68 175 228 124 140 129 231 28 17 6 135 214 192 24 200 229 162 81 125 255 181 128 151 105 151 24 199 228 148 209 231 233 75 164 139 94 31 218 63 134 173 93 158 248 143 64 90 191 110 142 252 16 118 216 101 217 73 170 174 241 249 20 59 23 208 188 178 101 246 105 240 54 42 110 226 213 43 198 205 214 161 234 167 12 93 45 123 19 223 178 203 209 46 159 166 135 16 204 82 157 50 58 1 162 166 127 167 202 30 111 32 8 221 169 69 23 102 120 77 22 2 182 155 18 33 70
99 24 131 250 212 140 168 104 158 253 126 86 128 77 102 136 16 223 194 130 36 210 31 62 170 71 184 81 245 198 112 93 189 253 143 226 227 43 156 184 235 3 39 3 168 100 204 68 103 170 203 253 49 131 63 152 60 33 49 132 30 119 90 221 71 192 98 210 142 109 162 163 148 40 235 47 61 206 156 144 16 94 230 224 1 36 48 13 83 8 52 15 82 63 113 66 200 141 57 117 211 227 22 29 9 207 4 176 129 146 205 140 254 146 175 164 232 254 254 96 71 241 244 11 239 195 24 2 49 219 20 50 183 74 177 204 14 126 26 205 179 151 19 7 223 138 71 74 250 190 224 228 101 2 252 153 108 156 38 72 22 228 31 109 4 157 122 254 231 65 23 163 110 89 162 250 110 124 180 245 10 98 5 47 102 94 14 22 69 79 63 242 51 22 141 48 28 111 52 125 239 61 142 141 251 109 172 71 190 88 106 191 132 106 60 173 233 227 211 44 12 20 2 154 123 183 218 12 213 175 124 150 186 104 148 138 63 216 204 200 10 205 183 99 150 220 163 24 50 172 127 43 19 123 221 159 214 92 145 91 53 236 249 120 192 216 57 188 217 56 249 120 185 18 171 171 41 173 35 246 87 51 216 36 39 85 133 222 190 164 198 217 193 160 122 11 252 245 0 240
22 45 4 83 170 145 0 237 111 85 128 96 228 225 239 13 212 201 55 6 41 252 38 153 247 185 34 51 14 211 11 161 33 169 135 0 40 169 198 224 137 11 91 68 255 139 250 184 21 29 164 102 133 129 37 237 191 152 55 110 248 65 13 247 3 12 178 149 132 3 124 46 180 135 89 158 205 230 14 175 166 63 129 19 208 243 225 172 230 100 37 150 179 242 128 220 175 119 87 159 29 214 13 106 28 195 23 247 17 89 113 175 33 252 112 1 183 25 221 65 143 131 85 218 239 128 196 95 64 34 48 205 254 151 24 157 252 74 81 114 182 89 75 58 119 2 251 78 43 17 104 22 76 54 138 153 190 87 91 23 16 39 178 231 10 97 202 170 125 248 128 7 55 141 71 48 46 212 8 216 96 27 1 51 34 237 166 170 229 114 228 218 227 59 52 154 192 130 83 188 165 211 109 30 181 137 107 210 80 88 165 131 221 203 5 40 55 230 26 224 246 221 228 8 67 181 232 114 217 88 244 223 28 12 143 111 21 23 109 134 93 10 63 88 7 43 154 132 250 189 204 214 32 44 119 97 78 185 208 222 155 141 4 168 136 191 192 101 250 166 143 210 186 63 58 98 8 85 234 21 77 58 116 19 27 164 204 64 147 214 34 251 150 71 93 141 43 41 243 62
156 217 57 16 104 71 85 212 47 207 116 48 92 191 13 32 58 53 48 27 61 114 248 204 135 119 12 182 182 93 31 180 127 124 20 207 51 10 214 40 131 108 204 162 75 179 15 249 30 141 144 59 103 231 28 49 99 11 238 10 117 89 238 235 224 165 63 227 50 207 30 61 189 157 2 16 194 189 69 118 164 61 103 204 69 249 111 150 177 37 149 194 159 92 173 80 177 172 129 54 252 146 121 188 121 136 217 219 98 152 191 54 211 24 122 54 127 60 45 213 183 126 18 231 51 231 15 51 224 6 211 72 184 217 116 192 129 67 74 200 135 66 238 20 214 228 249 34 191 223 85 231 123 9 225 238 159 0 71 158 132 85 101 103 166 198 132 7 110 193 3 55 253 48 121 161 1 56 227 34 177 16 93 105 175 251 227 222 136 135 169 48 180 38 205 236 237 147 189 210 217 229 36 134 14 148 81 13 247 171 104 119 38 59 80 54 246 65 243 157 38 97 203 70 52 221 248 61 212 5 173 148 215 67 135 238 95 175 80 226 195 169 188 172 154 79 154 21 36 97 5 124 222 44 230 253 59 91 188 142 205 142 74 202 113 54 176 99 52 44 211 109 58 196 203 110 55 133 214 217 166 48 253 133 231 82 111 170 62 253 108 150 83 113 112 246 64 45 240 110
156 31 87 45 18 31 72 137 179 31 112 156 202 148 20 176 132 250 101 223 66 199 240 147 188 198 83 90 44 212 217 177 176 4 60 212 117 79 175 88 21 52 224 106 114 27 50 216 69 97 6 116 30 172 36 68 57 136 196 237 214 207 217 129 98 50 235 230 10 40 7 213 84 14 105 229 227 159 71 7 244 41 103 190 112 67 59 254 87 141 207 142 73 237 105 251 243 34 54 114 16 155 0 135 51 245 218 36 236 122 46 9 199 100 172 48 187 26 191 214 237 89 71 5 83 67 154 18 32 95 123 128 209 114 137 249 223 147 89 201 92 229 156 122 66 249 224 190 179 15 209 18 202 174 210 12 7 165 9 122 45 182 207 111 29 102 67 149 175 137 32 94 199 170 45 89 164 98 139 53 177 47 183 119 173 75 101 126 134 44 183 21 220 49 14 83 192 177 255 103 134 165 120 94 21 182 66 145 164 20 195 158 32 196 184 42 0 0 82 131 105 27 247 133 123 194 228 44 217 246 56 141 206 146 212 54 134 151 230 57 127 22 172 114 118 18 155 9 190 89 40 111 218 62 127 229 165 7 252 205 191 162 81 154 168 46 49 87 158 9 212 94 223 215 224 23 45 87 77 59 47 5 114 245 43 243 211 4 80 27 63 62 50 197 168 104 254 116 189 8
247 46 21 182 18 131 147 133 107 44 201 91 59 3 240 105 49 62 225 171 1 64 161 32 168 20 70 16 99 106 68 198 184 178 226 9 55 91 88 200 89 36 226 141 169 186 56 137 160 231 6 159 7 205 240 40 4 62 134 20 100 123 51 188 126 55 206 29 73 248 95 237 176 150 178 222 34 132 224 223 251 95 177 190 90 198 19 189 202 215 108 185 197 192 20 41 146 136 138 142 140 147 141 20 250 183 87 177 194 100 5 41 197 115 45 10 20 136 177 182 183 15 42 194 161 200 129 213 139 99 132 64 211 49 141 200 254 143 139 114 189 4 33 128 180 113 91 244 140 64 11 58 243 81 17 52 27 173 21 76 250 15 140 61 191 20 123 1 143 69 190 17 34 122 183 131 166 227 99 18 167 30 141 109 19 181 244 21 32 150 164 38 22 164 49 98 206 123 126 191 27 92 75 160 186 93 167 204 240 56 210 74 202 88 187 9 90 23 207 220 244 20 134 82 141 138 96 153 70 147 175 100 213 95 183 26 79 136 166 65 116 199 28 204 60 213 64 79 2 196 68 41 201 80 165 199 38 100 146 117 35 105 158 11 240 179 134 158 203 3 163 156 142 226 34 224 226 214 111 214 42 214 192 125 148 14 176 89 225 176 184 20 177 233 164 189 250 156 181 192
70 205 179 67 85 99 198 5 122 79 142 142 112 134 26 94 107 20 226 175 8 3 54 46 193 24 146 183 74 173 171 240 42 117 124 89 222 105 170 234 45 111 87 12 167 211 28 248 128 187 227 110 243 177 156 5 62 42 114 56 141 97 31 99 25 224 178 167 127 67 254 113 18 120 92 34 36 132 225 249 250 107 130 218 72 12 36 129 172 45 41 20 103 212 0 188 98 167 133 27 70 135 254 154 20 247 58 237 240 239 142 168 158 205 138 170 255 138 27 198 21 60 73 167 218 134 111 77 41 237 105 94 69 190 64 93 14 16 109 235 218 76 181 155 45 99 208 159 43 127 65 204 60 22 27 115 31 67 82 96 121 2 95 34 8 225 236 207 91 199 180 5 13 253 191 38 24 158 102 152 172 2 230 40 53 85 111 152 197 132 243 211 219 12 153 72 67 197 7 133 212 248 119 69 175 202 158 1 132 246 1 104 29 136 201 110 111 106 7 37 40 165 50 182 190 52 61 53 177 51 220 104 19 122 244 20 194 70 6 31 105 23 29 32 8 108 64 156 139 32 113 149 155 52 113 130 55 106 25 63 246 114 249 82 215 36 14 221 24 136 202 233 73 230 241 182 12 47 87 18 124 134 42 111 22 91 8 8 128 250 157 44 212 91 48 64 240 129 15 108
79 79 182 72 192 77 64 171 204 195 51 240 26 172 122 250 115 136 173 105 92 70 253 5 198 56 23 41 68 144 181 168 97 178 123 23 206 193 132 79 117 56 216 252 120 74 185 151 203 187 147 170 135 125 170 93 71 142 87 186 127 241 95 7 244 243 111 226 68 203 129 43 221 252 44 81 17 20 241 47 22 128 226 138 230 94 6 38 96 245 24 88 212 237 71 199 178 206 144 231 162 100 102 3 3 61 79 110 104 113 60 207 174 137 111 79 15 81 202 89 146 77 108 75 160 10 177 231 10 255 160 48 134 129 248 49 196 211 208 67 95 24 46 143 86 255 210 70 227 79 4 7 162 206 103 89 79 63 191 138 219 130 205 89 9 238 10 8 226 37 111 16 168 50 34 37 145 36 60 7 135 208 2 75 218 147 116 134 48 186 191 46 164 39 95 244 80 158 173 2 68 104 0 58 67 160 15 213 56 124 49 88 75 48 220 198 44 23 176 254 231 18 92 171 198 111 92 138 225 110 130 188 37 19 99 133 20 36 51 173 87 209 54 223 158 174 63 84 2 117 148 111 214 111 47 16 92 198 157 180 145 152 166 55 23 166 187 155 187 11 139 176 8 74 6 24 250 152 69 211 121 123 0 108 187 25 232 55 148 112 233 19 30 8 169 248 145 97 73 190
98 53 112 195 212 58 46 188 247 77 206 91 167 122 66 3 98 195 124 41 14 128 190 78 243 161 243 53 180 124 230 208 166 192 119 244 244 119 118 158 43 166 203 77 159 44 68 80 22 121 11 213 91 152 242 166 13 124 19 168 107 247 142 105 224 135 128 244 62 4 191 50 44 61 99 200 137 218 252 15 209 37 85 199 11 10 236 91 243 24 195 200 104 224 37 228 205 242 70 120 65 4 115 187 205 189 182 238 10 58 178 96 51 173 40 86 168 93 192 104 96 246 119 170 231 11 182 27 234 12 157 209 118 177 210 142 34 210 111 20 88 71 21 189 11 232 255 81 82 111 78 246 94 23 10 153 11 162 26 9 29 126 133 101 127 98 171 249 120 178 57 238 212 135 192 184 225 111 200 242 113 114 188 58 115 54 9 77 183 219 81 50 40 183 26 17 14 71 190 5 208 237 90 167 186 26 232 65 198 143 27 148 153 11 77 130 122 87 111 157 80 120 187 254 206 76 32 27 119 161 81 200 125 157 124 222 178 149 183 215 206 13 202 139 191 46 236 162 21 155 194 245 126 22 244 4 211 103 242 188 169 41 90 72 19 202 54 190 117 63 160 181 213 239 141 159 160 66 155 41 225 34 48 162 79 133 108 91 144 84 131 80 86 59 114 218 213 25 152 113
63 152 105 139 148 38 221 90 227 113 164 237 236 82 36 197 132 31 25 56 177 118 254 48 123 171 208 70 147 84 10 248 6 140 161 177 252 110 33 118 133 203 3 165 56 87 38 70 236 5 0 242 38 86 219 158 196 113 183 32 237 88 45 81 201 33 109 198 202 254 145 249 55 156 123 242 83 236 60 66 23 39 182 26 157 238 203 207 111 120 182 191 232 226 202 237 76 219 83 150 65 164 182 176 116 88 55 94 140 249 66 34 246 176 212 49 110 11 51 150 60 252 237 0 147 199 243 103 216 53 122 189 72 205 15 103 249 99 136 48 165 143 106 228 225 196 3 148 148 208 83 42 159 91 189 131 201 39 164 85 139 191 204 205 240 88 65 60 94 116 42 163 206 135 122 194 68 77 216 248 63 154 253 145 210 122 114 119 232 62 187 174 232 94 24 222 131 144 1 76 10 48 212 61 40 174 242 69 69 141 112 136 250 202 208 92 148 215 17 189 147 193 108 250 247 190 148 103 237 188 38 36 164 10 67 178 219 210 152 49 221 68 53 102 37 235 55 184 63 58 81 131 248 18 252 236 39 58 183 52 95 55 152 106 40 67 166 65 75 235 101 136 51 143 100 92 82 206 237 161 51 1 213 201 204 92 87 23 155 70 243 86 62 152 172 184 109 119 103 136
166 193 90 144 216 153 29 5 190 108 30 142 12 191 91 25 237 216 22 172 49 138 47 173 10 49 163 246 151 65 152 24 63 89 203 161 23 201 176 39 250 240 60 137 74 22 142 133 20 221 72 97 55 107 86 247 152 90 121 21 202 23 149 235 38 112 152 174 53 93 116 3 6 235 18 17 111 111 178 206 132 195 128 46 60 210 240 210 200 93 23 16 52 131 187 105 254 209 53 214 3 235 49 228 183 101 154 142 71 168 179 242 162 91 159 131 142 139 48 101 71 19 224 28 136 187 3 194 158 95 81 200 77 81 78 151 197 161 190 86 11 166 90 189 77 112 105 95 183 67 160 206 100 227 50 80 41 224 163 73 99 146 211 160 235 237 136 133 245 29 146 173 126 19 90 249 166 36 169 97 201 185 227 234 33 105 228 149 68 36 71 199 75 107 70 219 155 52 255 23 175 203 240 124 243 160 247 164 214 14 69 127 49 124 168 118 48 36 243 106 25 129 189 11 236 245 181 69 85 190 85 239 206 25 164 129 232 50 27 57 4 191 226 118 137 58 36 61 200 139 0 178 187 41 43 111 156 86 197 205 209 49 182 129 184 61 196 169 181 163 48 18 170 83 86 244 186 131 156 74 153 214 190 220 101 36 213 86 134 31 68 101 180 177 63 5 210 3 73 200
19 43 249 167 32 179 166 193 112 90 110 11 134 218 124 221 22 89 22 190 163 54 72 197 30 79 108 25 182 118 220 51 174 182 171 31 55 134 170 20 195 172 126 66 19 215 174 153 116 168 56 152 232 237 51 217 16 203 119 15 251 46 36 86 160 47 140 119 141 122 205 220 153 175 52 232 37 93 158 219 100 29 69 12 243 28 35 128 147 92 28 18 17 51 108 189 108 74 216 123 139 255 133 104 255 155 229 160 124 243 252 211 210 84 26 219 241 40 186 215 29 183 57 41 96 84 193 151 61 226 68 213 106 87 96 15 236 212 143 89 66 242 119 249 170 240 51 88 175 172 2 115 25 2 229 184 23 7 212 232 244 112 52 114 209 132 81 172 140 76 94 254 12 225 239 111 203 201 98 38 9 243 57 122 224 226 218 173 181 128 35 89 137 60 48 166 38 186 24 85 101 101 203 217 169 81 42 109 7 154 44 60 199 159 91 15 172 115 67 223 21 9 134 56 45 175 66 47 192 202 254 121 81 120 49 211 30 59 226 40 171 169 126 36 37 56 226 208 70 104 0 39 199 98 92 30 169 30 62 126 16 212 212 116 192 171 36 241 148 144 91 153 90 229 255 42 40 172 39 229 45 164 123 41 154 37 201 223 120 146 175 180 251 92 26 192 43 154 12 173
59 229 9 217 217 53 157 232 46 66 136 31 4 31 57 153 78 239 127 115 144 166 114 147 38 120 54 50 30 115 177 186 134 204 8 69 255 246 209 195 109 24 110 228 158 102 247 213 184 80 73 72 155 126 17 226 125 70 124 131 35 109 143 224 124 206 45 176 240 192 110 148 42 201 175 101 200 108 124 225 14 66 23 177 152 17 218 58 15 205 172 153 139 127 228 251 134 143 145 186 132 151 82 247 197 217 4 152 190 244 239 93 199 178 194 60 231 56 190 3 38 83 211 154 119 133 245 22 173 13 104 199 121 21 253 195 66 168 32 20 216 137 175 81 244 21 225 223 33 235 30 96 234 187 119 83 159 178 122 187 219 124 107 98 183 181 24 157 87 131 227 252 41 8 4 142 16 101 33 231 204 152 169 73 221 104 169 49 49 108 66 126 230 241 26 121 232 96 71 63 115 157 156 232 226 248 179 112 180 96 155 225 18 215 96 250 98 90 65 192 89 122 159 200 41 131 185 250 225 246 239 207 238 170 48 187 42 104 255 22 2 130 21 200 188 74 184 240 30 196 24 92 77 150 140 14 210 78 203 198 130 79 233 92 13 223 166 1 170 9 17 210 120 135 197 210 236 12 174 89 76 34 204 248 245 176 187 107 44 233 124 18 68 229 234 215 185 204 68 63
37 62 18 40 53 56 87 45 129 87 31 173 140 227 70 31 119 241 207 239 147 240 134 138 147 72 81 115 123 188 31 55 188 129 149 46 95 50 9 184 176 96 251 63 181 48 182 56 204 171 158 101 244 32 180 149 243 53 134 16 104 105 3 211 78 172 5 126 189 89 80 53 122 39 26 182 13 85 229 178 139 107 101 187 145 112 109 139 196 68 209 75 33 211 241 64 237 37 43 171 186 182 9 138 123 179 211 151 15 97 7 89 129 153 24 196 27 135 242 41 154 108 32 219 164 87 183 123 16 147 33 15 134 137 143 213 160 14 196 21 54 243 52 64 24 42 90 238 241 88 108 230 133 213 156 205 16 251 24 60 206 218 218 252 86 169 202 62 188 174 169 110 25 216 34 2 253 2 236 255 182 155 34 149 254 149 209 204 172 245 203 92 202 78 164 213 191 62 56 121 192 113 107 236 28 212 81 97 120 103 118 116 213 109 123 49 135 185 247 27 86 105 206 189 229 18 119 56 218 147 205 103 159 236 200 46 122 98 87 61 41 249 248 226 190 0 242 235 137 62 154 225 57 111 98 10 158 209 83 177 123 58 130 217 53 251 146 155 171 15 45 212 107 216 195 198 140 20 196 51 90 92 57 64 98 108 77 144 189 133 76 246 67 49 221 83 205 8 155 195
81 233 175 43 197 162 49 18 50 169 205 243 58 131 243 105 207 125 53 248 177 63 5 122 153 144 143 200 103 29 94 206 147 132 108 137 120 86 34 249 123 178 106 197 217 80 112 11 255 92 19 249 36 179 150 129 214 194 100 48 180 226 232 66 110 169 65 170 6 122 33 170 2 147 126 146 242 207 94 224 113 168 239 248 149 7 30 197 13 171 194 131 186 157 182 251 243 158 60 40 165 141 158 18 20 220 52 136 113 206 153 12 210 81 193 113 112 7 173 133 82 232 100 18 138 244 162 20 139 250 28 6 195 255 212 101 166 127 175 196 146 241 227 176 247 88 219 94 12 214 154 161 190 194 191 128 202 5 7 78 153 181 249 211 54 152 106 68 146 33 199 210 209 78 35 112 198 115 64 246 73 118 69 150 181 40 52 213 216 20 133 48 44 188 165 134 21 17 81 166 167 133 25 63 224 105 117 249 58 249 38 155 149 142 18 152 136 9 221 162 137 169 205 201 181 49 245 150 9 154 101 195 222 160 117 80 188 33 229 248 80 42 110 182 196 184 21 149 3 103 188 81 68 95 237 88 11 74 90 4 216 73 137 174 30 111 150 140 53 136 130 237 148 234 47 213 132 126 71 246 39 109 45 128 56 44 30 19 186 53 73 1 55 18 236 160 199 211 125 232
3 112 63 130 146 253 60 223 99 103 167 72 230 39 196 126 136 103 226 106 247 61 233 146 218 16 38 131 217 132 18 198 178 154 166 219 255 84 62 112 70 35 56 43 239 46 61 30 186 65 75 104 114 47 155 75 222 173 218 194 47 226 96 184 48 175 27 32 118 113 38 176 187 115 142 72 0 198 88 244 189 56 26 80 95 184 159 153 116 1 223 155 144 79 183 25 0 45 230 93 220 190 174 143 65 165 46 161 63 148 35 117 73 151 32 171 81 49 163 175 31 151 9 174 235 103 97 150 149 156 198 118 58 173 54 146 140 0 57 163 45 34 224 186 11 32 124 204 147 246 31 238 172 143 241 219 158 226 130 80 30 199 37 64 47 24 0 84 52 49 43 110 208 240 201 113 209 132 73 216 223 137 238 167 178 77 112 33 180 125 62 73 128 68 236 242 97 32 249 108 229 166 145 74 49 1 16 6 223 26 177 235 116 113 156 253 187 191 130 151 5 176 58 202 23 69 132 72 77 43 43 6 63 211 170 110 254 96 13 191 104 248 198 91 43 185 37 31 43 249 216 162 157 247 7 92 101 145 124 253 74 133 172 51 98 194 124 207 133 208 75 166 229 78 182 239 84 161 23 23 169 203 65 164 172 63 160 29 176 245 154 20 133 255 240 29 155 35 151 168
180 160 47 130 106 255 127 1 108 196 182 210 58 120 177 167 199 154 130 15 167 132 198 134 132 81 80 44 49 36 101 33 238 187 156 85 93 234 200 57 145 164 247 113 112 39 21 39 202 114 82 219 27 117 138 28 238 181 34 118 47 209 173 81 184 57 169 66 67 29 142 133 144 81 3 51 38 255 85 18 133 227 46 213 59 33 187 130 104 244 121 50 233 103 138 131 232 31 117 11 110 117 181 179 189 55 255 101 48 199 117 214 15 119 118 158 132 116 240 146 187 196 167 21 178 74 134 24 184 224 73 30 195 158 13 57 241 174 38 212 117 62 189 153 142 159 79 193 32 45 75 146 95 57 106 2 46 224 241 62 13 91 46 203 77 6 133 75 174 217 183 68 92 145 104 247 255 109 157 164 88 154 129 132 24 1 13 105 112 104 22 175 32 51 8 184 40 247 252 145 248 48 201 138 228 209 3 210 68 80 181 51 153 73 241 179 91 39 67 214 100 32 188 13 127 148 36 227 190 166 251 2 31 179 209 91 195 134 76 226 0 7 233 222 49 162 57 85 251 254 11 180 49 167 61 5 57 178 1 229 83 225 100 60 244 103 107 196 242 224 104 46 39 55 6 79 155 214 245 106 77 17 29 246 69 131 162 0 8 122 163 120 39 149 176 221 107 173 97 193
89 200 147 237 190 216 163 75 142 221 203 182 187 53 116 89 221 173 44 243 5 42 16 182 1 94 152 248 24 202 226 196 183 87 104 27 141 73 191 206 122 87 180 216 35 74 8 245 125 11 178 41 132 238 96 73 115 163 226 169 9 230 186 193 39 5 140 135 156 251 112 219 91 128 180 125 224 227 107 35 197 32 193 72 11 38 51 184 116 61 166 63 74 123 57 167 139 150 183 167 199 202 64 56 203 152 30 253 13 107 24 116 118 199 97 246 20 41 146 92 104 242 80 206 47 93 146 55 56 126 228 35 19 8 118 154 236 72 251 60 228 39 239 118 98 10 236 125 152 233 142 148 71 10 130 53 46 186 123 9 70 12 76 61 162 83 206 75 94 61 81 107 27 46 16 24 10 128 52 146 213 41 142 84 189 11 92 72 143 92 130 170 138 206 133 177 213 213 90 114 82 51 199 165 112 121 98 151 27 94 89 140 12 129 32 11 140 4 134 17 179 105 96 141 79 18 184 209 2 177 254 9 0 105 189 86 140 187 94 248 40 60 175 15 253 202 54 13 13 98 187 107 45 137 198 225 6 251 83 175 27 186 27 243 154 250 81 5 144 153 2 128 254 79 20 141 112 227 29 194 194 92 24 138 174 98 182 205 141 129 157 57 116 106 253 170 16 187 1 210
103 3 60 111 167 73 142 53 53 131 102 196 142 200 174 209 58 196 69 232 122 115 127 215 1 187 174 216 63 79 61 120 191 212 213 145 233 141 107 209 12 127 154 8 4 192 139 116 234 4 70 251 202 235 240 205 36 0 246 96 24 203 28 134 115 110 10 40 94 85 27 156 52 48 85 159 89 240 211 147 149 182 200 79 233 54 236 79 112 190 68 248 71 104 171 62 106 75 88 124 4 209 194 23 63 80 121 74 162 91 10 23 180 253 252 236 207 237 116 40 42 228 0 192 76 172 198 185 40 101 35 127 69 209 147 227 72 44 33 239 250 231 28 113 175 165 183 59 43 6 225 162 233 50 110 10 60 95 236 233 172 253 98 145 235 185 34 54 222 116 21 29 129 36 32 221 191 255 160 124 124 21 11 73 220 171 193 167 15 195 221 32 93 100 42 168 152 159 112 37 236 0 42 59 27 160 251 208 20 231 247 78 107 109 78 179 246 33 207 160 134 106 21 108 34 135 21 155 34 0 176 163 141 203 129 53 125 154 167 179 131 14 62 68 58 22 12 210 202 56 200 165 127 118 78 45 234 39 177 17 128 41 245 36 17 236 110 92 73 87 189 39 8 241 126 167 26 24 198 136 55 161 11 91 244 126 8 153 15 210 44 91 76 165 85 62 16 254 202 200
36 11 169 4 182 198 218 37 130 199 228 195 109 136 32 16 209 149 135 60 106 166 173 44 126 12 126 74 47 166 84 98 111 204 142 173 127 231 251 77 182 78 219 166 192 235 25 212 161 223 235 141 173 34 115 245 121 204 31 241 4 72 182 199 42 127 181 147 79 151 12 22 112 88 216 21 169 69 184 8 73 138 237 59 141 195 88 44 192 12 124 11 105 59 103 133 50 125 83 13 30 120 20 220 45 143 250 203 131 105 151 41 93 94 214 90 6 94 217 125 237 247 216 88 42 242 224 247 228 82 228 116 156 157 200 90 114 31 106 192 183 21 162 164 204 16 194 206 193 113 72 242 199 217 145 132 49 246 41 225 76 45 52 226 78 66 72 238 146 159 175 94 92 18 124 192 113 2 198 163 215 91 66 223 117 9 150 245 236 11 90 248 12 172 151 234 19 127 114 231 243 31 136 24 150 38 141 225 135 122 188 201 155 219 128 191 160 231 250 196 14 248 172 241 8 197 96 255 71 82 222 55 124 96 96 124 248 82 129 111 203 77 157 56 243 155 72 85 220 255 244 163 135 169 79 154 127 23 145 122 1 192 54 143 171 110 91 47 111 80 99 63 123 234 220 205 20 181 191 216 197 4 13 245 115 51 215 93 159 187 0 184 217 103 58 170 49 177 102 215
165 89 130 244 23 236 10 215 222 158 238 138 78 51 178 23 45 62 116 136 69 216 72 133 152 115 150 209 236 8 85 178 141 27 156 180 51 158 241 102 236 222 43 155 243 14 205 47 243 219 15 216 49 58 132 218 91 21 200 171 41 238 110 164 250 237 126 97 57 43 173 212 91 10 91 7 28 203 163 15 173 206 231 94 250 107 136 147 127 137 2 33 255 146 167 72 44 130 243 247 86 133 198 76 162 243 163 106 159 248 22 86 22 8 93 135 108 134 130 133 27 21 53 8 221 239 182 203 119 186 113 249 3 226 251 106 98 14 40 252 73 85 91 197 76 248 197 196 174 169 18 82 34 77 209 37 90 192 234 225 88 93 242 128 128 86 31 12 119 188 90 55 38 215 50 236 167 77 147 102 178 22 95 205 112 195 114 247 163 211 121 252 20 189 159 77 216 176 170 59 198 131 212 200 211 73 121 80 246 128 106 89 189 242 232 161 104 170 187 248 121 182 207 191 146 102 35 46 31 73 87 16 84 174 51 202 208 86 97 218 94 184 35 166 73 239 113 152 254 66 0 116 11 255 54 185 69 93 197 94 200 60 251 148 180 2 46 26 37 143 65 192 156 28 198 2 63 120 124 8 7 238 78 39 188 210 254 132 17 79 95 192 76 53 95 142 3 150 211 201
192 249 198 174 174 197 52 131 248 183 136 142 216 158 46 10 155 122 172 6 182 29 155 150 85 127 210 17 1 215 118 95 247 233 16 164 146 103 209 179 217 153 28 111 149 219 36 215 97 202 146 25 59 116 16 217 253 160 17 112 0 209 151 128 46 158 115 149 79 168 247 159 25 226 44 17 27 179 183 0 251 252 131 214 210 227 160 248 79 134 124 38 229 11 139 184 19 43 111 228 11 72 100 40 63 211 109 131 197 23 166 166 65 62 135 99 111 221 75 84 199 69 115 226 116 187 16 250 200 160 31 122 210 236 76 112 149 122 84 26 96 1 202 228 165 169 79 5 111 144 151 227 216 228 90 10 60 70 79 184 78 158 100 23 106 108 229 110 117 193 14 11 98 90 70 97 13 233 53 92 207 101 136 89 188 5 251 128 200 135 208 123 192 131 165 29 163 89 2 57 19 67 191 168 129 66 220 53 40 138 44 193 160 99 114 23 108 55 66 52 219 142 157 10 55 221 19 195 170 68 22 32 208 7 0 134 137 5 42 226 48 120 179 211 38 86 150 54 142 142 212 141 155 39 91 73 64 168 47 244 20 106 116 96 212 225 111 75 66 237 175 49 204 135 126 221 243 85 173 98 25 234 131 15 101 161 230 90 92 22 104 95 236 185 69 235 194 251 141 180
110 98 151 59 155 71 16 181 244 75 107 163 92 216 127 153 246 0 45 102 18 13 80 55 14 131 171 153 224 134 104 74 16 170 128 208 85 244 139 198 27 183 49 19 46 1 32 142 26 242 215 179 16 201 183 137 28 147 6 140 106 137 168 147 142 29 20 58 218 205 101 18 234 125 131 22 193 29 57 159 231 105 221 218 222 52 132 91 200 73 181 7 174 213 17 130 99 254 94 99 196 76 101 249 127 233 252 188 117 28 135 52 174 201 248 11 96 229 41 6 102 193 152 25 86 39 72 64 49 34 115 192 72 240 214 221 133 248 202 120 23 232 212 63 36 220 20 70 117 233 34 72 55 23 109 225 62 212 235 239 35 85 217 240 144 212 29 131 131 71 213 183 166 64 4 76 238 206 131 23 190 148 182 196 129 197 70 87 168 120 61 139 34 253 208 96 128 156 183 58 59 190 197 246 213 123 22 137 152 3 28 185 198 232 249 255 214 12 228 247 19 61 158 80 234 193 182 151 13 198 170 97 177 212 3 91 124 57 211 247 185 124 8 151 120 218 92 18 14 5 89 193 14 87 222 36 210 219 206 225 70 169 222 48 144 35 176 247 20 147 250 171 39 53 63 49 52 10 115 78 145 172 190 117 95 186 190 58 206 81 240 147 19 155 203 207 167 72 47 74
34 119 246 0 9 182 2 20 85 50 215 36 89 202 4 183 232 33 222 18 143 46 101 39 254 158 99 28 183 16 251 240 72 17 193 62 162 30 227 232 48 252 67 223 152 241 22 105 223 155 5 151 101 63 137 37 137 16 146 156 218 158 133 110 124 253 1 227 37 52 171 102 24 23 148 238 247 9 180 217 205 137 215 109 29 215 59 114 224 11 124 10 18 249 240 218 66 73 208 145 189 188 84 78 117 46 49 109 120 126 229 49 196 81 44 250 49 29 152 196 174 240 240 144 28 99 85 165 213 233 116 7 80 161 100 19 148 159 77 153 234 132 244 223 69 175 149 8 148 21 193 150 212 145 212 50 166 210 216 106 223 128 86 189 210 163 183 144 199 112 46 139 42 144 167 148 92 67 136 251 204 62 59 97 114 198 154 151 31 137 138 27 29 40 143 46 58 54 156 3 159 196 75 68 72 23 129 120 135 136 214 184 255 253 170 41 211 92 139 33 115 145 7 67 154 158 223 51 149 142 134 63 215 191 68 217 108 9 140 97 101 128 203 45 69 169 79 20 254 107 121 203 25 179 206 158 227 234 11 228 88 184 46 190 199 179 191 235 15 48 136 56 13 60 176 1 155 50 162 126 165 43 91 160 204 240 181 44 90 169 132 215 47 67 133 213 49 168 3 54
27 122 250 1 241 161 255 159 93 226 178 118 71 141 104 138 21 149 232 236 83 12 214 81 222 57 94 228 76 5 47 159 209 168 123 72 62 193 228 147 162 191 161 166 52 209 19 187 209 213 228 30 32 4 33 14 118 14 252 20 173 238 249 66 59 18 58 166 126 141 127 34 144 72 122 90 119 190 115 228 203 73 204 141 223 191 27 32 18 155 7 226 202 144 107 182 123 239 127 243 99 223 7 54 87 75 1 134 72 111 90 61 37 12 38 38 150 253 208 179 221 148 113 242 6 112 48 105 149 234 189 241 19 18 79 159 238 97 67 78 224 89 11 36 184 36 108 12 186 147 113 138 215 132 213 185 87 117 228 20 10 100 25 237 183 124 31 251 78 223 32 19 211 234 169 219 227 149 82 106 118 55 39 16 186 204 231 241 223 188 192 191 118 117 221 229 238 92 119 43 33 180 37 177 243 167 104 111 168 13 29 60 19 207 48 13 246 189 137 223 144 21 233 54 170 126 236 182 110 89 246 137 108 213 223 13 199 100 73 67 127 54 129 190 138 212 55 164 206 233 149 246 92 246 202 174 89 130 11 133 120 205 19 40 84 26 226 140 247 143 105 31 122 54 208 216 140 26 197 91 137 105 218 142 91 253 192 103 17 139 169 64 89 41 215 82 205 122 120 20
211 139 117 55 177 222 150 39 15 96 162 14 157 178 168 68 129 80 130 60 29 251 89 210 82 36 28 80 228 27 230 10 203 151 60 22 103 169 38 250 170 248 181 84 31 117 3 173 223 150 85 23 187 181 239 25 129 165 15 171 242 192 81 216 58 52 244 225 86 248 144 180 0 253 182 170 89 157 18 189 77 32 95 157 130 18 234 178 14 249 181 88 39 222 208 126 101 205 88 54 194 118 41 95 227 203 104 39 76 183 52 72 57 195 249 70 252 92 18 134 134 55 39 253 189 40 145 185 170 183 68 61 31 192 122 78 219 55 203 83 126 100 213 147 10 231 226 187 59 144 102 107 241 107 47 86 124 121 97 39 200 112 167 229 240 145 96 68 123 23 180 124 247 123 156 164 91 183 229 66 210 102 31 91 183 107 152 92 116 102 24 234 169 35 113 124 204 58 137 149 103 54 78 103 84 32 61 198 122 51 173 20 61 143 105 125 53 197 178 222 115 237 198 127 163 149 32 10 39 234 144 64 100 250 222 104 164 231 41 218 50 148 8 136 99 53 153 118 26 174 40 119 235 91 107 24 5 207 229 98 190 60 130 238 16 164 217 170 246 161 15 70 22 26 242 221 177 131 38 37 232 121 224 5 13 224 104 1 164 208 210 139 80 226 28 29 152 65 131 247
241 18 182 228 216 42 226 29 161 224 94 98 82 58 106 31 135 187 165 129 217 20 40 168 14 48 16 47 142 203 72 211 70 231 143 178 58 238 113 179 162 141 23 206 49 254 218 55 0 178 82 254 16 83 77 153 138 45 111 250 250 162 152 252 243 148 180 115 2 243 0 71 166 37 225 151 9 42 187 217 155 81 154 161 128 26 93 211 104 139 240 44 98 222 56 144 97 141 2 176 69 218 40 207 135 226 57 148 57 213 53 174 3 69 142 243 175 26 117 255 180 138 149 228 190 228 226 164 228 100 148 25 100 145 98 202 115 7 230 236 143 127 48 150 108 243 95 181 73 103 32 254 155 175 173 158 200 186 245 53 102 240 39 82 89 244 144 85 42 38 242 166 1 74 188 230 28 91 252 201 95 129 94 190 229 179 25 189 82 146 4 178 17 9 3 24 91 240 69 10 25 245 122 39 223 123 119 149 210 95 137 230 76 131 130 211 11 10 52 123 14 237 117 135 126 23 65 137 8 132 30 48 5 88 20 180 150 165 253 120 129 137 2 35 133 121 96 159 119 210 150 148 119 32 162 234 86 161 241 74 173 212 7 45 155 156 25 62 244 20 66 153 18 22 205 216 115 129 127 163 26 17 106 116 188 58 205 118 240 211 9 12 146 132 9 2 135 205 45 108
