P3
100 100
255
74 135 88 58 57 190 106 234 249 58 22 38 148 141 154 1 40 176 68 147 222 25 255 133 105 152 38 240 61 11 181 214 54 97 242 252 221 102 221 37 89 112 235 8 233 155 40 150 108 20 16 244 38 211 17 137 127 235 157 62 218 224 205 235 62 246 15 26 9 160 43 186 66 11 198 182 129 199 211 209 67 112 118 219 251 16 57 91 197 104 76 226 41 241 135 99 238 89 47 130 226 81 93 127 211 139 154 52 10 207 213 156 248 236 114 110 186 151 18 9 32 239 122 226 158 177 209 43 64 205 73 207 154 188 254 68 176 8 224 205 232 246 199 180 150 98 201 0 245 127 177 129 10 224 205 236 16 19 46 55 151 144 199 182 191 176 143 211 157 251 105 145 42 238 69 7 138 182 227 194 230 181 208 32 232 221 78 118 78 4 142 239 84 2 176 168 118 2 8 113 186 174 156 46 132 218 160 10 131 74 131 147 100 167 229 109 80 181 152 35 6 236 223 255 249 68 133 137 37 216 162 228 81 87 252 146 251 118 86 252 168 122 251 132 98 214 132 225 107 193 73 65 98 245 102 22 116 113 253 185 83 76 83 37 200 228 150 177 206 0 176 156 49 76 191 254 139 119 36 193 27 27 232 229 22 251 244 49 92 254 255 168 219 229 75 249 209 9 44 20
48 142 8 186 75 251 182 131 161 89 145 219 39 162 207 245 58 104 72 18 167 223 211 41 188 143 212 116 168 157 190 231 29 116 198 66 122 214 13 249 237 43 178 163 27 248 88 81 227 183 246 182 56 40 69 116 133 245 131 203 123 76 231 86 204 3 251 212 155 205 224 226 36 238 247 99 118 136 238 98 19 76 114 164 11 246 127 4 113 210 180 237 254 242 189 177 86 81 120 108 136 36 26 218 51 182 115 226 85 140 215 248 218 188 114 239 186 174 123 184 12 87 193 31 230 4 109 212 23 28 63 74 131 162 126 160 145 222 151 128 161 148 88 6 153 236 20 171 142 38 247 108 253 171 202 169 198 51 129 115 33 16 213 220 165 119 104 160 36 95 42 175 59 196 34 69 126 247 72 92 207 215 121 162 238 197 147 11 190 243 59 15 58 42 58 161 36 137 147 249 195 201 101 213 79 241 41 19 219 71 158 214 1 104 46 124 37 27 97 191 191 21 202 89 202 95 82 50 161 33 100 202 69 252 151 11 97 1 14 18 52 159 248 226 28 56 167 220 218 28 30 99 235 134 69 85 238 42 87 85 81 127 24 93 101 216 78 164 78 0 26 17 88 238 126 218 175 179 3 77 218 222 141 162 213 113 121 227 63 103 51 79 27 97 15 167 70 69 181 141
206 47 169 6 8 132 105 138 142 35 199 166 141 2 146 192 79 19 62 196 211 88 22 61 59 254 15 246 170 237 102 164 47 248 222 237 164 88 82 184 250 116 1 96 200 176 196 219 78 222 47 220 94 254 34 228 251 36 111 249 29 217 252 226 178 68 132 51 234 3 254 78 119 69 213 66 222 159 137 210 221 245 54 230 194 228 185 220 137 197 244 130 71 214 224 109 106 35 249 141 138 54 14 201 198 103 16 105 211 149 249 82 108 208 137 224 179 145 238 119 5 236 31 132 105 252 224 203 215 225 173 214 153 73 140 29 255 213 46 34 15 220 157 129 138 72 20 33 126 113 202 175 219 11 110 16 83 218 244 31 175 60 25 51 247 43 191 22 25 72 179 141 95 131 131 68 219 71 230 145 37 50 157 180 74 47 68 82 72 226 37 227 86 184 202 42 32 140 160 35 52 154 222 109 208 165 99 35 30 141 33 113 148 210 240 225 48 254 139 231 107 164 249 250 89 216 47 146 12 65 107 72 240 60 193 144 95 145 185 47 138 87 200 188 120 194 75 193 97 241 222 176 163 84 189 3 47 9 196 161 151 89 169 169 153 6 230 154 0 46 135 100 199 244 39 139 187 113 6 159 197 127 215 213 19 91 2 51 83 228 102 184 57 131 18 133 80 38 202 41
154 121 28 144 160 73 33 226 128 36 209 115 250 32 113 57 198 223 101 145 143 20 187 25 210 209 190 202 120 179 50 206 100 63 177 52 38 113 22 133 129 61 198 61 80 98 186 205 217 112 131 178 60 231 226 76 98 65 1 71 148 162 64 66 149 15 21 152 78 193 145 234 124 2 0 208 2 86 82 108 185 128 4 187 227 53 137 162 98 191 124 18 139 64 169 123 78 8 110 58 229 85 249 145 81 18 34 165 45 66 211 252 224 170 56 145 131 108 144 246 148 240 150 88 65 232 247 197 138 40 150 35 140 163 127 84 230 54 109 15 116 54 217 55 79 235 55 22 181 150 228 189 112 239 204 204 16 155 194 203 213 13 79 97 251 144 213 239 209 230 129 84 10 131 69 27 53 45 58 201 87 98 107 229 18 190 43 225 236 131 84 128 155 202 20 201 104 118 119 47 26 86 3 151 75 190 234 173 164 64 138 102 161 86 225 67 198 166 191 237 119 5 15 104 93 92 90 185 77 104 1 130 85 73 107 30 209 43 129 57 62 74 112 119 104 215 110 30 130 162 20 193 237 50 92 132 247 82 229 113 138 15 61 200 230 103 154 135 43 201 48 78 232 58 20 224 74 61 213 37 255 233 223 18 34 217 140 209 251 36 84 249 248 100 94 14 139 114 184 17
181 73 192 193 219 195 41 159 231 215 176 177 163 155 14 180 115 67 39 146 113 89 54 152 169 251 119 177 93 100 59 210 19 93 69 19 232 107 129 129 191 145 138 199 230 86 189 2 91 193 117 238 123 57 93 214 118 216 135 234 139 33 129 139 81 62 25 51 149 126 91 40 177 45 235 69 107 177 154 19 218 73 1 155 184 131 62 218 236 198 186 231 46 32 165 45 204 201 134 229 24 114 17 119 147 108 190 168 85 16 71 191 118 34 19 96 41 28 46 169 219 47 72 160 147 82 11 16 160 85 106 181 1 76 235 175 86 73 72 122 122 109 149 154 208 196 194 9 226 47 95 33 84 136 64 166 215 20 194 207 82 110 16 189 0 209 8 115 214 42 66 33 197 170 15 83 116 209 233 24 180 210 91 124 130 89 171 12 82 237 73 121 186 117 201 70 133 174 112 32 196 31 37 33 228 147 195 237 255 17 179 114 247 148 113 208 197 69 142 214 169 98 201 202 12 237 92 31 12 131 156 226 127 81 177 34 14 115 196 81 214 106 201 125 14 210 164 141 160 245 134 101 19 226 151 178 197 72 68 169 111 206 41 28 84 135 131 57 23 161 7 56 225 107 109 70 187 193 105 206 62 235 219 36 127 88 6 243 196 158 180 165 195 191 109 60 114 12 65 179
243 88 4 64 252 67 124 56 207 101 194 236 60 67 27 139 172 232 42 171 12 59 84 37 108 242 163 118 30 192 120 44 43 190 75 206 48 122 40 197 72 143 209 137 81 201 81 179 93 12 75 200 40 117 213 160 126 222 36 151 211 195 0 57 182 165 145 22 148 32 146 203 4 252 59 226 184 65 44 123 171 127 84 113 7 208 55 89 215 47 232 218 214 4 246 172 130 209 92 15 163 224 67 186 58 126 250 27 162 32 141 98 149 205 61 225 167 212 249 93 143 249 160 98 240 157 212 34 36 147 250 124 108 154 53 204 215 233 139 224 126 235 191 197 176 118 196 87 169 109 161 158 127 211 55 93 39 64 59 165 220 214 217 70 103 91 163 148 241 219 22 121 106 14 54 74 134 79 240 85 64 74 151 229 112 8 33 73 97 49 56 33 5 25 3 56 247 179 59 81 200 60 193 195 151 98 223 83 17 41 210 61 74 44 130 214 44 89 194 194 197 43 105 15 213 65 163 244 90 10 210 245 197 172 128 44 121 180 251 0 104 200 174 102 173 228 70 127 226 158 48 74 101 240 46 163 217 11 253 119 48 174 206 93 172 42 163 22 88 139 133 175 30 93 199 137 195 160 82 252 126 65 1 198 44 169 222 237 19 62 221 209 88 236 76 108 120 198 27 218
227 206 28 100 171 114 102 242 1 159 55 230 37 7 52 10 125 94 67 57 244 122 144 122 39 174 40 45 161 178 82 135 166 54 249 173 0 63 18 94 199 76 176 88 3 11 145 19 85 88 125 122 195 170 91 130 235 56 54 133 142 30 216 213 101 183 101 72 229 31 198 51 108 87 229 47 101 27 34 10 81 130 127 148 26 169 188 16 81 225 30 100 129 61 111 89 128 78 148 211 63 167 219 212 200 167 87 92 182 189 100 140 37 235 153 45 235 59 153 155 231 28 193 227 121 69 73 59 42 124 7 59 184 3 172 44 210 114 52 8 15 12 75 247 255 86 211 63 4 219 253 209 114 72 172 22 56 186 112 214 136 56 248 202 195 209 87 133 52 101 164 78 228 54 78 238 20 144 254 15 176 242 85 136 48 199 62 124 66 239 181 6 202 191 82 31 164 117 117 78 248 140 55 120 254 247 131 13 89 117 254 14 74 203 70 169 75 32 134 168 221 181 206 168 155 39 54 217 146 246 135 107 134 186 159 167 132 103 119 225 153 237 177 4 120 242 92 12 115 47 244 97 153 235 125 165 132 110 43 53 13 248 208 182 157 189 3 180 165 92 102 91 158 93 108 171 189 115 77 255 46 243 14 33 182 244 214 48 97 100 159 225 192 102 126 78 110 33 209 123
207 15 64 59 101 99 169 5 165 175 76 202 44 117 249 44 171 230 146 84 248 7 188 16 171 150 117 13 238 183 124 228 210 252 217 215 135 244 75 35 221 103 19 114 70 205 160 200 79 128 199 141 173 188 2 107 15 197 89 234 69 198 166 128 76 51 216 75 112 208 189 109 43 41 85 242 102 188 61 30 246 131 213 35 230 176 152 136 124 235 26 38 190 212 137 111 245 228 146 65 90 2 156 80 13 56 206 86 81 15 154 252 170 223 28 144 225 238 64 137 181 239 85 236 180 172 109 35 252 146 202 231 98 167 121 244 61 194 86 110 53 46 231 107 162 155 173 47 5 111 100 39 235 56 192 121 51 58 115 100 237 146 16 171 43 15 126 132 85 254 234 150 217 98 90 112 28 8 69 112 14 91 241 240 12 93 202 53 106 125 17 85 197 206 67 113 161 117 131 24 225 43 174 121 94 246 180 70 153 161 114 102 165 7 126 208 75 111 97 174 70 21 74 4 115 199 116 135 95 172 38 86 158 43 92 188 73 65 80 15 161 75 40 0 210 98 247 170 194 155 105 167 61 17 159 46 8 113 223 147 11 90 23 220 193 138 109 105 135 128 165 4 170 192 173 146 10 235 191 103 54 77 61 144 187 218 156 126 138 133 66 29 161 173 60 142 37 143 191 246
254 217 151 57 43 174 233 96 80 147 90 68 77 156 215 69 183 89 96 116 70 32 170 251 139 11 15 162 190 2 255 70 110 27 151 51 110 141 0 189 53 98 230 115 126 54 62 233 206 90 104 96 50 86 155 230 60 166 198 12 186 70 31 65 102 245 142 167 155 136 82 0 24 103 249 52 23 107 213 114 176 236 201 126 193 20 221 127 43 67 247 218 230 2 45 218 72 0 207 111 165 20 41 60 144 146 86 218 50 183 20 162 160 248 153 93 139 125 194 58 174 151 123 56 218 178 203 231 14 140 10 14 202 75 32 209 152 166 181 59 19 25 36 173 0 180 155 101 104 168 56 196 225 38 189 70 245 127 37 223 7 41 165 118 170 50 212 68 198 90 153 38 107 192 26 46 221 197 227 131 26 231 228 171 18 161 3 100 155 224 209 106 43 2 231 108 125 112 142 221 40 105 117 155 100 165 211 150 80 113 85 208 168 37 64 227 160 39 223 172 21 132 123 131 92 145 154 204 128 8 183 18 199 248 121 126 64 22 33 233 108 153 17 22 182 18 35 12 226 57 66 149 177 10 112 203 237 213 62 218 79 175 30 132 173 240 255 148 122 142 64 186 89 17 10 14 16 92 32 113 72 198 146 253 72 252 185 104 42 252 109 27 217 146 22 26 218 172 174 249
205 94 153 35 73 84 103 230 145 159 205 226 119 215 89 44 7 158 220 165 132 169 67 238 22 110 245 191 119 1 67 243 79 6 224 20 119 46 99 152 112 62 68 245 123 68 241 32 118 240 28 72 57 233 240 39 82 66 210 36 129 166 41 54 149 122 30 77 107 68 12 156 96 150 28 254 111 128 143 164 147 88 142 210 191 71 225 44 42 104 63 177 98 232 27 240 148 116 219 190 198 227 187 249 186 15 18 54 166 41 7 180 132 225 204 43 170 67 255 103 229 121 12 113 41 59 28 5 188 228 253 98 86 69 217 31 1 105 87 26 147 125 23 227 6 174 196 179 103 237 58 163 115 68 232 186 248 208 180 55 2 233 129 215 88 251 153 67 91 207 90 172 75 223 76 105 204 162 74 53 28 95 238 6 52 136 10 209 218 171 215 255 182 108 147 124 51 49 151 68 29 73 149 27 248 142 90 50 163 64 84 24 186 213 87 107 168 143 169 167 115 157 222 85 178 132 117 212 89 241 184 100 109 16 178 56 42 33 174 213 169 248 57 121 54 195 5 27 71 223 111 120 164 24 60 224 38 165 164 93 197 252 79 56 18 89 51 101 169 201 72 110 72 245 196 230 176 61 127 227 6 156 53 116 37 199 120 128 19 145 243 213 189 225 194 79 106 23 245 220
57 143 87 227 211 90 55 18 212 225 130 114 93 0 51 68 58 135 18 122 197 98 208 101 8 228 149 113 46 122 76 232 40 103 54 221 156 64 196 78 238 160 82 90 15 108 138 194 230 250 129 3 65 23 195 239 155 176 21 196 78 151 84 211 121 94 85 152 162 12 241 28 194 21 234 33 41 40 82 139 132 64 32 240 68 126 177 76 75 126 178 185 95 140 217 218 208 67 64 107 84 158 35 92 13 184 232 62 106 63 219 185 125 22 207 21 105 228 78 40 25 115 17 246 7 172 101 22 94 99 116 74 247 191 143 38 98 222 111 201 25 74 226 173 15 15 31 165 78 84 69 230 225 143 9 32 32 72 0 245 11 187 6 140 57 74 79 212 118 23 127 82 116 172 149 138 219 15 72 126 118 112 120 94 230 3 211 250 224 101 38 145 254 141 88 33 217 57 198 16 117 23 121 228 28 38 248 104 141 160 21 251 7 238 61 16 100 39 7 122 166 115 103 204 228 90 91 6 11 170 252 224 91 176 84 26 25 15 17 224 24 74 101 224 32 150 88 178 53 155 99 177 79 233 144 209 185 243 106 187 63 23 32 111 23 16 64 224 186 95 66 172 171 90 109 143 142 64 132 77 62 222 57 67 191 154 119 225 103 115 136 94 252 69 56 66 189 59 207 196
105 166 207 35 130 161 44 115 158 59 71 150 233 93 11 177 66 150 28 86 177 101 200 247 8 28 147 89 40 141 69 80 58 92 200 11 21 244 217 183 11 113 186 181 80 116 131 75 217 243 80 0 228 184 16 168 129 99 78 253 33 85 189 148 181 12 195 100 70 168 67 13 99 4 39 64 9 86 171 48 179 210 115 85 88 128 82 141 175 170 1 37 97 124 122 8 199 73 133 242 243 198 110 72 158 195 219 108 182 41 190 54 16 93 146 54 66 62 24 231 6 82 124 22 10 215 69 189 174 53 235 17 246 255 37 52 224 88 69 248 208 249 135 88 25 103 126 241 124 80 212 172 175 218 126 37 118 229 37 105 72 244 56 174 177 144 174 125 220 118 230 99 150 131 55 84 223 24 157 173 66 35 121 182 34 6 70 255 216 105 181 250 190 40 49 166 225 198 115 155 10 220 188 24 145 83 0 173 46 52 164 125 247 172 182 186 34 21 208 79 87 64 233 137 74 7 146 62 56 168 83 179 34 182 79 233 73 184 19 94 122 232 223 155 130 1 229 64 103 155 124 230 74 165 203 65 185 118 174 53 3 115 63 91 202 169 13 98 10 101 34 247 195 214 10 201 57 94 107 10 210 26 119 205 104 8 79 170 113 178 235 45 156 186 211 103 226 228 119 182
232 123 80 195 42 54 11 14 10 209 22 139 245 251 161 59 250 161 195 125 114 154 159 63 189 163 137 219 220 140 15 217 216 89 48 214 2 199 193 58 175 192 237 131 11 47 242 120 58 107 99 118 113 134 122 85 224 16 51 77 110 165 239 167 218 186 52 64 200 235 173 61 183 103 79 148 62 54 68 127 57 183 63 203 80 38 197 248 92 222 89 108 221 87 153 153 143 80 151 76 147 11 231 77 175 210 200 184 39 81 5 115 128 75 161 225 150 64 72 35 90 71 175 6 203 52 254 237 108 208 100 190 182 82 193 2 13 23 153 60 242 158 119 226 74 179 106 8 11 63 214 252 245 135 168 142 40 33 140 43 222 232 139 65 202 135 123 103 254 22 75 191 137 246 215 78 118 28 207 76 4 99 110 171 117 53 109 63 153 20 157 7 156 132 146 65 115 89 221 219 26 42 102 206 100 148 121 124 210 140 127 27 214 55 90 221 47 229 53 62 131 72 15 172 203 167 173 108 15 87 145 94 135 181 16 152 111 90 36 171 4 224 131 215 90 148 146 28 174 186 182 160 234 184 106 116 14 201 39 83 60 243 58 21 152 201 91 218 126 144 49 147 79 243 30 136 8 251 154 79 131 225 148 64 43 141 32 87 254 37 11 60 137 114 52 155 188 104 24 252
78 220 35 29 223 185 215 51 214 235 83 105 113 52 145 62 141 216 105 123 215 63 123 41 50 186 7 15 149 174 170 66 250 239 74 204 49 229 155 147 209 47 146 250 134 221 255 61 37 127 228 183 222 12 59 92 55 2 200 45 99 97 230 157 232 11 239 111 234 89 178 181 107 117 34 196 90 97 164 105 98 210 214 106 215 231 37 141 148 115 174 127 33 144 237 180 193 103 230 126 120 162 97 150 147 191 227 73 144 148 237 163 219 59 80 158 152 48 138 1 55 255 223 233 78 203 23 30 56 95 66 66 142 130 90 159 103 215 15 84 206 121 37 86 59 226 216 60 222 33 234 41 56 86 162 162 143 250 45 103 153 116 169 107 149 179 244 195 130 107 114 7 196 93 55 90 117 161 15 29 83 1 88 249 160 245 20 244 20 114 141 156 212 121 176 135 89 173 168 197 144 230 191 33 140 53 27 59 186 29 232 19 18 52 127 154 215 110 218 246 150 206 144 68 137 4 222 54 119 102 127 81 130 154 249 71 246 253 241 28 196 184 122 246 106 142 240 185 16 113 22 8 62 156 217 63 182 31 134 79 168 123 40 201 97 233 94 22 106 100 48 1 199 79 125 29 179 99 152 49 87 62 95 65 152 16 120 176 68 46 11 250 140 13 57 194 191 244 226 136
209 186 235 91 14 102 138 123 122 29 74 193 161 205 194 167 212 31 202 107 3 98 151 61 114 116 192 133 162 83 163 250 58 94 245 49 74 59 130 61 152 37 240 242 90 215 36 107 35 129 8 234 120 67 21 251 191 114 15 28 41 71 226 201 120 74 2 106 138 52 110 182 109 75 98 181 166 155 172 208 222 63 134 68 36 177 2 144 158 117 253 43 198 208 205 134 82 217 231 13 35 117 74 43 196 148 216 62 243 61 75 246 8 238 101 239 213 26 123 142 126 42 51 237 241 220 32 206 52 176 108 79 47 82 90 106 189 93 26 229 187 152 80 240 34 33 40 250 33 93 247 218 157 104 36 189 49 8 157 6 133 103 33 118 248 128 92 82 37 137 69 102 78 255 21 210 175 76 205 135 11 174 224 38 211 156 21 146 22 222 25 218 77 45 18 84 185 206 82 174 227 98 95 29 173 66 166 234 40 29 150 24 244 121 230 115 185 151 153 233 144 220 133 30 144 167 17 110 40 187 69 184 33 122 226 55 76 17 204 25 41 197 21 223 97 247 48 1 71 99 197 50 238 181 66 4 232 212 230 128 252 75 83 166 75 79 87 169 239 34 63 9 183 58 48 216 200 194 239 91 161 80 39 233 160 91 194 235 184 23 242 103 117 115 138 35 170 243 60 230
10 12 72 75 113 148 199 130 226 76 61 70 109 171 240 73 34 220 162 121 152 208 56 95 252 46 72 219 239 52 225 137 222 156 235 93 22 96 163 189 234 127 215 27 160 187 145 121 170 165 66 213 238 75 179 196 215 91 179 221 136 17 177 89 85 36 59 106 25 207 173 206 187 119 152 138 127 129 179 79 114 239 202 57 167 122 235 52 28 43 87 48 239 90 210 215 40 103 114 236 155 45 81 234 145 254 36 217 110 37 187 128 135 146 33 137 73 113 189 47 243 228 200 182 103 8 204 31 29 91 17 104 167 149 36 150 244 176 34 204 223 40 163 123 250 145 27 230 196 113 23 236 184 41 96 70 2 72 150 152 220 219 241 154 32 46 50 185 107 181 146 27 158 250 215 186 7 211 205 85 104 155 114 41 110 5 152 217 215 23 62 86 188 171 5 180 238 130 102 57 186 12 47 141 221 42 93 116 197 114 215 165 49 71 50 245 171 135 73 236 7 1 91 178 92 46 156 148 156 155 50 103 94 206 230 236 38 12 97 21 169 79 97 44 233 232 162 123 71 165 89 146 66 76 185 88 61 255 140 124 18 133 126 177 15 159 51 241 120 246 7 27 179 3 24 190 68 35 144 118 118 126 35 115 130 221 177 241 211 142 16 176 108 88 249 27 15 66 17 102
199 35 85 95 150 194 101 54 38 73 197 154 251 175 58 175 188 18 243 61 21 120 245 116 82 236 20 148 27 30 205 223 77 173 107 103 108 158 221 30 196 173 7 162 18 128 230 191 171 22 220 9 139 234 160 20 183 183 141 4 164 175 107 73 215 35 92 180 203 176 26 40 131 211 38 155 185 12 228 204 213 83 30 50 207 236 119 17 47 110 215 56 113 115 154 9 242 130 183 10 211 254 163 131 104 32 3 153 141 144 91 67 33 20 193 114 45 68 52 97 180 39 103 53 194 211 125 248 181 205 120 14 23 74 171 121 156 36 34 160 7 93 189 175 149 122 83 6 74 249 147 115 68 101 16 203 123 233 120 190 73 50 104 59 223 60 109 71 65 188 198 118 105 245 62 30 133 254 139 41 117 93 193 29 77 60 123 85 57 32 35 54 56 228 217 37 136 205 214 150 126 41 146 133 229 129 239 54 9 178 191 56 8 217 0 140 241 84 223 10 234 241 111 9 154 216 23 107 203 131 171 69 28 89 102 85 175 210 241 115 11 74 102 20 160 84 8 236 219 94 203 93 208 66 40 237 197 213 253 112 162 227 255 245 236 47 193 180 217 20 209 241 137 72 53 52 1 227 190 16 109 33 237 243 33 240 100 206 173 165 61 100 199 206 37 54 21 112 25 251
241 204 164 166 189 245 167 205 150 76 49 134 228 137 180 228 203 83 151 98 116 172 72 137 243 217 43 41 93 189 71 246 185 168 185 19 127 31 41 115 154 249 118 104 123 59 103 137 161 188 146 114 29 78 180 194 213 75 118 82 16 57 197 204 118 245 247 155 105 249 14 107 30 38 164 132 31 43 207 7 83 212 142 61 2 193 52 97 185 76 209 30 7 228 18 192 128 46 43 165 251 27 7 48 83 49 43 59 91 224 106 33 49 135 175 232 135 119 251 17 7 22 11 83 56 51 21 255 219 89 200 179 86 183 79 158 181 184 27 133 198 241 91 149 238 32 219 35 104 189 162 25 174 56 28 171 103 190 205 94 184 93 202 18 106 145 36 180 83 12 173 205 140 45 223 216 172 215 71 47 125 163 92 226 88 80 231 50 218 239 255 112 122 168 143 16 228 141 69 72 78 220 80 6 144 34 92 6 63 234 22 7 11 56 143 239 181 36 89 145 220 116 57 22 60 238 58 111 45 94 243 159 84 139 142 80 61 193 73 24 194 231 60 48 122 49 53 169 229 208 58 63 105 225 116 239 35 2 134 101 48 135 213 67 91 116 129 124 29 139 245 158 227 131 34 101 87 244 233 47 177 155 116 113 142 176 168 169 90 113 55 28 155 134 38 251 147 229 179 195
185 234 228 117 231 129 90 159 236 93 139 154 49 113 17 66 122 10 114 122 174 117 171 28 180 74 108 23 167 209 206 132 255 21 53 46 6 70 1 197 24 232 228 150 241 233 146 228 6 177 144 97 226 198 84 179 143 174 134 6 125 73 149 173 182 50 166 76 20 178 155 170 233 73 73 115 117 196 190 188 195 230 78 244 81 181 16 51 127 26 122 17 213 135 5 105 211 125 142 60 91 14 17 247 240 181 115 26 58 144 108 138 151 83 34 244 142 21 102 118 233 219 90 69 110 21 173 92 138 17 113 43 225 218 97 247 82 17 253 0 118 105 186 173 204 254 128 85 123 101 251 57 24 194 55 80 247 239 198 165 209 50 191 200 12 175 141 203 92 240 152 53 222 129 226 38 220 61 2 49 255 25 109 31 255 100 174 205 141 216 88 28 100 71 195 88 185 188 204 163 187 124 6 178 239 245 195 172 250 114 22 44 245 81 173 225 78 175 34 41 45 198 254 177 73 69 100 131 116 209 53 47 225 115 222 63 79 59 167 35 239 186 167 87 167 1 66 82 176 234 192 173 10 80 78 199 124 197 220 182 101 70 165 124 177 217 167 205 17 147 175 165 109 216 59 40 146 29 170 173 26 219 78 137 96 128 148 64 148 108 78 48 185 253 79 6 32 206 209 199
220 14 247 65 70 224 131 102 28 230 171 81 86 244 17 172 103 140 1 21 98 77 180 233 169 71 17 132 46 198 146 142 111 28 168 70 82 144 49 31 134 203 10 9 131 155 53 64 31 54 49 236 196 1 62 232 76 36 62 250 96 95 109 111 35 176 103 28 167 230 0 156 115 192 129 106 49 57 157 172 44 182 39 112 201 112 93 107 228 49 126 155 40 33 227 79 243 242 226 1 16 72 201 252 221 17 89 114 137 184 189 219 167 51 96 206 71 68 251 120 70 39 127 124 130 158 212 242 245 49 77 23 78 78 56 116 193 89 184 18 37 130 244 243 10 132 253 80 18 174 38 197 29 102 111 26 101 240 70 102 180 179 201 8 29 148 222 4 192 180 134 240 237 54 54 199 101 246 212 220 52 244 217 177 113 99 157 157 243 154 86 194 238 154 195 19 116 97 15 3 241 31 37 124 59 1 36 162 197 108 238 61 65 20 184 109 166 137 167 138 113 220 19 194 170 13 8 194 249 223 102 218 217 127 106 143 222 253 187 210 213 254 191 147 183 179 105 37 149 74 131 221 64 182 136 189 78 18 29 112 50 125 131 122 38 238 2 133 196 152 253 165 49 22 55 233 90 55 19 48 194 84 181 171 9 222 251 90 115 217 141 171 117 169 173 59 90 222 230 226
190 39 139 213 59 22 104 20 173 141 229 130 79 227 109 34 167 218 179 133 114 171 31 130 70 101 1 178 104 98 131 111 48 228 27 77 111 233 92 184 98 41 224 149 79 95 126 173 60 20 10 184 247 47 140 226 43 88 0 64 183 100 0 127 32 85 124 55 72 191 151 3 196 2 179 84 147 101 149 129 208 24 202 212 163 61 54 138 223 187 144 203 226 131 19 110 159 230 221 75 215 205 36 127 208 81 194 18 10 193 64 61 157 233 12 78 222 110 115 20 111 239 222 76 231 11 2 233 100 80 137 131 22 138 235 146 88 123 20 107 215 217 80 124 11 74 227 225 80 0 32 63 48 148 30 7 88 46 63 206 25 161 122 125 156 205 104 198 49 86 9 228 41 219 233 81 93 244 73 110 20 223 151 143 137 45 211 171 255 87 92 91 160 240 165 110 161 78 116 103 153 223 58 80 86 72 109 65 252 154 85 75 173 184 92 223 74 18 230 92 47 229 75 27 89 107 109 19 10 194 27 19 194 166 83 244 100 167 233 112 145 4 238 175 134 23 155 3 170 226 79 184 151 26 231 106 20 65 84 7 223 98 101 128 115 171 87 23 17 149 26 88 74 14 21 11 86 107 234 164 104 133 114 32 177 174 117 77 18 174 179 160 33 66 89 156 6 183 219 44
181 99 190 222 175 207 52 123 133 75 22 190 95 214 112 122 108 135 195 6 123 218 242 60 208 225 144 241 153 127 183 159 8 43 68 113 8 218 243 218 185 229 192 164 38 10 214 122 203 54 31 98 110 80 119 58 208 60 98 32 34 252 100 55 17 10 77 128 219 238 47 169 104 96 244 189 29 190 97 223 209 48 156 117 226 149 132 5 189 7 198 33 179 121 34 135 227 147 196 126 5 56 94 7 57 50 135 51 8 17 255 9 70 129 56 245 252 145 24 144 17 38 173 215 182 118 32 204 57 149 4 87 235 229 153 103 9 241 78 8 108 174 170 249 173 215 203 70 221 44 180 9 136 55 171 59 67 31 200 118 229 119 137 194 6 55 9 196 178 206 24 246 236 211 206 217 196 18 83 25 114 250 185 83 49 7 175 141 126 116 12 253 122 194 193 115 93 245 25 166 138 222 171 74 130 140 213 48 194 57 34 178 167 59 157 111 142 53 89 104 201 125 192 17 144 230 150 36 170 36 105 245 3 96 132 120 115 242 4 221 103 128 163 175 27 80 188 138 153 17 104 241 165 239 58 162 153 170 92 190 192 153 149 103 123 23 118 233 80 10 102 114 0 9 117 214 57 165 14 75 78 58 98 20 140 201 229 36 25 185 83 64 162 216 240 11 186 83 121 222
3 255 94 193 221 169 54 119 244 59 156 171 122 129 92 193 200 250 252 72 160 192 111 126 107 214 141 88 57 240 6 13 197 69 19 223 12 4 253 229 222 95 247 219 83 41 86 178 249 197 142 3 119 117 175 68 147 221 182 120 187 90 35 119 209 201 63 76 31 77 95 26 208 0 87 131 230 43 173 37 165 99 149 101 99 46 252 44 228 91 171 98 119 1 5 134 153 55 190 73 98 131 132 174 129 140 163 150 92 235 112 70 43 120 226 30 54 77 39 110 153 107 229 59 139 138 123 214 65 33 200 160 73 99 107 163 196 213 128 195 141 238 213 166 27 37 52 194 33 77 69 68 164 224 10 179 155 158 163 37 151 90 147 134 123 10 96 29 146 61 66 0 82 168 59 33 235 109 86 160 68 207 22 90 209 75 80 14 107 248 18 138 226 206 95 103 215 63 15 127 61 60 187 227 100 16 24 121 62 37 239 22 162 159 10 37 121 55 132 198 108 1 176 82 254 168 197 1 24 106 11 124 10 238 237 55 132 242 115 71 240 239 219 175 166 122 35 133 232 251 137 147 69 103 187 111 198 107 72 11 32 5 65 240 130 133 102 99 175 85 79 187 88 130 18 79 110 79 27 249 1 44 117 221 103 127 187 83 105 0 116 248 174 28 200 16 191 176 237 219
149 141 62 121 255 105 229 132 121 199 97 32 200 138 37 32 49 2 92 222 166 67 100 57 158 37 224 107 227 238 250 229 24 50 218 67 237 255 157 198 11 100 221 8 23 51 207 70 136 128 32 9 115 33 231 97 30 65 212 27 50 62 74 24 73 126 31 125 206 195 181 126 35 55 114 135 137 20 252 132 11 235 30 180 236 91 228 200 160 8 76 130 14 7 247 212 55 52 103 145 237 24 208 103 32 155 238 136 148 101 119 125 217 219 136 153 17 172 150 19 196 146 84 206 22 221 113 36 14 238 213 0 94 220 155 248 70 219 121 48 190 79 222 196 168 41 66 198 1 152 150 222 60 145 59 232 255 56 174 193 207 84 191 147 95 251 119 64 43 113 139 167 187 232 15 152 193 203 133 88 225 45 238 74 180 255 83 134 157 104 24 50 178 25 67 7 87 62 111 210 132 37 252 15 142 177 217 50 136 85 150 124 42 214 36 43 99 202 66 0 41 194 9 132 12 125 41 255 49 177 147 125 126 57 242 149 83 187 208 162 189 246 59 99 219 167 84 79 145 147 224 39 208 130 34 169 232 23 21 90 191 22 154 76 140 168 141 230 132 40 82 79 4 64 189 222 130 115 29 183 98 138 198 95 3 139 133 230 207 52 220 226 73 142 134 207 219 187 143 107
146 54 239 57 104 202 1 210 132 49 246 85 31 242 70 198 14 178 255 69 19 62 57 235 101 167 114 72 204 238 172 197 178 254 56 239 58 245 131 20 39 75 199 17 227 99 13 237 209 227 250 211 228 39 58 145 136 115 236 53 88 249 12 62 77 46 94 39 150 107 179 244 113 137 250 181 139 173 190 2 176 222 66 8 188 218 196 240 225 122 40 168 67 39 96 38 236 55 124 151 59 166 11 88 96 165 178 205 85 141 138 145 129 190 107 58 60 47 165 114 247 108 68 108 9 152 159 178 163 42 23 201 221 2 237 250 73 207 184 132 54 230 213 8 41 137 8 130 113 234 26 218 221 178 254 240 89 160 76 212 3 237 158 160 123 3 23 208 203 87 131 198 213 22 202 142 63 70 134 41 18 6 191 111 241 175 42 151 11 3 45 47 14 112 109 55 238 83 124 179 119 0 79 116 157 145 207 63 44 63 66 198 128 224 144 8 250 118 169 7 91 189 136 151 68 165 206 138 178 33 175 187 146 130 153 202 244 121 78 204 41 3 237 76 39 71 68 171 172 131 14 128 134 176 133 159 248 138 220 217 77 191 129 150 152 163 77 146 88 74 39 120 145 82 97 229 61 80 64 8 38 19 238 243 87 211 166 139 74 209 70 143 221 111 56 238 108 125 58 102
219 220 146 183 165 222 231 3 226 88 197 158 150 188 98 96 206 184 42 65 107 146 242 240 99 199 65 104 240 229 161 222 202 188 77 117 254 94 166 204 112 238 114 101 206 188 81 151 236 143 228 219 231 128 137 166 110 177 143 128 34 77 116 108 122 139 57 238 91 55 25 29 206 205 170 66 130 89 24 30 213 197 59 226 156 120 136 231 50 27 69 200 103 229 238 110 48 100 144 204 118 110 102 185 255 105 138 53 52 165 48 186 40 129 87 33 113 225 106 129 191 79 26 33 252 162 50 18 202 178 80 192 136 144 218 112 102 111 155 212 200 106 42 79 25 199 162 193 110 238 48 158 156 60 168 165 11 93 73 120 119 218 29 94 249 195 114 190 20 35 27 14 247 224 69 144 215 140 255 59 35 252 171 103 72 12 124 169 248 99 227 111 60 120 133 182 174 52 142 126 228 163 193 78 28 127 145 63 54 35 204 50 161 1 35 60 124 137 71 135 110 253 66 93 107 33 109 149 12 149 140 238 165 187 27 32 192 115 60 19 10 105 230 211 25 222 77 5 185 215 66 24 181 52 200 75 123 135 229 96 33 254 143 182 158 174 195 154 160 226 33 74 226 167 190 18 237 73 225 27 74 100 209 0 36 223 230 22 77 88 10 17 49 6 62 86 221 133 225 138
32 14 73 111 183 91 203 213 73 8 245 244 21 88 222 176 245 170 145 215 242 57 0 218 90 56 233 91 201 104 223 161 219 119 219 183 214 64 145 175 95 95 41 144 163 86 203 224 56 88 13 16 2 60 222 156 127 11 184 131 68 26 197 74 15 230 215 160 120 195 45 73 178 245 79 12 15 162 111 4 217 140 34 82 190 63 230 210 160 50 193 206 85 173 239 0 146 62 28 181 214 66 34 153 166 63 188 54 35 215 255 243 156 36 89 232 107 89 244 16 187 87 104 208 121 90 184 85 190 155 76 164 220 10 44 146 206 148 14 113 180 60 93 222 106 122 80 212 226 138 127 56 108 84 122 70 97 171 6 85 162 99 235 189 235 218 91 93 163 210 208 122 167 137 235 114 217 69 246 188 115 177 180 27 49 67 3 74 135 41 107 157 239 56 245 146 165 217 194 171 27 237 37 18 89 62 142 94 20 186 59 253 111 104 101 228 44 173 211 40 31 47 243 18 78 74 251 186 219 102 247 153 153 176 13 52 113 37 239 5 91 177 37 165 75 214 215 232 124 60 91 31 189 43 77 219 216 235 93 209 10 79 211 221 59 30 196 217 8 14 44 58 146 25 104 169 240 81 216 201 135 37 99 158 32 157 193 106 116 72 186 199 173 113 0 9 146 92 176 203
131 126 5 73 6 105 132 132 192 40 177 235 196 63 235 121 65 24 146 134 65 65 91 117 15 204 95 151 19 132 138 159 97 255 247 186 75 2 138 171 84 96 149 37 158 60 82 37 108 100 227 254 166 85 111 197 151 109 249 71 218 131 19 111 113 133 66 187 202 103 164 68 7 217 175 103 228 99 151 131 88 249 70 1 117 135 24 216 194 241 185 72 137 3 230 144 120 112 93 41 42 27 208 218 255 89 197 60 200 169 12 142 191 243 201 232 237 102 199 237 88 36 245 134 41 182 14 170 88 190 30 236 46 102 50 101 15 212 253 192 50 70 192 179 186 3 55 110 27 101 127 26 5 152 102 104 181 189 158 210 10 76 181 14 180 244 211 76 119 164 111 190 83 176 32 3 51 83 252 53 45 186 188 217 211 89 217 152 6 9 241 213 38 38 127 9 240 227 171 21 185 28 180 125 28 217 198 59 234 219 235 77 88 68 168 248 237 132 37 43 234 231 22 205 130 133 198 164 28 59 210 176 159 38 81 212 7 219 200 78 169 113 112 44 163 179 228 225 148 82 246 225 33 240 73 80 3 97 43 54 248 155 163 26 84 21 155 208 128 7 155 157 228 97 27 69 102 169 199 91 55 219 5 217 42 70 14 10 10 88 255 214 77 198 177 116 239 76 5 56
228 57 149 153 31 191 175 24 83 182 11 151 223 255 253 25 176 71 59 69 187 165 166 135 106 249 56 206 251 89 67 159 180 73 184 41 170 36 245 41 184 167 145 237 26 131 134 99 141 39 99 102 130 37 85 40 235 232 235 154 12 210 134 202 54 254 101 31 175 238 88 105 215 217 1 108 33 190 129 140 173 240 164 55 129 52 45 118 149 203 11 201 197 125 225 82 76 55 30 201 216 232 96 21 10 236 241 234 181 54 207 168 62 223 230 199 123 120 199 20 17 88 239 88 18 57 178 179 115 59 58 72 134 5 96 163 223 7 19 39 10 73 49 111 21 175 118 21 56 60 226 147 237 230 20 26 59 190 34 71 109 166 106 200 61 157 123 253 27 93 74 20 9 199 130 71 31 237 79 178 61 228 34 169 32 79 152 204 171 42 118 65 21 40 159 205 34 6 182 14 249 55 210 218 129 253 187 50 149 5 156 90 56 186 7 17 214 139 161 173 219 62 79 190 31 224 128 169 232 59 92 57 147 67 253 2 248 220 142 83 89 212 122 230 22 33 17 73 224 83 250 134 96 242 155 129 255 77 19 219 172 12 215 47 60 203 146 147 151 48 56 232 197 93 232 227 235 76 197 205 71 221 129 132 19 85 106 234 129 28 12 192 115 95 184 196 137 137 218 218
134 40 172 39 54 22 250 2 55 194 179 191 165 213 178 59 0 203 129 20 52 149 31 140 188 88 175 209 64 151 104 14 27 21 160 97 29 43 230 142 172 155 241 5 93 217 234 66 128 120 90 58 183 171 41 24 155 63 138 216 26 72 236 184 166 251 94 55 171 136 160 223 61 197 59 220 233 70 145 150 150 51 251 137 203 71 94 117 105 159 123 150 22 207 213 144 179 223 71 128 31 107 124 121 171 144 18 220 83 5 219 174 112 136 248 64 242 188 200 143 19 182 40 111 34 243 164 246 180 143 143 146 51 35 7 230 219 224 186 234 194 142 74 67 248 99 254 139 203 184 232 9 154 49 58 237 88 143 155 155 100 134 24 136 151 128 225 49 206 126 5 41 120 229 147 65 159 138 240 148 181 138 195 27 75 27 240 207 18 29 55 40 229 77 152 249 69 173 77 204 204 219 135 76 240 25 129 84 100 63 178 58 237 39 209 184 20 209 153 174 225 102 32 243 120 204 24 87 14 199 87 123 86 171 150 209 246 217 23 48 241 210 72 13 120 17 188 243 246 253 44 118 160 52 151 43 94 76 122 211 215 106 110 97 37 239 81 62 41 198 86 36 31 18 93 216 69 79 223 29 128 8 169 216 55 146 181 194 110 46 251 36 151 136 92 51 148 245 82 135
53 45 184 68 34 185 95 56 167 233 190 131 48 82 112 24 33 93 107 32 63 206 142 96 90 254 50 200 221 245 245 131 27 145 174 235 27 79 45 200 109 214 61 46 105 57 80 8 59 101 44 163 251 113 91 83 15 49 2 75 142 231 92 73 52 117 171 197 210 87 128 51 27 145 124 43 231 166 158 247 4 139 63 207 117 51 59 100 64 53 216 166 212 143 48 220 208 6 195 12 143 139 148 233 199 27 126 111 21 157 232 224 155 175 214 178 169 228 61 0 174 195 64 20 165 88 51 217 34 18 18 251 93 45 221 228 112 19 221 240 104 129 53 47 208 155 99 12 60 214 116 88 178 40 145 15 87 212 31 76 97 14 151 163 164 18 143 98 59 109 80 156 89 112 138 124 75 104 111 203 80 195 172 202 151 166 106 103 29 177 150 106 164 69 221 226 37 138 60 232 107 118 24 21 9 221 226 119 99 83 31 178 172 191 122 181 53 175 245 70 253 191 10 119 4 170 74 212 31 138 231 57 124 157 213 211 48 170 186 245 97 84 71 148 178 67 66 1 34 208 5 15 200 217 219 33 140 203 177 47 196 186 78 56 127 104 98 99 75 17 99 229 131 58 177 244 16 127 217 238 247 88 65 122 194 80 175 124 130 130 37 0 29 24 199 136 248 198 172 119
225 193 226 196 127 239 240 244 210 6 44 106 124 233 70 48 92 115 141 164 192 99 235 226 170 239 139 45 191 111 210 39 111 205 154 140 246 237 184 128 159 26 20 26 232 89 162 6 224 248 108 8 241 101 67 221 120 60 236 129 25 55 151 146 104 232 173 233 89 236 193 23 23 177 24 195 191 57 58 140 42 170 183 27 197 113 118 127 192 200 189 236 214 40 227 45 234 134 222 57 173 73 73 150 255 164 3 16 107 109 79 86 204 26 5 236 40 121 67 139 100 112 27 221 139 80 15 32 97 81 149 93 64 163 212 80 161 37 214 97 125 169 178 107 60 172 242 54 90 241 177 45 136 238 238 173 170 201 44 73 81 80 252 23 6 50 238 238 2 94 108 0 149 129 109 16 234 22 157 244 216 2 190 227 16 25 244 0 138 220 108 161 183 253 170 74 141 31 253 180 247 14 144 156 92 249 243 238 194 202 213 52 68 21 150 137 70 164 1 85 211 165 88 0 0 138 37 42 2 55 225 127 125 130 216 58 111 114 141 176 11 217 51 5 159 10 211 183 111 102 37 176 55 189 244 115 169 182 143 116 98 167 88 17 67 94 15 204 189 40 89 10 235 119 224 155 55 205 146 119 169 100 132 74 225 154 182 254 11 221 182 176 226 206 11 126 92 244 208 107
0 71 157 182 223 25 189 93 44 111 196 126 92 62 153 224 44 22 40 157 143 153 118 197 52 173 122 216 58 165 185 55 158 208 106 112 77 132 236 170 16 233 190 95 193 133 186 177 138 138 89 141 74 93 37 182 208 221 166 0 9 147 181 102 174 53 53 192 91 183 80 242 150 190 160 17 224 121 167 11 201 150 222 89 180 5 51 211 36 25 113 87 213 55 48 207 10 24 236 227 224 45 13 209 245 234 248 72 24 20 15 54 166 230 39 26 247 109 43 227 55 195 100 157 44 247 77 2 202 230 55 197 14 102 201 154 23 65 140 57 109 123 164 93 41 91 218 0 146 78 127 193 210 112 204 168 218 81 166 169 250 70 133 41 101 24 16 130 251 228 137 246 201 183 255 106 111 235 100 16 53 87 104 2 73 253 61 67 246 202 120 16 128 180 213 140 158 181 231 239 36 43 54 5 206 198 135 109 155 177 155 148 199 68 103 194 171 48 61 132 157 138 223 150 26 67 200 157 215 207 136 201 4 196 98 114 182 230 154 164 105 69 84 123 210 107 220 32 186 254 234 181 25 45 42 37 52 72 129 176 150 1 133 167 96 54 213 68 193 119 25 172 71 239 35 137 177 99 232 108 225 44 240 72 203 219 178 39 61 58 148 243 230 120 11 161 34 240 8 79
90 101 204 0 252 115 120 134 251 199 172 22 28 42 131 29 224 111 247 56 49 42 92 83 105 115 158 71 137 101 137 26 204 255 15 17 222 248 90 160 66 245 199 137 74 96 34 107 63 136 100 57 50 68 148 37 205 148 159 23 82 213 144 92 7 122 170 175 58 152 76 29 112 35 188 111 125 52 74 238 236 255 89 89 42 236 12 75 53 250 63 59 150 242 60 247 102 138 40 142 32 24 134 186 124 5 10 227 152 49 6 163 51 108 26 169 61 208 51 175 244 105 207 96 76 109 189 64 246 163 198 32 96 77 124 52 27 205 172 4 192 199 21 21 73 132 199 241 161 81 117 108 81 93 196 214 169 120 237 104 145 34 100 102 209 63 94 42 65 219 254 248 130 4 83 201 196 34 164 109 222 116 134 155 154 84 151 1 2 74 44 163 145 3 169 141 100 67 232 207 227 131 219 242 202 55 162 171 209 251 144 211 186 1 43 116 60 112 40 206 42 234 83 94 106 181 203 62 212 146 119 151 40 45 130 194 121 245 6 37 233 219 8 242 189 152 174 201 224 204 0 132 154 120 54 122 23 169 58 216 101 145 244 117 254 230 254 69 13 101 96 249 117 201 62 66 140 55 97 138 230 160 86 86 149 192 68 103 83 40 171 73 219 1 66 136 175 106 219 78
149 202 75 7 26 70 95 134 118 164 200 68 167 168 60 213 177 42 81 125 14 120 128 172 165 94 101 179 89 39 185 17 83 155 108 0 60 110 58 175 149 155 154 88 94 190 208 122 42 172 176 179 154 93 198 86 191 232 74 237 57 120 231 181 50 12 44 24 172 2 13 184 145 220 250 139 220 153 214 121 67 235 214 146 58 54 39 12 171 2 110 183 90 95 187 93 16 110 201 16 86 28 76 75 51 201 136 61 201 225 109 209 46 8 199 121 167 189 90 104 247 187 23 224 100 254 165 106 106 240 128 20 84 112 0 120 2 192 45 89 136 200 115 254 74 69 238 25 91 50 135 247 200 120 206 65 202 28 191 223 69 103 247 159 62 148 231 112 68 176 233 84 63 147 49 255 94 215 208 78 55 45 127 237 84 97 63 181 144 24 5 128 76 53 87 109 118 119 142 243 132 20 98 93 124 226 231 68 53 166 175 6 138 138 170 141 11 41 0 97 81 70 145 157 149 27 175 228 103 133 1 251 202 226 64 38 117 9 39 67 199 69 149 218 187 58 131 63 126 163 250 71 206 77 79 36 106 74 207 244 70 57 100 100 4 64 7 115 15 245 141 170 59 246 50 9 152 142 230 156 142 250 140 146 28 143 208 92 107 58 37 150 26 140 93 82 184 137 38 36
209 69 44 193 137 207 197 93 1 106 136 89 199 115 165 114 155 98 22 111 20 9 116 240 230 137 0 146 11 11 51 130 202 248 89 57 107 56 66 62 5 46 39 66 235 160 117 71 26 87 111 14 105 29 182 240 198 109 251 105 3 53 255 97 207 204 163 15 186 33 212 193 92 80 21 26 166 61 206 33 34 29 11 103 233 121 33 69 88 180 197 188 134 51 8 11 234 194 173 229 252 225 206 196 165 144 115 102 186 85 61 77 54 99 183 38 112 103 156 97 165 74 9 105 182 136 17 218 184 48 16 192 112 76 252 124 165 37 237 201 24 29 118 108 40 142 29 48 29 232 43 252 192 25 102 119 91 151 55 174 231 52 85 193 91 193 154 169 75 37 66 197 196 105 132 29 110 38 108 81 168 68 145 75 218 128 42 52 253 185 250 251 3 69 244 24 16 152 168 29 80 241 173 120 83 89 89 61 8 76 31 152 213 182 138 87 92 15 123 1 198 148 219 74 170 233 8 160 35 90 109 174 9 221 129 71 168 235 36 145 180 105 164 149 53 71 31 149 94 166 168 75 103 0 12 15 240 72 236 253 183 65 230 238 131 76 162 153 151 87 99 182 87 130 208 100 50 231 23 4 11 151 140 222 218 117 93 113 13 15 198 235 54 122 18 15 137 224 140 234
98 11 252 114 120 150 207 87 236 50 7 8 183 243 96 199 78 26 19 34 115 107 12 248 77 67 89 249 252 7 239 130 45 124 108 40 114 239 224 146 83 185 112 61 58 10 238 32 220 120 208 57 44 249 155 168 232 119 213 61 254 5 73 146 239 245 87 175 40 101 228 126 76 80 18 91 73 38 241 141 156 70 96 83 63 203 47 61 166 195 112 103 11 190 65 5 231 222 106 199 173 197 14 90 114 9 101 185 159 158 228 30 64 71 213 204 205 110 92 120 99 181 236 142 188 215 240 82 24 38 176 39 184 23 118 187 250 129 179 247 26 119 199 35 246 69 131 111 12 68 243 174 5 91 68 51 72 21 74 94 12 102 154 140 175 55 75 98 188 199 215 44 132 191 78 111 118 85 105 217 190 217 114 99 75 179 147 87 3 212 244 162 132 94 186 230 3 144 77 223 176 236 109 193 84 133 52 98 119 41 255 23 116 30 125 242 103 145 119 181 15 53 146 81 201 252 253 150 114 141 104 26 178 5 141 211 154 94 35 45 105 115 98 111 44 206 159 86 185 184 114 237 26 21 157 15 204 193 76 189 153 231 80 54 119 169 228 155 26 90 207 233 245 201 66 114 243 158 132 137 6 149 145 73 29 4 139 255 207 100 5 157 87 96 118 164 119 255 157 113
76 73 95 93 55 199 87 145 4 145 55 241 54 126 219 202 213 86 172 36 66 124 208 70 159 139 23 145 87 12 221 55 190 230 241 166 35 187 144 43 142 58 10 226 60 24 223 14 105 175 197 162 24 209 53 77 170 25 2 10 131 62 126 126 161 148 171 42 215 232 210 8 210 95 86 8 230 126 117 90 106 199 127 254 181 189 113 151 72 66 86 223 195 248 162 138 246 233 106 78 43 78 31 98 206 30 248 162 206 3 171 128 26 252 231 164 90 73 71 39 133 123 4 236 195 136 170 58 19 72 94 193 249 107 54 55 182 209 100 253 74 131 67 217 210 126 142 164 73 22 113 4 89 36 181 245 75 214 117 30 138 200 221 167 110 105 96 112 16 27 148 162 209 41 220 223 147 147 249 139 201 226 60 162 16 160 84 61 1 99 183 69 26 86 117 170 11 69 118 116 77 105 58 157 74 162 242 88 134 48 185 69 181 86 32 226 100 200 140 97 66 163 108 250 28 192 33 251 96 129 60 8 110 112 54 193 237 237 141 144 9 137 246 21 209 136 132 153 239 9 126 175 103 181 96 145 170 160 57 195 222 136 58 219 91 140 83 50 158 10 62 119 251 111 239 88 69 108 232 89 19 205 100 150 33 171 209 9 177 95 186 92 151 152 217 198 174 154 16 183
8 27 224 101 125 87 255 131 165 179 55 214 193 185 217 158 237 70 254 102 0 51 202 33 23 181 123 103 182 53 103 224 220 237 168 50 232 178 201 81 17 253 57 131 69 15 125 97 121 123 252 4 171 236 189 4 53 2 174 192 201 65 208 241 20 146 250 211 38 41 10 250 107 56 220 225 0 94 38 222 27 243 48 111 13 11 76 64 162 144 89 116 197 106 97 113 175 21 105 161 205 106 39 40 242 184 243 53 61 41 212 209 225 36 155 254 97 132 190 9 236 202 254 96 202 196 86 132 21 69 141 125 130 41 109 169 48 224 194 197 216 129 109 9 97 91 20 42 164 41 68 70 112 242 153 92 153 237 169 168 188 18 210 166 242 55 206 55 157 184 139 209 46 13 131 27 28 171 139 235 7 227 25 38 114 32 72 172 222 186 81 79 52 24 69 18 124 212 209 246 237 220 22 213 86 109 123 211 158 182 184 157 240 14 5 110 97 184 233 35 253 18 20 54 193 4 132 35 160 22 43 111 185 173 15 223 155 242 68 139 43 49 27 181 38 59 43 176 50 193 78 122 124 122 232 4 51 21 219 230 201 65 248 175 123 104 52 110 31 39 33 174 148 108 6 198 40 193 199 38 247 173 126 146 226 188 143 155 188 134 164 83 41 90 37 217 77 122 93 24
144 61 151 117 206 121 239 22 154 204 139 59 2 246 19 143 0 121 150 45 16 170 153 109 13 216 20 68 105 139 154 92 155 99 200 252 214 249 144 224 119 48 11 200 55 21 235 140 217 215 203 47 246 206 45 155 244 30 172 70 184 204 66 16 39 126 185 21 214 150 1 21 91 97 246 123 132 64 72 110 11 10 208 195 17 147 32 161 56 60 3 55 37 116 60 57 173 112 150 130 62 71 157 244 52 13 223 39 60 239 205 90 127 98 136 251 197 131 30 221 59 4 7 52 5 101 205 137 185 175 207 198 126 15 74 188 82 187 126 159 19 129 183 62 183 78 183 167 55 81 51 44 191 126 197 35 157 87 217 10 125 117 5 222 222 230 18 46 129 240 193 245 113 223 116 18 244 166 158 173 92 5 170 26 240 200 143 6 43 27 142 18 201 243 212 32 88 238 151 233 155 103 93 236 12 100 159 56 119 71 143 52 238 191 59 248 204 125 144 86 198 114 143 175 127 64 210 39 185 192 66 158 43 119 241 42 53 14 116 234 9 143 46 53 149 134 127 23 121 45 251 206 238 185 25 89 225 119 73 125 24 27 230 23 166 186 207 196 102 173 228 19 77 225 163 226 255 176 201 29 81 48 67 33 60 210 125 15 157 133 161 71 83 220 18 5 102 197 224 82
177 66 88 47 75 133 27 128 66 123 13 20 232 90 120 105 182 244 185 60 159 149 215 108 242 12 238 68 9 179 161 33 221 160 252 138 234 94 200 62 34 171 81 83 24 60 93 119 252 255 4 88 54 78 123 214 177 115 101 229 143 10 162 233 99 211 60 152 214 29 228 35 234 106 78 156 197 4 111 130 36 68 136 90 61 116 84 77 42 169 188 143 182 179 39 195 101 186 30 111 13 50 209 93 235 204 76 128 84 130 10 156 126 212 66 241 189 194 71 176 105 85 252 223 179 24 28 39 60 197 90 65 79 204 20 221 35 240 81 207 236 43 50 80 208 93 64 54 242 199 30 142 254 201 86 205 147 2 49 27 225 144 53 229 29 1 54 174 137 34 28 0 123 36 246 117 7 248 161 38 173 88 185 153 7 107 81 73 130 236 218 28 234 41 15 101 211 165 40 53 121 178 197 89 92 101 134 27 132 156 49 180 225 184 160 91 151 120 154 248 192 18 21 144 85 99 158 200 113 97 147 106 249 107 170 222 7 64 110 146 196 153 99 168 94 241 250 127 29 146 131 90 96 189 124 12 219 79 9 252 168 150 83 108 218 245 253 111 35 219 124 26 8 58 176 220 4 1 48 69 93 36 70 26 115 187 145 83 84 80 156 8 197 7 115 96 217 243 42 131
109 17 253 192 223 199 51 85 100 116 139 241 126 163 154 60 86 194 72 157 176 156 139 25 77 32 64 73 79 155 233 107 224 0 124 47 44 177 71 202 144 187 171 42 174 184 58 177 40 45 135 209 40 220 139 110 47 75 228 243 149 252 112 206 79 13 109 137 99 24 164 57 65 151 157 66 147 115 223 6 31 11 135 213 10 9 84 99 143 131 24 28 97 147 240 181 244 63 243 237 41 122 31 232 124 173 95 112 119 86 178 127 49 183 48 31 232 45 17 192 36 101 127 237 133 210 84 72 192 175 74 157 57 95 230 251 97 176 208 38 230 150 144 5 164 84 233 143 120 136 186 45 168 22 244 58 249 84 36 92 100 112 120 117 215 226 106 141 187 136 34 90 233 154 160 28 248 233 249 234 107 27 55 212 73 162 111 135 14 224 56 154 186 225 23 241 35 167 48 22 171 184 224 91 54 50 35 174 235 44 125 242 2 211 61 135 156 35 55 120 152 50 14 73 162 163 227 28 121 50 123 168 149 119 187 91 148 122 46 153 178 57 199 32 250 54 66 185 19 165 2 113 12 191 79 44 234 107 98 4 80 184 220 206 76 84 171 87 204 30 222 79 185 236 4 136 137 133 58 160 59 98 85 111 213 101 79 70 222 161 88 18 33 184 225 200 242 146 246 12
127 41 67 132 153 96 21 171 109 24 152 142 172 42 91 103 73 227 134 181 188 165 215 100 148 227 236 80 71 92 100 134 125 238 68 67 246 167 115 253 219 10 156 179 120 186 147 245 77 79 200 69 110 23 31 11 48 106 174 52 236 86 208 113 49 27 217 38 24 167 30 179 103 218 207 14 186 97 174 44 147 89 27 207 129 33 0 70 184 52 103 98 172 220 90 64 37 235 0 92 241 31 146 141 180 68 40 166 168 211 116 225 154 10 252 194 60 199 13 147 221 23 126 89 58 198 168 109 206 37 50 30 160 111 42 96 92 142 73 78 249 34 51 95 210 199 44 57 50 126 45 61 231 9 229 45 129 10 230 171 167 102 154 61 157 251 187 110 103 122 158 78 124 17 200 255 122 156 24 125 196 144 171 255 255 239 104 232 202 116 183 164 228 236 121 220 74 126 34 166 67 25 121 121 45 83 97 59 101 32 146 10 201 163 112 61 91 208 58 33 76 175 204 9 94 15 199 158 15 127 139 240 209 93 59 174 196 5 164 210 22 55 122 245 244 173 190 20 4 250 81 215 77 78 116 178 176 29 214 214 10 116 209 81 184 79 51 45 65 190 171 38 206 203 209 96 239 45 81 144 166 120 152 157 207 159 76 199 8 141 142 159 165 46 77 176 172 179 133 118
194 248 59 105 219 91 203 21 247 239 181 162 249 133 81 250 39 10 211 120 27 240 201 254 172 83 164 65 113 100 119 210 2 78 78 119 159 147 246 72 255 117 202 170 153 26 24 211 217 201 195 38 189 222 228 156 229 5 6 196 186 244 129 142 150 63 74 250 246 100 145 201 153 244 109 244 181 137 90 65 151 154 59 124 233 14 89 186 232 63 72 57 174 145 75 41 165 130 227 123 178 86 224 112 137 69 205 40 104 103 135 145 18 9 227 47 1 235 132 218 89 101 7 159 220 107 90 94 3 247 186 251 144 78 112 72 211 222 18 6 110 205 156 17 193 144 146 136 86 68 82 126 240 91 33 173 19 89 122 251 203 82 154 84 191 236 166 184 205 75 208 205 194 187 65 239 88 195 200 131 54 64 222 60 178 117 249 206 181 241 73 110 231 23 97 30 79 154 241 207 105 120 49 190 17 144 193 227 232 73 67 197 206 37 66 106 141 200 5 43 203 67 182 138 147 202 32 162 220 126 81 169 117 118 42 182 214 207 5 140 30 192 24 194 251 4 55 221 53 154 174 64 147 247 74 37 115 120 58 191 40 0 166 91 161 3 153 203 27 241 48 171 23 84 50 171 209 170 224 39 10 64 157 210 143 134 181 141 83 1 6 125 222 46 11 161 104 7 36 217
183 39 177 81 114 225 56 56 197 38 244 206 137 92 89 91 216 71 26 65 239 156 65 8 152 141 176 126 96 240 153 23 37 147 230 109 226 77 61 224 25 205 3 10 247 133 65 200 141 46 7 143 26 20 93 246 69 55 24 166 100 166 119 199 91 2 106 193 133 111 225 66 99 27 8 220 218 126 240 52 226 246 151 61 5 251 3 194 1 193 158 69 68 103 231 112 57 91 76 43 252 162 53 189 46 15 226 100 21 89 167 231 210 65 73 231 75 61 148 25 250 154 86 157 227 42 224 101 47 158 67 167 31 194 226 190 128 246 240 212 184 3 48 125 8 182 107 23 66 211 123 254 223 215 8 237 100 63 205 47 236 131 195 64 218 98 18 2 163 63 141 59 219 82 174 31 165 245 164 89 188 107 57 108 187 196 80 123 79 63 156 85 185 240 252 87 161 225 224 195 161 86 240 26 90 63 72 193 46 102 65 50 141 6 210 46 29 40 114 171 19 66 29 130 244 18 62 211 131 82 85 156 174 192 225 40 116 136 133 134 159 91 226 103 149 121 109 72 106 205 127 6 143 250 96 179 238 19 123 212 237 124 64 76 95 35 124 188 88 4 148 178 158 246 23 186 147 3 143 203 158 216 114 40 78 42 74 52 119 39 53 146 21 242 206 28 73 169 171 19
17 18 198 209 228 135 190 24 124 54 82 72 244 140 220 145 167 42 71 58 234 128 131 81 19 116 188 127 125 35 66 136 103 54 164 111 189 148 1 208 53 75 61 3 221 31 125 232 8 126 59 211 54 109 220 178 66 154 119 183 31 215 84 89 116 191 78 116 124 170 34 189 255 25 35 210 45 70 182 224 118 199 120 56 22 96 44 252 254 62 183 162 114 144 98 199 93 123 102 249 35 13 158 141 94 75 151 148 96 98 180 118 172 143 238 253 143 69 249 33 109 68 66 201 60 248 61 101 231 119 207 187 104 17 232 5 63 112 201 8 184 57 146 115 156 187 46 241 36 147 198 238 116 38 59 191 231 72 194 189 232 100 187 244 51 123 96 81 88 116 133 11 27 86 158 164 181 168 0 94 165 203 205 76 249 150 119 142 229 213 174 192 46 24 142 226 61 171 188 140 196 38 25 39 34 155 182 206 80 57 241 184 51 117 181 111 2 0 123 159 116 72 86 202 150 152 63 110 121 193 191 209 234 160 157 185 5 247 5 1 92 199 168 33 16 143 35 1 86 212 121 31 247 191 26 233 181 156 91 32 222 251 60 50 188 240 158 45 150 107 155 118 36 165 103 154 121 128 1 233 162 158 51 113 215 193 148 33 38 61 223 178 38 85 16 221 82 239 106 25
57 197 228 245 13 203 74 11 132 232 68 67 194 147 48 236 177 244 187 36 57 46 111 64 229 127 167 237 227 230 243 154 228 73 192 53 167 213 44 150 58 134 1 244 92 147 21 77 55 202 152 204 179 254 100 100 33 10 248 151 207 234 225 111 181 101 26 135 9 0 36 229 238 239 241 42 47 51 110 244 102 33 233 12 234 246 33 74 98 108 148 192 156 50 166 157 118 179 127 94 70 157 199 184 93 65 114 119 201 73 230 65 122 179 81 34 212 122 32 234 79 239 56 156 172 255 59 65 121 181 94 62 157 248 233 149 18 70 151 198 228 86 56 233 65 95 97 107 235 245 80 127 228 54 155 125 223 20 20 209 41 41 219 127 175 151 114 143 81 91 230 90 73 142 171 15 244 223 37 208 126 242 3 82 144 39 53 19 101 142 126 153 116 129 141 19 244 171 83 24 226 140 231 243 246 39 71 165 215 37 120 63 255 104 46 88 164 17 121 163 157 118 243 8 246 243 250 27 135 214 101 93 135 227 101 192 196 106 125 147 255 82 232 152 185 164 131 53 3 165 90 249 111 230 177 89 19 151 48 152 2 128 127 81 109 145 19 49 73 34 153 87 218 56 73 70 0 93 203 10 199 132 206 7 254 231 24 146 121 93 63 231 143 67 161 56 232 182 194 69
199 34 176 216 253 51 81 61 4 204 183 27 226 217 6 172 192 243 26 0 68 56 214 250 126 253 145 122 172 212 149 131 175 97 218 2 194 64 251 235 154 35 167 239 197 98 90 142 129 182 236 250 203 79 187 17 5 11 17 239 115 163 116 84 180 68 157 86 29 147 91 223 72 120 239 13 108 161 241 149 153 249 224 46 197 176 95 217 65 203 202 168 1 171 215 150 88 12 236 94 233 32 196 8 248 154 0 12 44 168 210 207 227 82 208 53 220 13 120 21 7 166 44 89 98 127 17 252 106 26 104 1 165 41 21 40 133 221 223 141 154 89 131 235 57 252 31 91 196 57 250 169 48 8 50 233 219 179 34 80 173 190 101 253 143 103 71 68 5 125 184 78 205 191 106 52 28 187 128 172 164 61 104 69 184 138 73 228 206 231 69 136 66 95 175 70 221 119 49 73 34 228 11 175 82 193 51 61 241 219 137 13 14 212 171 49 112 253 164 151 248 229 138 177 75 166 204 172 5 135 233 132 146 216 206 183 176 83 220 36 125 105 200 188 79 90 224 115 36 171 61 68 163 202 166 242 198 195 65 228 69 43 220 214 233 92 161 0 137 171 139 27 205 52 43 96 5 151 178 151 182 236 20 170 199 181 222 63 249 159 191 26 243 112 89 89 216 228 186 230
18 75 149 9 151 25 45 79 24 114 36 48 129 151 168 99 93 243 65 203 94 252 0 221 125 102 241 168 88 169 107 6 184 240 125 207 6 190 120 4 214 95 199 131 212 132 211 164 250 45 151 208 102 122 68 210 225 104 211 187 32 216 63 190 66 149 45 106 44 24 184 21 57 31 110 218 244 89 202 174 2 191 8 34 111 13 87 200 170 232 33 173 20 129 157 70 181 252 13 189 205 1 54 62 154 7 143 254 24 225 224 135 115 95 65 217 107 203 71 53 252 186 124 184 145 233 142 57 69 112 61 136 148 2 191 151 249 131 42 170 22 18 102 103 37 9 197 42 246 170 44 241 44 131 175 177 125 62 99 218 35 145 49 45 23 122 226 251 47 243 158 61 145 211 151 0 254 253 99 60 212 30 90 80 209 169 244 249 171 225 25 212 43 130 153 90 62 75 244 4 191 205 1 62 243 52 113 232 63 146 143 167 167 79 134 203 247 75 145 172 171 143 30 112 188 227 195 57 89 231 124 175 95 102 152 247 64 224 251 217 5 57 4 250 64 151 12 3 99 241 27 41 109 55 216 42 29 78 165 181 82 186 115 187 78 185 243 57 192 167 140 47 39 152 215 88 92 20 64 172 246 76 180 200 187 41 182 43 230 174 84 159 164 23 181 172 165 22 40 213
53 142 185 178 126 37 209 87 163 80 110 151 119 196 29 192 145 27 67 227 56 27 222 12 245 4 159 80 236 125 168 55 200 195 29 238 162 5 180 196 172 84 171 84 237 251 78 189 169 110 43 98 129 249 29 52 70 2 199 81 246 126 200 100 172 171 101 108 40 247 129 124 119 207 170 102 34 81 108 127 197 216 95 217 21 170 170 90 212 82 240 191 218 181 197 142 253 251 251 248 20 200 236 4 112 93 35 170 207 34 43 176 245 137 65 226 165 185 27 93 221 131 87 150 88 220 118 8 82 250 222 94 119 112 59 151 176 28 58 176 104 139 241 159 210 236 119 171 20 48 247 175 33 230 212 164 158 156 223 67 181 244 226 157 93 80 98 65 163 126 252 132 74 248 97 102 129 30 41 20 56 207 196 183 49 213 123 28 8 243 64 68 129 239 223 9 186 107 229 81 246 135 81 15 213 26 115 34 224 197 46 151 12 179 92 29 141 93 113 38 11 227 159 26 176 183 205 71 127 241 240 187 12 135 138 167 91 161 115 162 78 69 132 241 171 87 109 66 237 53 122 244 137 214 128 185 153 149 166 170 136 68 165 107 96 56 13 25 66 59 35 227 84 101 146 60 22 181 53 211 166 27 19 150 55 207 144 16 162 99 117 98 60 123 58 41 74 55 199 8
174 9 40 45 187 178 14 147 96 150 28 201 238 158 109 126 138 144 149 154 64 125 247 155 248 10 80 254 10 139 121 139 169 206 158 200 248 230 233 28 53 66 16 157 116 37 96 33 56 210 36 181 200 214 148 155 158 210 6 165 139 211 200 105 137 17 206 149 165 148 65 89 175 200 30 11 232 26 101 44 158 186 114 141 3 100 172 160 107 72 57 234 49 84 207 67 107 91 11 25 114 186 150 205 14 236 153 223 93 156 40 90 233 5 113 36 194 244 92 130 201 195 136 148 85 16 226 19 180 147 172 196 26 39 48 241 119 81 144 30 132 229 68 123 228 149 32 212 216 39 211 215 163 76 106 27 212 62 217 164 157 166 246 103 51 137 244 139 18 166 97 54 214 147 105 48 136 109 146 142 157 134 191 238 132 191 18 231 88 112 109 27 6 229 112 225 167 72 199 178 161 96 173 181 110 17 175 117 115 145 0 4 61 214 100 247 39 202 226 77 246 90 243 86 121 220 30 250 186 144 174 244 151 147 236 202 101 42 24 223 255 157 168 217 253 137 254 13 135 83 195 99 51 95 167 221 151 193 216 82 245 229 138 183 48 213 226 73 143 100 150 148 92 72 175 44 172 67 107 179 33 100 221 128 190 237 166 110 18 217 224 30 206 117 191 57 150 46 252 190
51 25 239 44 222 80 229 18 218 142 218 162 176 15 34 76 34 219 86 161 21 167 176 107 129 91 234 175 158 183 137 164 103 146 39 172 87 29 114 136 190 169 163 175 191 37 146 58 24 101 177 173 135 242 19 78 57 75 228 250 214 177 170 190 162 78 233 58 17 146 100 89 116 102 141 189 167 237 52 110 221 220 37 210 130 24 157 232 126 217 182 176 137 205 87 53 163 35 97 30 212 67 144 3 4 212 84 96 246 19 226 22 146 148 79 234 95 204 73 25 140 48 123 6 151 121 232 150 7 99 9 2 129 78 216 41 43 150 182 242 67 220 186 106 111 218 32 36 47 95 58 121 69 196 142 37 215 19 44 144 118 213 68 22 41 124 255 179 186 181 246 149 27 182 186 49 150 149 198 173 12 90 92 191 122 24 225 243 224 76 13 29 160 89 102 208 234 13 114 149 0 39 1 164 139 70 229 117 84 241 29 44 90 209 133 68 114 93 192 93 100 153 92 248 232 167 73 96 91 242 95 39 59 230 96 217 197 51 33 203 61 29 136 176 218 193 170 208 50 241 56 126 37 229 121 16 149 122 200 120 213 157 53 55 52 120 72 46 140 98 245 248 245 231 57 255 120 180 206 203 235 40 27 176 206 4 116 154 139 74 219 31 164 216 0 41 39 116 118 42
199 159 219 122 121 203 95 203 116 186 173 175 62 158 254 113 113 185 49 187 159 23 250 155 216 217 184 224 17 52 88 235 172 39 252 121 15 243 150 23 227 69 96 214 188 124 59 74 4 102 24 200 166 79 154 251 212 45 86 237 226 162 125 29 28 255 0 120 147 3 185 213 36 118 136 160 218 248 95 86 121 100 226 189 143 54 119 150 37 142 197 32 222 91 255 185 37 25 222 186 38 245 5 13 43 118 145 106 223 10 67 51 197 196 49 46 77 91 142 2 221 219 100 133 23 198 17 211 177 30 21 10 155 254 15 245 91 94 15 69 57 93 92 63 32 191 104 64 177 145 245 76 208 228 226 157 191 14 201 99 201 75 113 4 220 229 121 205 146 100 95 163 110 166 91 91 237 157 161 151 66 16 23 176 18 68 72 193 130 136 188 46 241 100 210 152 194 234 12 17 87 234 219 105 192 120 95 13 227 180 247 63 181 2 227 196 91 93 149 170 6 170 245 82 50 145 231 82 198 137 175 185 84 166 117 41 151 123 9 47 112 106 177 119 7 3 178 252 218 244 53 220 172 205 105 185 255 221 114 153 157 201 1 179 177 39 174 142 55 212 62 192 171 131 249 90 17 53 77 62 169 20 237 64 49 83 217 245 119 81 234 194 76 113 150 182 195 122 10 16
88 115 56 221 39 215 204 34 20 112 200 152 156 32 46 227 95 65 41 246 192 40 209 124 48 144 183 91 92 215 246 97 90 157 140 93 110 211 59 202 6 52 171 5 144 96 219 249 116 11 67 202 162 196 91 236 92 27 69 243 247 225 202 55 88 98 57 148 43 189 195 242 248 57 58 254 188 244 45 20 213 3 9 153 167 14 93 113 179 8 55 83 0 31 140 246 146 236 88 116 138 215 10 23 66 121 255 48 2 172 115 106 39 59 226 225 105 102 207 131 110 211 4 90 17 15 96 1 136 119 78 189 83 174 6 152 44 0 215 122 244 239 165 28 167 231 140 89 156 22 179 46 71 55 253 83 249 56 125 65 189 58 172 198 176 255 229 124 135 232 79 117 33 170 39 228 138 123 230 228 241 233 0 238 97 159 186 140 251 159 14 162 16 106 76 216 147 227 171 109 248 179 26 109 69 221 246 89 216 164 119 116 148 66 164 165 67 61 69 21 48 165 7 149 64 53 170 174 89 23 39 35 62 151 40 215 98 137 153 67 22 145 232 69 148 234 148 127 27 124 128 95 66 227 95 53 214 147 13 230 189 195 115 249 128 14 7 189 39 49 138 80 192 135 16 44 53 154 192 164 92 123 161 206 218 130 57 169 89 235 87 46 230 141 150 245 53 143 130 78
182 224 57 132 123 150 156 116 21 124 75 158 80 137 228 166 254 105 103 211 31 148 215 147 81 169 230 140 144 57 180 78 140 77 254 30 20 61 7 216 116 195 130 3 4 28 216 146 240 196 218 107 96 160 11 136 11 127 26 153 231 126 122 126 238 84 105 182 182 250 249 39 213 125 183 102 8 104 134 185 85 79 41 237 79 143 89 32 194 52 46 203 166 184 51 123 91 60 35 11 18 100 192 173 71 188 237 188 62 167 99 25 88 36 131 102 199 235 19 188 8 145 245 24 155 206 118 182 24 205 232 220 5 254 116 74 38 217 232 191 163 68 86 71 57 63 19 190 119 183 44 239 251 7 211 159 190 177 14 149 235 18 145 247 68 38 47 147 197 237 223 52 144 10 113 22 200 4 84 2 177 160 114 184 173 82 70 182 32 64 40 139 25 50 247 59 228 106 198 33 208 181 200 26 130 165 201 198 182 229 223 99 54 21 149 81 191 128 23 61 74 181 214 170 164 98 200 163 200 89 172 124 170 179 44 109 81 217 84 64 2 108 122 37 8 200 5 201 207 141 89 89 100 82 52 159 240 85 27 80 250 250 70 63 56 60 178 105 101 148 37 131 136 212 15 184 123 82 231 62 129 126 158 101 85 203 195 7 28 222 208 61 184 53 83 119 221 75 35 84
170 236 206 131 69 6 246 150 67 169 245 203 238 52 190 93 120 135 138 88 28 57 95 101 92 159 152 125 96 85 146 21 165 250 206 129 111 121 166 53 8 208 178 161 228 6 88 194 28 152 37 213 65 167 246 150 36 166 253 161 44 216 238 153 229 151 193 232 82 29 98 174 53 42 61 5 254 90 10 13 201 203 204 125 88 87 20 140 120 60 21 114 171 53 72 235 6 174 19 247 238 170 58 127 168 165 68 47 173 233 196 211 102 112 173 183 8 0 96 77 94 109 88 203 0 60 43 40 171 61 128 219 182 83 116 143 222 119 19 191 18 102 111 70 75 115 104 74 3 47 224 75 246 174 208 77 182 25 30 51 81 174 243 97 239 208 96 202 6 25 23 138 19 134 122 120 100 223 229 25 9 35 148 182 248 222 184 183 153 233 60 216 84 142 74 163 7 42 168 55 128 210 137 153 13 45 87 161 49 148 78 125 98 181 165 220 206 28 146 177 214 221 209 252 51 226 162 169 144 8 16 238 21 107 10 165 34 209 139 2 186 56 50 189 187 24 196 144 162 80 190 111 177 74 54 255 33 135 77 183 252 30 200 254 255 239 145 10 201 200 200 188 168 24 152 188 235 128 90 237 24 124 172 34 15 94 190 125 127 255 116 92 251 100 218 118 124 158 49 84
96 42 44 122 14 244 127 39 165 254 156 200 121 12 225 137 181 222 86 197 50 100 121 70 23 171 144 76 87 86 224 6 146 5 24 98 107 62 39 40 160 33 120 175 76 55 1 101 169 36 99 106 40 141 247 176 40 177 73 11 197 55 138 203 48 194 190 36 0 196 221 114 101 129 128 99 246 134 11 218 117 36 29 23 14 130 92 195 67 197 226 136 241 77 204 213 35 11 82 134 96 38 110 208 1 97 3 211 209 5 147 215 212 27 25 133 154 76 212 33 166 226 236 167 141 130 140 102 30 199 20 11 227 183 159 24 136 64 81 133 46 145 20 2 61 171 174 246 227 73 194 83 15 202 195 118 46 242 228 254 173 64 168 196 198 200 200 148 0 74 174 43 175 171 151 178 68 173 244 158 30 225 213 133 174 151 165 240 209 218 252 220 114 231 91 168 227 1 175 48 203 202 57 169 22 50 155 243 45 77 0 34 74 138 115 34 129 86 42 70 198 193 132 237 115 173 225 247 33 50 190 132 160 134 65 128 187 140 248 244 84 126 95 244 212 118 129 21 41 50 214 102 45 172 118 156 209 207 183 36 221 73 92 196 70 107 180 165 219 177 103 167 246 120 166 212 173 119 180 163 8 109 226 180 55 134 148 137 216 240 176 72 105 50 117 163 196 134 215 145
108 38 75 230 163 212 216 207 246 191 93 200 152 88 138 227 107 35 152 224 223 37 16 234 14 146 44 198 195 236 179 55 154 213 9 71 56 251 228 198 192 5 227 200 151 5 100 16 230 33 211 62 72 243 123 158 47 55 220 61 82 44 135 20 54 164 217 52 185 103 152 80 206 219 89 71 167 136 58 167 207 100 38 228 103 195 235 150 154 134 212 36 226 137 198 6 147 225 247 11 171 82 221 67 150 72 80 7 40 56 207 166 61 235 8 254 69 191 118 3 222 143 231 133 43 5 183 48 125 230 116 102 78 7 44 234 72 222 227 193 114 112 181 163 161 127 101 22 42 114 46 10 167 141 8 82 9 1 15 237 232 42 126 93 94 213 55 54 136 146 130 177 102 11 63 138 253 126 36 161 229 236 0 5 183 173 2 237 69 204 27 128 249 51 169 134 58 75 208 189 96 220 159 41 189 186 36 46 4 198 93 52 46 32 169 98 73 133 227 77 108 109 27 235 216 215 83 36 133 189 92 81 10 224 91 113 6 182 213 134 146 17 147 83 155 173 245 183 52 190 154 184 111 223 236 86 182 138 4 198 230 204 140 73 66 199 232 88 2 234 119 31 18 11 133 81 59 182 220 200 150 160 54 234 254 254 46 196 217 205 76 166 10 222 49 201 111 50 35 89
157 70 218 134 153 244 182 98 207 111 28 221 70 40 40 25 192 54 27 90 88 88 12 242 96 72 167 141 222 1 254 91 91 247 252 220 134 207 218 69 35 136 16 43 100 93 122 197 168 48 64 121 22 240 17 254 182 135 104 81 2 82 147 164 92 14 250 49 95 199 20 132 191 128 102 126 157 47 37 209 176 228 160 33 227 126 149 210 96 245 73 49 222 25 64 149 2 83 3 110 247 22 224 177 76 136 91 146 50 49 35 191 25 54 157 252 230 249 15 29 118 103 201 126 56 195 139 97 86 234 201 62 9 46 212 200 183 81 1 89 206 38 145 49 238 93 195 224 117 96 105 166 231 240 145 133 202 211 156 63 3 184 53 184 209 159 39 13 205 35 47 57 201 210 166 52 13 234 223 165 121 217 244 159 169 133 125 92 65 40 62 70 28 114 224 206 67 24 50 255 205 141 34 88 92 162 247 92 164 13 148 132 223 190 35 101 76 83 153 73 113 226 206 13 7 242 174 139 184 43 28 185 39 106 29 87 247 1 21 185 9 160 136 61 24 37 81 86 148 144 94 213 145 45 36 131 101 84 42 71 74 48 184 103 185 134 19 141 133 173 175 186 98 145 154 14 178 27 81 181 211 111 186 66 182 79 145 236 56 4 207 247 190 130 49 130 196 127 222 46
99 210 28 0 0 147 133 147 233 134 197 156 233 127 220 188 162 130 96 172 72 228 207 113 134 253 2 160 154 84 173 138 65 111 24 100 68 52 171 71 137 90 109 109 77 192 213 105 21 88 48 126 199 95 54 200 73 212 237 28 231 23 154 255 103 107 0 101 190 2 163 44 128 86 49 215 161 242 146 203 203 17 38 128 174 190 148 199 131 251 193 75 85 131 225 58 161 42 2 183 220 169 89 9 105 173 197 93 169 90 136 5 87 77 235 143 61 5 194 109 196 156 130 243 133 178 111 238 152 216 29 35 40 168 14 218 80 247 28 184 95 224 220 22 185 224 104 240 49 123 126 227 121 206 83 109 93 58 22 157 115 18 117 32 224 68 64 211 27 178 214 9 4 128 128 109 234 107 229 116 194 81 180 160 87 8 131 229 52 85 197 172 2 133 164 179 22 178 34 225 147 75 54 17 173 195 217 175 199 147 89 147 123 9 70 41 51 71 160 216 150 27 228 246 214 60 59 210 64 45 10 79 2 76 230 141 99 27 140 34 232 142 113 163 218 133 78 144 99 217 0 190 217 245 148 165 39 112 102 238 63 117 52 172 14 71 235 108 144 99 38 143 124 172 5 245 242 109 93 102 116 97 34 205 89 53 192 179 211 192 76 47 233 150 180 219 10 248 235 235
235 184 2 224 151 39 135 232 156 161 45 7 119 9 41 68 126 187 201 103 113 101 197 37 5 152 145 117 229 216 118 77 248 211 232 188 128 214 112 38 209 178 78 147 100 102 14 69 36 179 159 133 248 31 133 249 122 170 86 34 191 7 181 213 173 28 13 217 70 120 45 180 15 63 127 54 37 88 93 134 125 190 145 32 150 155 174 248 187 138 115 173 37 21 49 88 190 66 220 45 125 4 113 192 155 175 29 26 167 240 50 72 17 73 18 0 195 16 92 182 179 71 83 121 202 75 48 250 108 112 39 184 101 127 213 9 167 167 34 61 232 58 91 230 113 163 223 108 118 151 110 211 115 130 221 45 225 36 53 83 53 248 114 77 68 89 71 147 1 172 71 197 157 42 135 51 208 220 152 115 51 96 45 174 109 138 64 255 234 227 207 245 2 95 108 247 253 244 26 61 18 222 10 125 189 161 40 52 217 166 95 159 39 226 238 26 64 254 181 20 19 166 14 52 241 95 47 66 242 78 30 45 195 238 172 249 93 1 44 69 221 210 168 38 128 220 63 149 136 23 66 88 114 162 171 18 6 232 142 47 82 154 105 137 202 107 40 232 57 162 174 124 107 218 5 185 120 209 78 128 49 184 63 71 165 45 24 48 59 253 63 247 26 215 117 67 13 122 70 218
152 86 248 7 8 255 43 76 10 231 103 64 79 171 13 79 88 113 214 103 22 201 151 156 236 33 99 56 124 191 233 36 99 143 34 60 172 193 177 200 30 97 69 10 1 134 140 15 207 159 255 153 242 123 7 9 107 13 246 17 244 138 16 113 1 87 81 127 141 175 140 52 61 189 47 236 236 200 226 198 4 217 10 49 65 140 240 253 235 117 116 128 138 140 78 165 50 14 137 146 92 14 186 55 253 48 66 120 119 69 158 162 50 50 20 147 2 170 31 228 94 169 118 203 185 31 98 124 93 170 159 216 89 232 174 138 123 129 228 133 92 126 171 37 223 71 198 132 6 242 130 132 84 151 8 59 133 153 193 52 123 52 17 234 46 242 254 55 137 77 21 191 113 41 102 235 219 245 185 251 54 83 214 67 68 31 232 26 77 5 99 228 222 185 102 167 34 72 125 11 104 202 250 92 110 211 75 216 198 77 139 199 235 177 115 47 227 195 181 108 118 109 170 179 32 84 133 15 18 7 99 137 221 8 145 128 227 50 179 19 136 48 138 109 208 206 45 104 171 253 15 214 204 122 253 25 91 3 26 61 17 84 2 204 167 230 75 105 54 51 155 3 184 125 77 109 184 79 110 170 144 14 144 198 221 71 62 118 21 37 186 190 95 104 43 118 7 128 221 91
48 102 139 27 89 167 41 222 72 114 95 231 178 217 178 238 232 227 61 131 82 238 245 209 58 137 209 204 200 182 207 218 51 215 167 72 107 148 26 116 189 102 79 181 227 174 35 199 200 222 184 68 182 21 25 128 116 61 218 75 164 179 186 80 145 185 224 159 114 49 49 5 145 49 67 204 28 158 106 1 130 180 35 14 244 228 56 154 60 118 42 204 223 94 80 231 125 163 240 240 205 206 172 139 253 29 35 6 234 181 201 55 111 84 179 18 183 23 191 238 67 3 94 205 189 233 44 151 35 172 200 193 24 6 25 41 219 255 138 164 133 191 70 69 108 90 163 178 51 240 68 165 214 234 32 196 0 229 141 155 233 99 198 9 6 102 116 174 89 64 65 72 211 37 66 214 24 91 184 108 43 216 131 173 172 57 250 70 73 37 3 75 207 90 113 27 29 101 5 249 194 59 154 195 76 76 38 151 106 143 120 138 122 175 50 201 229 7 129 45 24 165 47 37 237 239 95 0 172 189 184 193 89 12 216 0 22 133 108 95 42 38 232 106 172 106 65 200 201 75 103 248 158 134 180 34 51 202 9 120 42 162 26 129 134 216 109 186 166 235 186 217 8 63 74 236 202 179 199 141 183 160 244 132 130 42 76 113 239 30 116 9 178 173 130 160 214 10 6 98
247 25 226 150 250 85 132 229 170 3 72 21 129 207 54 104 190 110 48 122 26 140 28 123 29 204 30 22 81 50 204 160 149 2 98 65 56 153 40 147 152 241 168 187 179 163 53 132 89 220 19 34 200 146 102 163 166 249 235 225 179 145 187 211 1 54 38 117 86 2 155 57 213 227 157 29 19 102 142 244 36 173 138 60 98 46 223 176 66 55 27 96 244 13 103 90 173 72 131 15 106 100 202 61 202 2 151 240 194 63 253 142 65 18 70 93 9 133 179 212 252 80 82 26 215 24 235 192 229 246 246 9 68 67 120 180 5 110 80 84 225 135 135 198 198 206 29 136 147 49 127 43 194 98 82 138 47 174 214 243 181 130 19 59 4 222 222 248 131 52 246 5 113 237 2 3 101 203 97 37 120 1 92 218 65 223 172 110 54 51 158 166 55 123 153 206 211 150 57 228 138 95 158 193 249 242 2 162 11 26 145 54 128 219 82 146 63 157 107 35 237 36 92 77 41 232 10 104 86 177 230 110 233 246 129 6 47 12 203 149 62 75 11 165 41 80 145 2 67 148 151 39 148 220 54 68 105 89 227 179 116 211 140 118 124 45 209 73 125 199 71 32 224 41 107 145 221 130 135 157 156 178 107 157 250 0 40 226 183 211 2 171 250 55 152 243 177 163 211 28
124 10 65 229 51 83 62 119 186 76 130 252 162 146 147 45 147 56 125 87 178 255 104 20 141 111 156 236 123 15 101 207 161 125 126 150 188 216 163 228 217 226 217 35 81 133 214 2 132 162 120 91 40 215 20 197 150 143 67 64 236 69 105 50 183 197 185 167 196 212 152 59 106 141 152 0 201 250 153 19 73 104 245 92 83 155 116 88 184 232 72 195 100 151 86 240 4 92 53 197 217 247 30 159 166 16 224 29 205 156 73 218 53 4 140 249 232 81 42 48 73 197 165 240 106 26 126 215 182 89 14 136 2 241 69 110 96 15 34 149 187 11 86 102 132 46 74 51 34 188 204 211 9 11 252 68 210 101 190 87 205 102 197 158 126 174 121 72 180 226 211 75 200 68 209 125 122 125 165 246 94 72 225 58 183 96 157 148 229 252 84 226 205 28 233 119 62 181 159 14 34 51 102 116 69 23 133 220 97 202 239 189 189 75 4 229 188 124 20 159 17 239 49 41 211 74 116 189 58 30 100 128 65 24 205 191 144 96 206 94 242 42 19 64 236 107 174 118 131 11 154 77 19 22 46 158 233 147 224 3 245 138 231 31 8 188 128 112 195 184 107 167 223 177 241 76 19 206 230 8 24 201 43 84 227 174 48 4 41 39 244 96 235 26 126 72 157 133 252 151
177 0 134 167 194 147 41 40 181 254 248 39 94 38 252 64 11 247 239 130 240 224 12 40 18 98 80 163 149 99 49 90 211 189 18 243 181 60 51 27 82 132 180 173 59 108 129 227 149 171 64 223 239 52 135 214 221 48 70 10 221 9 138 204 126 149 145 77 253 255 132 8 170 10 181 178 92 157 87 40 27 190 29 92 131 82 71 36 195 180 168 249 198 209 11 88 233 124 154 128 80 238 214 185 174 66 226 61 225 243 133 180 94 164 86 133 104 245 93 64 95 137 5 31 139 255 234 211 221 66 180 190 140 70 217 129 48 201 184 102 53 9 202 80 96 112 246 105 61 123 178 239 118 110 213 147 124 136 240 92 70 173 94 187 53 232 98 43 162 232 232 20 13 181 137 62 118 171 110 1 251 173 213 202 16 195 43 45 225 223 45 46 254 254 0 123 169 78 112 74 255 4 89 1 5 52 184 54 160 190 66 27 242 198 207 201 208 189 243 57 49 183 108 174 207 149 134 95 0 77 136 86 107 211 250 141 13 10 15 255 195 125 193 57 219 114 157 255 233 255 65 164 67 98 207 112 115 52 198 208 180 13 11 240 92 134 241 237 190 59 128 107 20 242 63 244 29 140 30 6 232 185 181 203 77 156 215 57 241 237 13 114 151 60 78 125 123 182 65 14
58 25 9 3 43 204 200 130 155 7 220 46 152 227 198 166 39 31 43 158 242 122 35 218 164 99 249 21 246 164 164 1 12 174 235 153 214 180 13 38 156 32 71 218 186 215 105 198 168 88 70 235 59 9 53 220 184 62 16 224 255 175 254 251 74 73 112 192 55 13 32 147 248 116 228 49 5 29 194 184 88 71 206 242 65 148 246 164 85 211 37 113 143 96 37 157 11 192 76 103 96 240 182 95 26 23 132 55 61 134 249 107 139 13 81 248 102 182 225 186 194 246 192 13 67 221 242 178 245 9 39 0 170 98 250 0 195 75 179 28 67 215 17 50 109 134 8 180 166 232 89 234 253 141 29 137 201 122 31 21 82 193 164 60 237 116 8 71 144 243 196 100 76 5 124 155 85 159 128 61 227 94 207 234 90 55 8 130 126 110 186 30 24 142 19 76 213 158 171 231 47 200 208 182 19 228 212 211 128 12 134 40 199 110 199 66 52 248 181 38 167 223 223 248 225 128 137 224 80 207 30 215 86 100 51 129 196 119 29 181 62 157 82 50 98 105 250 108 86 105 36 144 112 241 104 180 140 43 43 110 51 239 9 69 168 106 173 22 116 34 32 187 150 225 133 176 183 88 99 20 193 152 129 90 139 192 96 105 96 58 81 7 205 241 137 83 139 216 231 188
127 229 33 140 239 67 227 253 69 216 10 123 148 39 165 99 149 146 49 54 5 19 6 110 65 117 19 55 134 186 254 217 85 133 176 113 42 75 208 183 244 58 167 69 186 20 135 243 161 24 152 138 200 242 29 34 64 147 19 67 176 40 154 10 186 110 135 71 59 36 92 144 36 110 207 97 108 199 238 116 11 135 104 57 156 240 171 31 212 59 109 160 70 227 28 118 15 124 12 187 217 45 63 43 79 94 134 169 34 22 211 116 107 8 87 185 80 50 129 227 243 251 53 209 127 208 182 43 59 187 28 169 60 146 250 223 185 38 243 235 51 236 132 4 152 149 183 148 222 124 164 146 93 227 190 198 174 250 201 146 91 167 39 86 192 58 123 61 133 39 96 180 23 100 61 90 214 165 189 51 64 214 67 29 157 217 152 187 209 250 148 144 105 101 43 65 15 200 73 83 115 166 173 126 200 14 160 114 66 91 136 58 190 177 108 87 84 136 129 141 187 188 128 217 100 53 235 125 6 31 105 215 6 99 7 25 184 22 71 98 0 174 111 16 217 12 183 96 2 168 147 197 89 215 136 62 147 231 239 58 113 212 83 36 133 75 178 180 178 149 245 100 51 108 237 211 29 152 111 177 224 188 115 81 46 226 252 241 78 162 67 227 118 140 205 71 126 31 82 176
131 214 155 235 126 182 153 238 120 3 141 36 106 136 166 141 19 67 25 233 97 128 191 230 196 146 186 192 218 219 233 80 5 45 218 142 64 225 218 141 219 239 216 207 115 183 130 90 249 158 77 71 145 4 81 216 67 248 210 40 117 51 205 139 71 27 44 143 68 185 40 162 132 230 3 111 148 30 143 71 39 252 251 160 228 149 18 62 237 214 2 242 160 4 255 171 211 90 17 18 180 186 159 176 247 93 29 217 218 128 16 187 244 235 202 28 150 178 156 194 203 130 75 68 106 240 185 5 133 108 90 252 169 159 50 27 48 161 96 13 142 236 147 60 171 126 23 54 189 163 87 190 80 15 176 110 20 77 36 225 90 159 18 199 2 144 200 138 252 119 249 111 167 146 238 112 204 189 160 154 57 88 243 65 243 230 221 70 249 123 221 228 82 48 192 243 22 18 154 245 21 7 114 205 68 108 68 118 6 85 199 191 7 81 241 241 191 29 156 23 105 58 242 111 227 162 210 31 223 230 77 125 241 76 224 146 82 149 179 135 59 245 52 221 195 12 58 209 145 128 230 7 167 170 127 38 69 209 116 62 248 15 216 99 50 118 232 187 103 251 193 102 240 239 193 164 77 209 128 224 146 237 67 70 28 190 71 221 242 152 168 126 42 70 163 164 91 196 133 78
170 54 32 211 58 180 96 183 77 1 182 215 234 190 198 237 244 65 90 42 198 3 177 151 136 199 0 50 97 92 118 6 66 41 145 78 9 226 146 12 249 187 99 40 111 10 190 73 43 22 69 166 205 59 65 66 79 247 201 123 137 196 141 75 146 46 102 205 207 58 87 91 182 0 248 220 19 90 123 203 176 0 50 221 208 23 174 219 34 10 235 87 139 230 59 125 74 148 3 202 191 74 146 186 209 33 242 72 3 77 25 80 222 162 187 208 9 74 108 157 121 109 54 223 22 120 187 131 111 12 49 6 166 1 253 73 161 9 34 83 78 224 194 200 12 252 184 86 180 194 52 247 242 26 226 133 14 67 180 132 7 98 15 134 108 13 183 158 143 169 167 111 101 239 53 115 19 83 162 86 141 10 75 192 201 23 237 33 134 20 158 148 124 154 238 10 82 73 76 133 222 211 120 217 53 219 76 2 181 179 42 150 4 5 105 79 95 253 62 154 113 10 223 135 82 239 130 213 117 150 58 139 111 244 79 74 117 247 227 139 95 43 0 126 49 211 212 182 124 219 65 202 205 191 214 242 152 123 82 49 18 148 65 168 192 29 35 46 247 66 41 5 28 200 6 114 60 11 236 14 113 172 47 33 253 187 35 87 125 165 131 135 117 176 76 218 209 240 42 32
93 243 76 59 127 239 110 155 251 207 223 77 100 89 137 24 65 196 168 207 152 97 221 163 255 39 144 6 207 185 223 115 207 188 217 177 25 52 228 217 229 112 192 125 144 239 28 240 168 82 69 108 220 192 68 230 108 219 243 196 172 202 80 41 219 255 137 36 131 179 155 211 70 204 110 127 39 179 25 217 129 170 34 79 19 146 172 131 80 37 38 202 97 247 78 81 154 111 76 58 175 252 229 226 61 202 182 92 64 67 108 204 76 240 150 91 155 203 170 189 215 146 74 229 147 11 212 222 212 209 24 186 228 110 111 25 118 17 42 112 10 125 63 181 6 233 243 69 47 182 243 6 69 69 162 92 45 116 210 99 144 43 217 9 126 244 54 232 95 149 153 128 85 12 207 141 9 80 224 142 221 205 236 221 59 64 17 205 98 213 29 93 19 187 19 88 223 83 64 38 146 135 209 239 141 64 1 111 183 174 124 168 131 58 172 143 49 255 193 50 75 133 187 238 6 138 21 170 190 222 30 30 108 189 195 152 15 185 31 154 169 83 190 136 247 212 97 224 119 209 161 103 7 181 222 31 186 40 10 228 230 145 10 74 150 70 231 166 241 210 59 157 153 194 254 235 186 48 29 219 117 235 21 205 235 231 62 148 17 87 9 61 4 81 227 178 17 28 213 148
162 46 99 50 140 90 43 248 41 198 216 4 59 236 43 39 89 147 90 43 228 243 86 254 161 49 48 76 80 204 1 8 37 245 94 71 49 147 193 24 255 193 46 166 220 239 250 111 95 137 13 8 203 105 145 134 253 182 210 139 102 135 116 241 102 211 183 135 221 97 7 158 181 139 227 142 1 216 115 36 228 69 104 179 200 6 202 89 244 171 175 11 153 96 157 100 151 32 159 95 91 194 21 44 67 84 75 141 162 65 24 11 134 111 198 10 47 123 218 149 21 71 71 63 169 188 104 10 55 127 78 4 63 60 182 200 166 75 104 192 230 67 165 161 109 193 147 37 74 211 28 217 170 111 218 103 39 27 37 84 186 239 164 124 133 186 208 95 173 173 64 45 18 226 169 55 111 234 30 197 96 90 163 58 206 208 228 195 191 203 238 33 218 14 223 141 170 211 126 52 75 154 173 62 240 217 17 29 202 217 83 203 132 237 159 60 239 234 95 206 52 86 42 60 218 208 93 135 45 113 152 115 224 155 9 24 43 56 127 255 10 223 92 214 120 70 128 14 229 238 118 89 225 13 248 55 62 242 148 166 111 201 71 253 123 35 182 52 161 59 34 231 82 226 91 126 181 137 158 105 236 25 85 144 208 216 147 28 10 7 200 1 144 219 7 119 186 60 57 228
44 204 13 73 234 151 69 200 131 219 129 246 88 66 210 59 35 211 111 185 146 50 114 110 15 189 167 98 141 112 69 54 133 170 224 52 198 205 49 251 178 16 7 20 130 169 53 83 132 207 140 125 139 132 242 208 48 253 148 118 189 85 4 190 204 164 237 35 133 174 159 48 196 95 83 166 80 164 201 93 113 193 109 26 180 10 204 250 225 184 59 189 253 215 125 149 149 31 227 253 170 71 189 157 222 177 250 49 199 215 205 129 192 52 127 112 157 148 140 10 95 177 47 217 144 195 248 64 98 129 39 173 64 222 114 167 153 132 224 175 0 43 203 236 45 105 111 22 89 79 12 79 247 202 241 86 226 5 159 249 79 46 203 141 116 139 212 57 45 167 1 17 221 196 1 225 243 225 153 39 98 1 40 76 117 124 106 107 184 119 145 105 7 2 18 67 249 171 170 113 156 120 229 49 244 247 32 48 183 60 35 145 134 18 73 56 184 26 14 211 37 77 140 36 180 215 196 14 57 117 189 53 6 88 166 155 201 28 145 204 31 34 81 123 84 178 97 90 214 14 85 29 249 194 49 137 175 249 65 162 67 169 183 138 123 119 177 185 66 103 217 124 104 237 120 9 143 208 220 189 107 172 78 224 80 210 211 152 217 173 46 9 229 172 255 113 44 117 172 193
163 38 187 131 227 21 66 43 154 95 235 25 39 12 212 147 86 156 255 106 110 158 70 223 113 23 229 108 130 238 229 75 67 233 16 12 140 134 248 126 45 77 13 142 119 139 23 200 14 136 5 253 22 89 103 177 136 34 92 126 34 115 0 221 48 107 37 74 150 78 59 232 226 250 24 62 254 145 164 158 147 78 2 247 223 89 110 126 157 161 41 238 42 30 42 219 248 231 26 218 235 220 219 25 253 43 160 57 120 44 72 20 144 72 228 84 196 185 195 218 144 82 70 17 158 145 34 60 136 93 114 226 110 85 135 168 123 79 154 36 245 217 110 133 245 147 211 95 254 156 208 240 97 40 241 111 133 243 238 236 51 55 129 23 225 84 227 158 91 5 112 213 60 56 59 150 93 147 66 48 132 170 40 249 174 170 249 163 39 205 114 30 135 171 160 10 21 86 176 245 207 57 213 232 205 33 237 222 228 50 58 111 63 132 131 4 36 29 198 69 165 156 170 89 30 16 165 8 249 170 34 84 52 12 217 30 197 227 25 88 77 12 32 141 13 13 22 187 170 104 229 221 10 178 85 200 185 137 54 143 207 108 116 69 224 102 210 16 207 104 80 239 67 36 219 113 26 61 117 206 227 113 228 92 215 161 207 158 48 138 182 226 253 14 207 143 141 148 171 92
23 106 223 18 98 147 171 66 144 126 192 242 24 206 104 47 87 224 69 24 210 108 51 53 43 152 140 165 43 156 134 71 239 138 130 15 150 60 228 228 103 108 55 62 81 145 170 51 159 94 112 101 168 160 226 156 227 182 146 35 236 218 177 142 16 240 240 111 20 183 120 67 27 145 66 104 155 171 247 129 251 69 149 124 206 54 28 127 186 222 216 142 24 80 37 30 210 180 15 242 10 130 49 66 146 5 159 200 134 218 162 240 233 185 119 83 138 189 207 203 18 158 102 215 144 156 166 174 18 3 70 159 74 59 238 179 22 79 56 79 181 36 8 86 19 144 157 180 14 127 27 168 46 133 204 130 150 15 160 10 255 200 51 233 130 158 224 255 65 27 197 162 236 236 76 134 238 179 169 211 163 175 184 238 192 47 233 57 23 228 57 3 83 69 49 182 190 6 120 143 252 215 104 38 71 27 251 127 186 157 9 8 250 188 114 174 179 136 151 229 44 214 89 135 107 71 252 93 223 186 6 36 241 39 201 154 42 237 174 199 47 217 73 6 237 219 18 225 251 22 58 145 160 191 153 182 60 71 153 53 205 87 19 89 39 130 84 112 103 152 21 29 116 172 36 4 63 165 164 14 38 244 212 80 185 96 122 20 147 158 39 131 139 165 43 202 179 162 78 201
122 84 109 121 177 232 128 225 171 13 84 160 204 149 98 141 54 5 170 87 199 236 192 129 48 246 98 222 156 194 183 139 132 197 71 47 181 1 131 73 190 94 128 123 73 0 248 52 185 124 148 179 8 134 173 192 29 200 255 179 130 106 141 136 238 242 197 104 241 126 112 11 181 106 43 243 227 207 198 206 254 237 252 134 74 250 236 197 9 77 61 88 80 233 108 33 12 51 130 128 137 211 67 56 66 169 19 39 107 201 193 172 211 13 127 183 53 249 128 236 186 142 124 41 147 164 45 255 42 166 162 221 40 215 105 216 196 80 153 132 186 19 175 127 144 22 38 61 29 30 57 168 106 119 181 149 59 18 107 237 231 34 10 67 36 93 219 254 27 152 64 188 248 122 167 121 80 97 71 176 208 200 179 128 165 81 235 103 17 106 44 190 5 219 92 96 13 7 166 122 162 41 239 233 244 229 9 107 165 125 104 132 46 138 12 91 193 73 130 251 9 246 153 199 160 133 174 156 110 192 162 32 77 55 102 251 136 141 233 46 13 148 11 223 54 51 129 145 163 105 21 248 176 248 36 169 60 252 5 0 74 87 39 9 15 1 20 109 89 249 201 49 177 237 8 187 56 229 123 158 253 217 215 64 122 159 19 91 121 246 133 221 174 245 52 155 128 58 184 85
188 36 106 220 180 110 16 193 174 10 230 212 122 84 116 205 187 174 136 238 25 176 57 66 114 181 108 180 6 246 184 90 127 170 183 210 73 105 174 126 250 145 232 43 223 44 59 164 107 93 46 45 135 42 216 72 187 174 158 101 74 95 165 201 231 111 129 218 241 174 249 65 55 72 88 67 195 163 10 188 92 60 138 165 26 177 92 226 12 222 20 185 82 19 226 245 232 133 124 16 1 16 62 56 255 39 6 166 97 225 244 150 179 125 38 205 236 30 212 172 82 34 123 202 197 210 14 191 16 82 155 35 222 90 177 251 1 196 120 221 207 41 201 75 60 106 75 186 19 6 203 191 11 23 110 96 42 115 245 119 93 145 122 108 185 11 140 54 242 147 29 251 76 215 202 112 135 198 165 95 58 78 212 115 84 52 87 71 46 64 50 252 4 163 231 170 251 89 229 169 236 172 101 206 145 123 76 212 208 165 133 229 229 138 217 102 170 204 181 182 52 139 193 216 16 175 114 61 9 66 85 36 132 182 6 15 38 237 160 141 52 140 74 52 16 93 241 96 97 198 75 171 24 87 31 197 210 19 233 27 147 195 106 119 5 219 240 15 90 80 132 186 237 110 37 240 161 178 230 42 22 148 189 51 165 254 177 147 163 64 19 25 133 74 144 177 39 17 134 129
129 167 10 183 45 232 243 248 158 160 74 42 19 199 70 108 102 157 141 220 96 219 162 154 150 53 84 226 132 28 201 214 26 181 78 7 97 99 96 90 95 44 227 22 120 75 180 186 16 116 23 87 38 198 205 6 234 136 158 135 1 145 2 183 204 211 246 112 206 149 174 87 141 193 194 69 43 203 250 216 79 205 244 229 171 185 92 237 214 29 143 234 138 172 186 212 169 166 186 230 159 255 158 184 210 3 81 199 140 2 69 170 86 201 242 200 106 240 36 226 225 207 3 79 76 211 88 182 17 70 173 143 39 250 42 206 252 20 221 159 17 242 59 138 202 132 189 163 24 194 254 180 72 96 240 75 119 243 223 169 164 195 120 178 63 114 217 20 255 10 177 182 73 69 82 126 107 122 56 75 70 26 7 231 161 124 115 235 187 16 46 15 82 99 148 82 3 255 181 189 52 55 142 246 204 47 142 220 77 160 67 50 140 61 54 113 211 33 153 155 16 75 44 233 86 17 191 198 39 168 11 3 10 96 91 140 9 197 86 239 251 58 18 160 14 96 218 244 68 96 173 99 83 107 193 16 139 143 74 46 98 15 38 179 99 76 122 131 164 135 172 75 186 215 231 219 74 117 154 167 81 146 104 13 196 242 155 205 58 240 56 151 119 57 210 166 101 34 174 216
29 165 105 16 36 103 255 33 193 198 253 15 180 175 105 167 55 217 74 212 216 177 92 49 11 182 8 161 242 5 149 18 19 117 185 184 103 29 216 186 4 41 89 65 34 251 195 5 172 109 185 19 127 179 57 31 144 226 130 233 215 17 152 16 215 44 160 77 124 69 124 84 247 142 62 142 55 246 240 94 82 125 51 225 74 62 144 116 165 218 171 55 158 5 139 250 133 220 196 195 218 143 224 100 197 31 0 251 50 60 73 65 131 184 129 38 32 214 156 77 137 27 195 9 216 107 12 123 184 147 230 41 62 15 42 99 53 93 236 93 219 238 80 229 241 166 181 138 242 72 242 151 52 128 23 30 102 185 115 154 187 151 68 129 205 13 83 178 231 197 169 197 235 128 71 34 223 18 28 139 246 17 66 54 8 237 49 172 115 206 51 198 47 198 216 239 183 199 105 228 131 207 207 224 21 211 91 151 57 231 204 175 99 176 241 248 126 181 243 212 28 245 37 30 8 169 219 171 222 28 229 118 66 2 12 138 239 201 116 188 37 190 57 72 111 44 202 240 150 67 55 147 202 56 15 40 34 107 136 108 89 144 121 182 124 176 91 90 219 216 216 45 116 68 174 227 250 132 157 46 141 253 175 13 201 175 237 80 43 232 117 194 5 82 156 246 205 86 63 148
99 110 203 101 195 153 176 254 221 239 8 51 159 184 232 246 209 104 246 69 175 74 41 109 106 235 34 190 203 137 121 103 56 226 1 126 103 217 191 66 33 147 127 146 89 218 87 162 149 187 77 209 216 143 209 28 8 253 198 224 165 186 202 208 215 150 90 59 7 209 167 248 95 129 250 130 137 116 5 67 205 241 185 137 172 47 130 100 90 46 236 157 14 111 34 76 151 14 74 224 199 254 16 41 231 255 35 250 166 94 123 141 248 59 56 166 172 98 145 113 131 102 140 161 40 135 191 176 171 181 236 213 158 201 56 0 177 28 101 66 42 242 72 203 230 141 48 70 156 111 42 67 228 28 5 56 202 67 195 188 63 55 243 106 183 126 74 22 158 19 197 22 110 221 84 244 99 141 200 172 5 139 43 175 41 47 104 155 155 62 28 207 89 81 235 235 46 144 87 8 84 213 214 39 33 25 215 71 158 180 218 219 58 151 198 52 16 134 160 188 156 159 81 60 136 204 10 216 148 89 127 184 130 44 144 24 23 135 12 255 223 218 0 187 163 57 133 56 87 248 182 29 235 22 217 124 187 82 115 17 3 102 86 242 90 25 32 162 190 90 19 58 129 90 191 132 168 197 87 202 146 7 131 148 44 171 32 190 66 68 75 249 130 170 32 110 114 197 38 192
96 255 251 166 85 178 214 17 102 187 62 33 114 144 150 202 131 164 35 173 46 136 127 34 149 169 47 26 63 119 0 151 4 90 64 230 169 52 49 251 220 130 157 157 68 205 168 27 147 124 13 119 153 218 52 48 9 54 226 237 100 118 232 41 12 13 38 39 11 22 26 65 102 197 191 97 77 242 213 117 106 240 169 155 108 205 129 175 135 31 168 221 188 244 228 15 80 87 15 4 179 70 192 143 104 52 105 88 120 39 218 128 220 234 76 189 210 112 207 126 54 185 95 218 76 83 180 247 94 143 195 38 228 134 32 180 94 27 126 181 204 8 101 62 13 154 181 135 81 97 38 142 30 153 135 78 187 243 169 101 193 49 227 255 50 28 211 133 111 157 56 36 175 57 167 17 221 0 62 70 143 111 165 160 6 27 178 35 22 104 17 114 138 78 2 140 5 188 69 121 251 168 6 149 68 102 11 118 180 73 217 122 131 8 7 177 113 34 107 244 170 196 16 196 39 185 227 8 44 55 80 215 176 59 102 246 19 148 7 128 11 20 214 30 220 144 255 40 69 248 52 126 46 57 228 209 96 210 161 64 117 160 164 112 44 180 6 133 223 234 111 17 231 42 201 138 220 73 94 11 24 14 55 52 73 62 117 237 199 69 196 213 64 147 144 239 214 110 41 153
179 55 187 159 155 91 196 136 133 216 97 14 218 192 75 207 62 235 52 194 234 159 183 52 96 194 27 173 211 220 100 96 153 197 242 94 168 104 191 58 189 115 102 224 248 216 11 101 16 4 141 212 214 221 136 37 123 18 68 10 181 39 70 219 235 130 233 39 231 16 66 79 236 12 213 233 79 102 131 155 54 179 1 111 228 1 231 149 128 244 57 8 121 39 120 26 146 188 47 140 137 119 224 131 178 237 47 49 64 202 231 148 88 177 59 242 136 205 51 95 134 68 237 150 39 98 81 142 93 73 101 105 164 132 202 96 69 105 233 62 206 25 159 6 55 217 51 184 239 79 167 192 148 237 230 6 235 164 245 90 84 252 7 102 154 9 6 211 121 143 58 72 152 55 213 90 16 235 83 40 38 38 234 143 72 217 187 84 199 244 63 57 127 190 255 78 244 104 154 188 82 200 153 74 209 161 209 174 206 246 29 120 78 252 202 83 101 131 63 180 93 185 142 139 101 56 98 68 125 41 78 219 136 126 155 119 18 242 63 177 41 133 228 16 196 89 7 108 5 234 19 155 32 118 23 84 171 98 147 65 227 44 65 64 163 16 143 160 5 28 110 81 16 231 1 37 240 171 235 93 138 212 64 74 130 228 149 191 248 47 105 0 252 248 125 180 161 24 79 172
29 20 74 59 134 168 124 62 148 185 234 255 0 249 31 175 52 160 156 28 80 128 80 40 43 226 22 117 122 214 62 204 181 83 67 217 249 107 102 184 209 73 115 55 219 66 240 239 144 159 192 55 186 57 94 3 213 75 28 159 187 105 172 55 251 13 219 239 58 191 103 177 226 109 170 141 181 229 120 70 1 74 202 35 98 7 176 236 128 123 227 56 254 33 175 221 123 36 75 178 38 23 59 5 58 188 137 20 207 240 188 5 114 219 199 218 121 128 4 54 151 199 23 156 102 220 44 53 132 122 60 24 108 111 219 100 250 188 121 233 234 196 237 235 191 4 89 212 242 159 209 39 168 162 173 114 112 222 62 64 97 16 61 139 32 176 9 135 176 9 234 67 205 225 241 213 56 98 82 5 143 67 41 21 147 246 194 219 98 234 93 166 236 107 67 194 219 212 147 255 114 255 221 87 47 97 37 90 155 16 63 140 154 172 127 77 52 190 90 132 222 16 210 136 252 50 58 51 185 33 208 18 107 139 8 222 185 24 57 65 19 152 21 55 114 13 55 255 130 81 80 167 68 37 95 238 70 112 231 45 73 50 68 220 249 234 16 31 13 104 106 36 147 69 63 255 132 129 110 45 52 149 113 189 90 11 84 114 95 247 130 32 0 252 213 219 238 195 229 93
16 215 206 82 52 26 86 250 151 17 71 204 117 29 22 61 104 211 116 119 13 170 155 135 185 184 240 36 14 136 35 209 153 142 109 137 37 235 162 38 255 29 241 139 251 39 187 201 128 184 253 47 130 242 231 129 126 184 180 157 107 236 37 27 34 43 146 54 151 174 240 5 185 180 18 175 185 99 181 16 155 39 101 162 160 251 4 76 186 104 114 175 217 24 223 10 91 158 161 174 12 4 205 15 134 190 207 116 141 229 243 189 219 224 100 121 62 219 42 187 24 161 87 182 88 109 241 2 102 237 64 75 233 116 186 0 78 19 255 97 154 212 204 117 247 45 133 127 68 140 185 161 15 44 86 245 17 96 140 177 0 68 225 174 94 58 217 147 253 23 90 90 247 90 224 94 113 238 54 128 132 69 47 63 7 33 196 11 145 245 203 222 122 254 214 29 19 163 243 79 188 194 177 211 13 244 24 198 27 45 234 61 146 221 80 138 70 135 177 15 19 174 155 39 82 235 158 218 156 235 252 9 214 188 138 20 39 124 69 202 111 249 216 226 238 209 238 145 245 136 195 101 208 218 31 215 252 179 97 9 74 150 148 131 87 196 115 13 243 122 14 110 170 163 246 177 7 69 38 168 131 43 213 3 191 225 205 247 84 238 194 255 0 73 192 17 42 23 151 183
214 153 251 226 146 78 33 162 17 186 18 243 73 218 113 42 224 194 61 181 245 35 125 87 107 242 10 136 105 161 218 35 135 86 4 198 15 146 174 164 224 213 178 226 107 153 81 123 229 95 166 82 88 237 5 112 34 131 183 238 46 36 237 230 153 95 41 191 36 24 183 161 201 157 114 164 199 214 111 102 52 96 237 136 244 247 235 39 35 35 57 140 240 231 45 221 2 59 115 240 162 127 83 223 174 25 69 138 209 31 14 211 157 132 37 208 39 75 236 14 221 102 228 12 14 164 71 226 187 17 189 9 91 227 186 40 63 128 240 98 102 57 83 26 13 252 134 156 81 93 112 250 9 145 3 141 124 164 186 113 160 222 193 128 158 71 12 223 44 141 225 36 200 80 34 61 198 82 53 207 159 90 15 2 153 84 76 149 146 148 255 138 17 196 83 108 44 15 218 21 188 193 79 191 188 118 180 121 90 219 199 247 227 6 238 214 181 63 57 188 121 194 222 125 66 190 161 226 245 103 85 39 84 178 19 30 115 45 110 77 27 59 165 173 94 6 241 88 1 175 247 190 169 106 94 157 94 134 159 30 6 116 175 152 75 226 221 151 154 243 80 237 70 253 132 232 108 97 217 198 85 13 95 82 63 105 47 152 114 228 209 10 213 18 51 136 103 137 252 91
33 73 72 16 104 85 50 13 94 155 158 0 81 225 114 79 227 111 48 228 71 101 56 21 248 231 197 28 174 118 23 169 54 148 155 60 139 149 33 209 238 12 245 31 80 97 171 27 43 110 95 38 212 220 21 71 35 107 1 51 14 117 189 137 162 46 65 233 49 157 137 56 47 198 161 101 214 57 41 106 153 179 50 18 24 39 225 245 39 247 188 191 180 240 255 217 226 115 52 17 131 218 29 149 217 107 97 152 209 239 177 142 215 179 20 92 90 82 111 221 116 158 46 49 249 97 32 43 120 154 48 125 92 13 35 123 160 115 75 55 136 2 4 62 182 104 20 81 108 236 164 80 191 117 92 15 17 170 202 208 118 18 226 76 151 137 25 158 146 67 187 219 31 182 183 209 129 82 75 244 178 180 212 181 235 19 52 134 183 122 156 48 138 30 218 200 119 231 49 75 34 189 224 101 103 141 114 191 97 7 221 65 89 150 234 55 176 219 247 93 115 187 160 192 246 146 47 116 145 187 79 95 175 28 123 176 87 142 36 56 195 119 244 162 207 187 78 68 222 84 163 32 21 74 41 128 230 113 192 233 233 32 163 34 198 119 196 70 240 196 38 183 122 52 2 39 13 87 210 66 114 189 237 145 116 219 37 1 242 52 113 42 252 162 16 184 63 5 253 123
172 147 173 199 25 76 65 73 79 127 143 254 213 151 239 64 146 97 54 110 89 223 96 174 152 113 64 87 238 221 209 146 9 2 147 28 152 167 200 37 72 229 165 5 171 225 77 228 214 8 217 160 169 9 144 213 90 132 44 13 147 154 240 178 125 253 222 54 214 102 65 107 99 15 237 183 192 108 72 93 180 27 196 175 116 186 160 195 226 101 78 133 47 3 142 224 199 131 213 163 249 255 159 39 13 80 119 18 97 83 235 121 157 197 11 96 215 55 222 237 6 222 117 12 251 7 54 168 194 203 126 51 235 178 137 110 122 229 118 182 3 234 163 115 242 252 253 83 219 127 85 156 185 80 92 194 25 163 38 159 106 89 236 54 75 173 179 62 68 240 34 99 184 178 219 70 144 55 180 64 120 129 86 214 28 170 200 199 18 180 146 178 224 215 83 41 119 224 151 131 95 181 160 249 101 3 90 227 250 128 82 247 43 223 167 188 113 237 32 64 130 32 215 27 240 91 239 112 155 88 46 188 152 225 240 84 152 116 124 174 101 42 126 9 183 133 76 110 4 67 9 44 134 74 7 249 75 74 199 84 18 184 247 4 180 244 242 253 115 75 108 134 170 135 219 168 123 126 57 163 56 209 214 252 188 182 95 14 172 195 83 81 42 213 146 120 81 149 133 44
215 77 149 160 74 144 92 2 246 202 74 166 199 216 91 137 83 171 62 254 245 87 196 212 115 219 202 77 33 173 34 109 105 85 35 75 72 120 11 118 41 239 198 178 210 51 154 227 51 98 205 253 154 162 244 165 226 193 85 242 236 43 249 234 219 90 17 20 212 80 144 177 108 235 158 241 159 144 181 182 211 93 107 85 154 207 223 171 107 34 172 51 150 249 17 212 70 229 19 116 123 198 185 200 47 91 229 148 54 47 205 240 79 116 145 94 190 65 151 61 1 67 133 177 168 34 203 228 142 121 8 138 133 224 153 21 234 68 32 77 173 228 6 49 75 90 78 10 186 234 98 97 124 248 98 49 188 189 42 7 163 29 122 185 39 10 156 249 156 119 69 111 225 212 171 153 203 154 75 154 194 29 36 220 100 70 43 54 157 124 49 206 217 202 37 151 207 36 81 159 2 178 98 66 54 197 52 15 239 114 44 45 198 49 111 5 56 93 53 184 40 245 52 239 206 25 169 26 63 223 242 206 188 150 87 45 68 201 98 215 146 123 101 22 240 49 221 7 243 145 160 68 125 170 26 35 116 240 216 169 58 92 172 26 161 242 135 11 193 200 75 14 109 186 209 250 181 226 108 137 240 187 148 226 53 77 13 215 210 79 70 167 49 27 77 210 206 48 167 139
61 198 106 217 195 214 128 121 180 134 99 171 143 22 216 212 73 217 38 56 23 30 228 75 113 163 82 207 143 237 97 196 99 117 67 130 242 171 190 57 149 200 44 19 38 9 220 227 215 164 93 135 174 10 200 165 90 98 251 150 90 64 138 178 93 174 190 139 63 185 144 194 4 192 95 203 53 0 8 141 153 95 150 79 183 42 127 27 152 189 245 132 171 249 142 98 237 181 175 210 23 215 97 200 180 48 59 206 186 14 150 237 230 235 92 163 195 206 103 251 94 67 240 69 44 139 111 38 241 134 205 154 75 156 151 127 81 192 65 203 98 42 93 96 191 20 112 255 231 67 132 238 144 89 247 120 59 151 191 181 196 109 42 150 4 67 167 19 10 53 216 32 122 249 45 206 81 120 254 58 223 238 191 81 123 162 214 165 244 142 113 121 246 30 234 57 206 136 105 155 218 117 39 35 136 225 6 24 101 69 184 113 191 182 237 214 190 61 180 174 205 162 188 212 32 92 116 129 254 231 57 42 124 223 175 48 46 18 108 174 154 39 88 126 53 64 218 79 162 8 207 176 41 148 72 105 243 118 183 147 154 126 106 121 232 164 44 97 18 44 38 86 192 144 112 39 115 50 39 166 248 10 186 73 231 127 173 236 167 120 144 159 64 111 220 67 210 141 216 52
104 5 180 88 204 171 198 35 185 160 62 80 158 107 67 250 168 50 249 211 155 108 172 97 184 183 236 18 118 71 222 172 242 25 189 52 113 24 91 47 18 158 171 114 18 64 229 137 43 68 216 32 109 238 169 94 57 243 227 209 93 63 176 116 87 163 205 250 132 147 162 60 83 39 65 108 31 43 126 23 233 5 204 141 104 40 176 209 156 40 33 139 35 251 226 129 99 75 138 75 76 108 235 213 250 50 206 22 170 184 212 249 173 116 139 226 153 233 125 140 133 27 14 91 76 158 203 63 20 233 96 75 142 190 137 138 100 151 105 101 131 230 164 214 60 141 167 145 74 183 240 10 124 209 71 229 28 46 230 243 87 245 197 89 10 212 175 30 209 96 116 91 201 29 59 134 206 159 217 198 11 176 130 142 120 164 126 70 146 182 158 197 158 65 93 192 114 184 166 107 230 177 219 156 87 101 212 158 210 252 210 141 207 112 240 38 254 229 195 169 119 112 235 139 116 9 193 141 152 231 19 112 43 77 157 254 93 168 134 249 233 9 253 60 76 143 210 216 210 250 53 40 78 174 173 100 171 155 121 53 208 104 167 212 103 83 123 255 104 95 231 119 110 246 81 76 250 223 172 219 119 217 170 23 129 139 176 243 90 31 180 148 18 82 111 90 178 220 71 220
47 199 125 82 64 120 58 225 86 215 101 239 190 223 156 159 225 200 197 166 177 155 143 129 204 180 202 103 170 210 155 26 176 175 195 107 202 13 228 22 12 195 87 50 191 139 222 115 34 106 153 135 78 104 224 141 175 83 163 235 45 72 176 244 93 215 81 246 73 134 25 9 199 125 52 6 147 31 235 35 230 18 244 93 130 91 227 28 160 107 178 144 241 68 141 231 88 23 33 113 187 254 82 141 255 119 196 225 58 221 75 100 36 38 222 148 195 78 129 243 167 238 217 36 185 212 154 172 109 116 58 185 113 228 117 121 136 173 140 32 40 220 134 98 190 48 148 117 120 146 9 156 191 43 28 200 34 177 81 83 252 159 142 66 84 127 26 219 74 63 137 165 84 215 169 192 245 14 150 82 17 158 112 169 128 192 121 188 28 120 107 78 189 105 60 212 37 80 207 187 104 112 125 7 231 196 64 100 226 254 157 68 95 140 156 43 175 67 185 143 189 27 205 41 59 144 112 218 1 142 76 131 255 120 221 0 212 30 85 11 233 65 17 47 251 208 211 139 141 93 100 100 154 16 133 157 139 118 224 158 248 160 194 6 69 23 60 249 0 252 32 45 243 229 128 68 188 63 128 64 210 151 33 31 69 225 43 189 120 207 159 126 230 58 82 173 231 51 10 207
239 216 199 182 199 238 131 154 237 216 34 91 155 103 226 216 18 136 35 186 92 97 39 108 190 13 252 85 193 12 112 4 108 95 15 226 50 181 182 49 76 242 146 27 78 134 6 18 181 40 16 118 118 132 141 17 194 41 203 134 34 60 215 180 223 178 159 122 228 223 103 223 164 60 95 112 7 165 254 255 217 101 160 165 63 128 113 10 56 165 21 183 227 54 64 191 16 36 57 102 123 104 137 54 134 155 33 169 65 38 106 5 60 206 98 172 104 236 83 119 64 197 78 239 206 40 108 120 158 163 134 87 2 54 33 129 169 60 64 147 38 197 142 240 56 103 191 68 217 20 238 50 191 37 104 186 62 101 167 172 52 103 94 219 162 17 251 166 96 76 53 248 32 45 30 220 215 140 97 109 106 244 163 142 40 127 224 144 170 60 222 189 225 199 57 164 29 55 128 226 193 115 245 20 5 219 153 91 183 211 82 90 67 13 232 148 221 87 227 99 58 64 247 43 46 216 188 138 10 181 228 141 245 62 55 129 75 57 183 188 184 236 178 237 99 150 39 170 222 177 202 241 194 178 95 38 173 236 19 54 125 224 77 248 233 85 77 61 92 32 193 32 84 196 53 76 96 191 134 106 4 53 40 134 153 190 167 70 216 85 18 8 114 188 221 141 221 198 10 113
237 13 91 86 201 97 228 248 166 92 20 205 6 190 102 241 103 164 249 33 74 253 153 136 155 103 194 253 48 179 183 203 109 154 226 98 225 201 179 193 162 8 147 149 56 62 80 25 58 186 15 225 189 121 65 242 201 73 75 69 150 13 245 100 24 49 185 92 141 181 92 61 23 41 133 59 247 192 44 98 156 166 109 109 49 13 42 160 15 16 166 156 184 2 104 115 131 49 26 124 28 209 7 239 42 176 244 164 153 28 174 17 125 211 108 123 181 7 105 196 202 97 179 46 190 230 66 110 31 67 110 190 179 105 254 251 103 104 240 215 101 57 140 212 129 197 180 105 90 5 4 245 224 219 136 122 251 134 250 210 199 209 158 107 143 11 182 42 96 223 162 5 65 131 152 220 132 150 199 124 248 55 28 151 83 25 194 158 38 84 174 33 247 109 239 229 42 105 227 183 45 199 3 95 159 182 154 61 15 111 101 148 58 38 97 63 187 186 153 137 163 91 40 237 125 220 97 131 153 43 85 123 207 197 67 188 76 54 25 178 214 231 242 6 227 17 39 101 206 225 137 130 163 136 226 55 235 247 66 188 76 112 236 193 104 28 184 121 233 96 151 226 125 223 247 122 80 79 52 204 141 54 196 67 191 61 108 127 181 247 146 192 8 75 78 165 125 45 124 0
105 21 204 41 162 114 153 218 166 66 238 174 182 110 8 31 101 254 63 147 52 226 8 40 111 32 254 220 48 150 217 240 42 170 205 248 228 109 221 193 133 203 118 58 154 119 46 210 184 45 37 91 221 205 160 227 63 176 69 168 133 18 212 110 45 132 225 139 16 9 75 73 186 111 222 82 7 72 138 186 87 71 25 212 145 206 172 120 77 30 33 176 191 150 230 184 233 252 112 88 168 91 155 96 105 140 151 91 140 93 145 100 123 11 178 72 13 10 168 215 208 187 89 177 38 119 94 206 217 225 77 25 214 212 100 96 150 186 209 155 232 0 112 196 138 28 197 125 5 162 118 121 123 207 217 67 229 166 50 164 89 191 225 118 58 34 48 241 47 199 107 220 45 134 129 252 64 69 114 16 175 94 97 203 254 77 220 131 255 129 250 149 246 62 87 225 32 0 193 175 30 122 20 58 9 40 248 115 197 56 62 162 232 142 90 184 239 141 207 229 119 242 217 115 241 185 216 32 198 108 17 66 252 240 191 225 79 234 38 207 72 79 82 89 124 111 201 125 215 108 202 214 146 158 150 238 161 136 52 153 211 0 89 75 62 185 98 147 49 169 215 23 229 119 197 43 216 23 210 24 82 174 211 194 41 183 175 214 203 12 93 81 106 75 92 139 131 220 70 254
221 246 189 215 99 27 130 18 68 234 76 38 40 74 153 56 123 0 3 170 199 213 231 92 191 187 34 107 134 235 249 151 229 189 80 40 90 29 121 214 138 166 198 124 143 128 33 183 198 50 211 52 164 240 160 57 5 130 29 247 100 205 124 235 210 9 87 98 248 224 185 231 188 26 229 245 35 240 174 142 0 99 156 170 87 255 236 136 252 152 105 31 132 246 59 44 187 252 209 199 61 157 247 160 249 20 34 134 52 52 152 243 1 81 177 158 228 26 170 252 43 254 195 189 6 91 35 134 223 119 95 117 206 67 204 69 128 61 122 171 84 214 18 212 130 90 135 156 83 140 250 112 204 21 251 87 150 180 139 73 201 48 96 219 38 63 29 236 14 187 48 78 19 9 120 103 5 140 45 188 102 73 210 203 252 127 0 95 51 103 31 205 236 182 108 171 144 121 177 93 79 138 142 73 204 165 171 218 228 24 243 208 199 201 1 123 137 39 126 149 124 231 180 159 113 113 200 230 206 92 91 114 78 121 204 250 125 150 40 63 236 198 47 65 15 220 167 131 154 75 184 209 26 169 128 234 168 4 110 4 170 195 65 43 143 112 131 41 165 54 88 209 246 12 59 27 242 8 165 99 82 240 153 201 200 53 248 142 79 15 187 221 210 183 53 82 31 81 83 122
221 43 254 98 233 177 194 36 104 169 72 109 60 138 4 134 139 136 176 159 1 42 136 62 31 5 167 67 234 162 226 237 150 144 192 186 100 221 105 54 248 59 206 95 92 83 203 166 73 16 124 142 122 189 141 133 163 143 119 202 32 164 30 113 207 86 240 101 100 57 72 40 66 6 85 191 207 57 71 136 121 212 14 17 33 191 67 225 45 170 179 97 164 56 250 40 52 176 253 134 243 196 71 254 190 8 89 23 31 56 138 187 138 112 64 120 232 88 249 107 63 176 27 69 140 157 132 163 113 56 59 29 194 120 246 29 224 17 249 173 15 89 150 109 180 31 170 251 103 134 73 95 130 143 89 22 224 92 48 80 81 148 4 200 50 215 234 65 89 5 131 166 61 90 155 207 218 186 161 131 162 237 99 223 144 131 105 56 71 119 102 149 236 137 10 205 29 79 179 14 187 216 45 254 229 174 41 139 157 198 36 204 239 203 18 206 195 211 20 234 252 59 245 175 81 252 182 147 247 10 85 131 242 205 27 16 116 62 19 141 138 102 78 237 123 43 220 102 150 248 220 252 121 95 9 113 147 150 226 187 6 34 86 91 61 102 244 212 17 27 6 180 163 203 98 228 171 38 230 33 31 30 132 8 85 225 159 145 250 42 44 30 20 22 209 129 62 88 178 61
230 249 163 51 195 253 166 173 139 144 69 159 89 118 26 34 248 225 156 251 201 199 157 171 242 108 108 59 7 245 175 94 206 73 33 35 27 237 147 199 206 202 68 232 217 213 214 108 247 242 25 7 3 44 134 151 207 242 65 105 180 228 199 139 221 0 51 157 218 23 125 66 28 223 184 156 70 148 137 20 56 250 171 171 11 187 157 250 104 113 98 226 91 155 50 105 211 110 97 247 16 145 108 131 35 54 251 3 175 233 194 118 122 33 198 242 143 127 230 122 46 216 3 22 193 239 4 185 175 81 235 230 58 181 127 22 235 42 85 103 107 3 84 107 67 180 79 119 220 35 249 12 30 161 176 129 63 72 14 182 249 139 128 23 70 238 229 167 19 63 9 27 144 178 103 110 177 237 48 72 192 160 110 152 55 142 216 28 250 192 199 44 144 177 177 142 37 205 147 232 251 156 114 215 111 6 224 185 135 127 73 28 195 54 225 237 160 246 95 181 230 39 27 216 13 153 214 135 221 45 230 60 240 95 162 42 141 15 50 112 176 222 89 34 173 252 45 120 219 209 204 126 144 13 228 98 72 102 140 48 96 208 172 109 204 55 166 171 237 96 136 84 127 217 102 52 202 49 35 56 112 247 104 53 89 6 204 167 66 91 35 111 9 132 16 236 156 232 143 83
224 46 239 148 41 102 246 162 204 51 66 43 147 216 80 116 116 7 148 51 151 58 252 36 214 195 94 56 177 80 108 72 160 121 126 135 19 153 27 239 96 71 238 90 53 203 121 189 31 114 243 120 45 50 133 220 199 117 240 113 1 11 85 254 122 159 65 123 33 51 167 58 188 202 113 242 245 1 50 172 154 72 219 181 13 53 155 70 75 112 217 153 100 27 145 243 206 159 230 29 51 190 237 42 84 138 222 101 168 169 239 82 164 99 12 77 212 36 66 91 108 205 12 228 183 28 170 134 42 187 73 100 65 72 15 223 8 221 100 205 189 165 217 127 5 248 241 199 201 80 52 69 207 125 36 246 189 207 169 247 56 211 11 5 121 220 230 216 162 174 111 98 221 7 166 59 198 225 134 246 145 25 74 166 21 219 23 78 109 104 239 37 100 168 59 29 93 55 253 236 154 129 211 95 59 10 247 39 189 254 193 228 214 13 205 193 225 16 86 106 210 186 172 208 10 127 126 243 163 153 97 189 99 13 243 64 85 55 226 240 25 181 162 216 110 64 71 35 180 184 225 177 170 26 26 43 94 54 148 217 209 65 76 220 217 124 182 127 216 239 249 222 78 64 238 177 196 145 158 72 40 167 221 42 62 24 174 208 1 37 58 39 26 120 181 54 51 132 224 235
21 229 202 114 121 26 229 250 179 175 200 88 219 136 234 156 216 73 254 150 11 117 250 51 20 244 159 188 12 95 233 150 249 80 43 91 72 75 167 201 104 197 170 67 68 88 150 191 173 233 37 74 151 99 69 29 36 187 212 188 162 80 226 100 97 224 165 29 94 245 88 82 218 145 231 79 136 253 217 252 181 98 200 68 119 76 252 15 13 10 203 125 121 190 193 13 146 4 120 210 125 128 208 224 235 211 23 172 162 219 89 46 107 20 124 253 139 103 40 39 148 202 203 16 169 19 154 35 147 4 194 114 92 130 39 138 31 43 78 184 236 248 34 161 47 66 213 213 145 128 53 138 65 210 149 147 94 145 37 194 93 137 104 96 91 220 136 201 109 98 237 240 13 207 1 237 213 189 132 218 186 138 172 62 188 246 229 232 206 80 34 30 36 39 151 34 151 65 172 125 21 207 124 204 44 99 103 128 140 194 86 252 57 79 194 139 253 254 83 240 65 250 128 190 56 199 70 188 95 241 79 1 64 123 193 162 145 229 59 157 35 11 216 178 5 11 213 25 206 74 135 66 179 241 19 233 219 108 64 83 229 134 115 174 158 52 31 48 250 124 101 139 87 60 150 164 115 8 15 127 247 82 89 28 228 117 96 43 47 167 117 243 43 4 170 250 125 6 73 82
116 199 107 236 103 167 137 77 106 195 110 69 25 58 228 168 49 241 208 70 217 221 81 155 49 11 226 135 108 251 141 67 196 154 121 112 150 120 236 74 230 131 38 199 235 207 42 2 183 7 36 41 147 249 24 208 112 33 121 111 186 111 229 116 210 181 61 64 172 77 131 195 70 29 0 208 165 193 71 203 145 30 20 242 159 90 38 112 214 137 76 90 33 112 238 206 109 51 90 162 236 219 18 139 193 118 174 52 77 176 53 251 103 82 161 229 7 0 226 85 214 184 115 51 215 44 249 253 138 76 152 179 151 15 40 225 40 183 125 5 164 86 189 238 70 232 245 155 3 73 123 89 115 49 246 186 20 64 32 47 149 152 78 223 161 207 125 158 12 93 182 183 249 37 119 209 249 183 133 186 42 13 134 249 4 123 226 157 167 53 133 231 64 149 38 187 89 78 56 110 72 140 55 198 58 1 70 139 172 70 147 113 167 63 24 127 62 189 170 24 9 89 186 80 196 186 28 193 239 29 255 188 213 192 16 141 50 142 27 56 25 73 217 241 199 84 121 232 218 255 170 232 6 199 158 246 38 217 94 39 46 133 9 59 118 166 195 250 225 242 74 130 97 12 24 171 170 252 86 123 40 185 168 167 199 102 203 252 7 58 27 192 173 83 253 104 152 211 234 88
