P3
100 100
255
76 222 2 62 92 98 195 186 109 119 77 58 64 203 144 51 16 122 113 132 75 148 72 113 245 200 221 10 151 170 197 46 232 145 47 151 219 53 119 183 168 233 129 252 50 147 251 18 83 189 240 74 173 106 116 148 143 64 214 140 191 48 16 202 160 172 61 38 54 93 152 25 37 93 212 139 22 41 188 27 94 181 151 43 249 240 89 227 239 43 233 185 35 189 229 243 105 2 233 122 140 55 123 161 135 149 101 24 191 134 84 116 135 174 155 125 253 57 129 250 203 241 43 157 63 15 199 38 80 35 37 216 234 170 28 66 109 10 158 215 89 166 100 110 220 226 183 250 111 250 216 169 3 25 136 123 4 237 81 52 237 139 246 192 132 243 231 129 231 55 167 147 24 98 96 6 159 61 43 56 73 93 155 116 111 161 122 100 176 111 194 69 27 13 15 250 195 204 34 96 108 241 5 110 192 87 96 16 23 46 221 39 167 237 170 112 255 43 237 24 29 9 244 103 167 22 119 185 118 233 153 149 68 163 100 211 2 176 21 61 238 203 197 50 2 42 199 15 215 231 25 241 1 5 19 13 213 59 215 34 60 6 228 90 4 253 200 59 38 185 153 115 156 217 155 48 108 139 236 6 220 137 120 29 129 199 31 233 222 93 222 166 217 51 4 151 156 233 192 158
80 198 159 121 165 79 75 28 98 61 165 27 253 122 238 56 247 13 126 191 243 235 143 226 101 146 113 123 142 145 99 14 229 189 25 81 210 241 240 203 126 171 249 141 116 189 165 14 212 30 74 48 109 104 206 203 233 210 174 60 236 84 151 112 127 107 10 127 23 87 35 138 108 137 108 161 59 80 7 76 247 20 128 44 90 120 24 186 139 255 128 92 218 244 182 141 85 105 47 187 106 195 166 230 73 186 28 6 202 49 99 32 37 9 72 95 12 145 15 176 104 94 108 200 76 11 207 144 142 229 28 141 134 166 220 191 172 128 245 47 116 80 52 126 250 190 211 58 209 254 43 237 115 222 135 34 226 6 117 162 76 192 139 83 86 132 146 199 188 9 180 76 92 170 91 252 80 185 163 103 92 190 184 253 96 100 86 91 241 251 11 68 125 29 34 106 242 217 52 148 115 19 164 238 233 125 18 210 189 246 191 189 8 92 242 102 100 138 138 238 161 147 125 112 116 20 97 144 205 254 191 177 17 129 254 240 52 213 128 161 126 10 43 60 92 57 28 168 96 219 222 211 151 149 208 69 71 66 134 80 155 236 25 200 1 71 55 5 214 47 178 87 23 64 134 139 56 66 114 67 98 45 52 0 183 58 200 28 198 157 45 224 13 183 53 161 139 113 28 22
106 80 168 138 173 216 31 41 43 197 61 35 91 15 224 151 186 134 105 168 104 203 176 131 138 110 88 200 8 26 141 81 19 116 67 247 185 170 37 72 217 96 92 191 3 76 62 102 45 13 193 124 69 68 230 40 253 154 94 70 176 14 191 231 254 191 200 114 89 174 160 164 250 243 187 161 229 17 52 246 134 193 142 182 195 166 57 228 228 145 23 72 61 177 160 52 18 32 39 65 165 173 88 19 47 25 60 246 227 197 54 211 97 166 41 124 0 10 39 98 8 230 186 130 203 3 101 53 123 99 22 26 22 235 193 200 122 214 162 11 204 161 239 11 6 62 118 131 185 119 12 173 204 208 32 210 51 44 107 251 181 45 84 158 206 237 123 159 49 139 0 5 130 227 227 95 132 253 184 71 220 250 6 120 196 230 233 50 228 252 32 243 111 98 17 223 33 55 239 245 109 160 108 56 40 88 119 51 112 240 246 211 229 231 0 197 169 138 254 43 98 43 205 217 169 26 224 203 191 72 10 238 61 105 92 63 31 132 163 166 68 1 151 129 146 3 251 89 144 84 133 94 233 116 254 110 21 181 100 43 232 22 202 121 92 141 24 175 159 8 120 146 191 224 52 61 203 200 126 194 86 84 228 121 184 161 34 14 42 165 210 183 35 207 212 11 67 61 63 243
137 144 62 49 229 166 135 207 180 126 151 13 9 78 128 244 149 156 137 178 92 141 82 210 38 26 30 201 32 82 96 229 170 223 151 113 24 12 212 24 100 161 59 216 203 148 81 200 191 245 115 129 169 200 228 142 149 134 12 135 73 186 188 183 248 212 155 210 238 62 124 168 243 71 126 161 0 188 99 189 35 176 166 64 227 79 29 57 122 164 31 109 23 109 107 151 223 169 190 215 110 64 66 222 82 228 15 72 181 48 20 206 9 158 83 88 170 104 215 67 58 5 222 44 159 252 184 201 254 199 97 111 192 192 141 186 229 6 241 39 28 198 165 206 41 176 56 65 21 73 47 5 76 41 243 82 219 181 161 114 139 212 163 159 61 77 111 172 124 102 74 52 115 106 254 9 66 118 54 230 1 69 14 100 138 139 149 2 107 27 83 34 231 138 62 160 182 137 206 183 146 13 201 224 53 70 50 37 148 240 102 6 105 76 96 242 244 102 18 196 202 93 117 53 204 161 23 122 160 43 97 129 93 32 78 210 204 92 211 122 40 7 239 106 78 96 149 47 102 149 194 175 185 54 70 196 48 102 74 111 49 155 141 44 249 182 176 68 189 86 63 232 146 187 180 5 1 226 10 131 165 136 181 30 135 83 125 41 126 236 26 162 148 100 90 123 248 236 117 97
189 247 50 192 151 177 25 232 83 200 13 212 159 85 67 164 213 156 133 243 212 201 230 214 234 20 205 66 115 170 219 111 0 82 95 219 60 126 124 240 196 190 94 251 36 44 216 236 173 215 19 192 142 123 101 152 138 222 187 55 81 238 19 81 242 151 212 226 124 129 201 38 136 220 225 138 114 18 230 8 244 69 247 217 202 250 240 66 12 186 21 252 2 102 185 1 212 93 149 73 47 3 110 100 136 248 160 7 254 70 48 226 41 170 213 137 134 251 253 107 54 18 160 196 24 206 241 92 164 57 126 84 164 135 16 91 143 9 32 142 145 206 217 215 120 112 160 224 8 252 176 205 77 136 109 225 195 150 192 171 198 157 20 1 25 130 164 146 192 134 33 76 173 10 196 28 96 145 153 243 4 32 90 102 35 45 19 240 71 91 13 69 145 35 94 13 91 31 42 174 169 162 137 222 82 225 81 55 128 43 82 151 70 129 143 104 10 156 86 28 210 117 72 83 79 254 45 127 168 213 166 144 113 246 53 75 145 218 11 164 202 246 161 233 80 164 91 91 115 216 53 181 146 89 8 215 178 64 37 144 113 246 139 21 15 143 40 25 11 62 115 102 127 106 190 190 201 93 50 229 204 94 206 46 94 80 18 178 153 85 166 12 95 142 103 68 110 154 217 64
57 226 139 238 168 229 249 151 215 176 185 173 119 208 149 188 64 153 113 21 192 107 95 198 246 184 174 33 24 214 144 237 173 234 82 7 44 232 39 3 5 118 14 192 239 197 26 97 243 175 127 74 111 157 231 232 167 106 85 119 66 232 27 254 12 29 208 249 33 70 121 198 251 65 146 127 186 12 171 56 222 202 184 84 140 192 180 238 155 83 129 77 79 29 12 75 157 155 240 187 115 168 75 177 22 182 143 36 52 236 226 212 64 75 173 158 164 110 193 168 59 235 133 235 234 182 112 64 122 124 114 26 92 173 174 168 27 217 64 47 36 107 72 174 242 168 57 75 141 237 34 244 91 97 202 243 53 6 39 99 149 252 88 136 52 34 133 225 6 97 37 50 189 68 140 192 9 238 57 234 36 227 194 37 121 133 54 55 24 187 16 215 200 191 203 58 102 240 70 124 53 156 200 194 251 236 40 92 175 78 44 89 24 156 47 171 233 3 76 68 188 217 66 206 59 251 31 61 105 199 1 10 244 97 224 133 241 118 243 85 59 107 135 214 63 72 252 91 73 103 208 123 109 207 247 33 15 19 226 30 125 24 144 84 173 32 187 144 7 93 112 142 116 154 106 4 57 197 97 92 87 151 125 102 125 53 12 79 222 92 18 165 77 26 164 166 235 226 147 29
95 111 155 191 5 45 232 132 140 20 46 59 205 63 208 126 223 137 35 88 15 235 162 242 134 169 250 186 160 224 48 239 129 177 73 189 188 194 128 94 206 158 73 164 209 24 108 17 84 1 247 52 134 82 212 36 17 55 56 204 166 197 186 152 234 39 35 95 6 122 212 82 28 96 15 137 8 184 182 153 184 232 126 15 145 84 231 214 229 96 163 34 127 78 248 95 3 249 125 249 85 248 170 9 44 41 148 72 172 238 144 121 97 221 164 95 248 215 89 94 173 124 200 107 165 146 52 150 60 200 177 174 176 207 161 195 56 255 72 195 29 9 237 173 255 45 62 13 233 242 228 158 25 85 182 181 170 87 75 48 106 4 80 152 94 89 100 15 75 87 75 228 101 201 90 102 52 139 95 154 105 77 152 192 155 123 142 124 50 233 219 61 236 168 97 118 219 160 57 132 53 126 144 252 186 43 224 113 15 123 216 183 66 2 150 9 200 119 187 129 243 208 127 85 185 126 50 243 98 158 100 71 98 243 39 211 140 205 106 58 209 208 186 187 26 122 131 38 133 205 150 67 168 193 96 140 181 129 121 174 43 193 218 143 68 20 63 120 12 131 223 73 84 171 48 172 104 121 113 121 108 131 55 218 164 205 11 8 105 7 222 227 208 149 172 253 235 2 43 182
181 207 250 137 103 251 18 225 232 247 210 217 224 129 5 36 160 202 67 181 110 78 143 174 169 229 18 238 142 144 64 213 21 137 188 128 248 21 159 53 42 217 234 219 205 197 149 62 184 130 124 139 26 243 71 27 133 65 148 33 227 42 221 40 42 234 179 228 254 175 144 27 58 155 215 239 231 161 43 110 119 185 8 53 175 232 117 246 253 204 80 129 243 8 116 52 93 11 143 9 82 148 247 47 153 131 83 173 87 188 214 200 5 11 185 215 199 182 102 245 37 58 28 216 90 211 67 153 152 169 203 34 101 218 105 83 139 185 9 129 70 154 165 26 61 17 208 5 96 180 152 146 52 251 59 15 199 181 168 124 8 163 80 96 219 89 110 145 164 239 14 87 226 76 97 252 191 50 169 110 79 21 162 50 124 205 61 129 133 159 251 113 135 197 65 239 98 128 120 208 180 63 69 150 135 179 222 26 129 194 86 57 99 98 165 12 54 58 213 55 62 151 159 82 118 72 211 55 192 46 236 146 132 142 77 85 67 183 30 245 205 128 241 210 59 100 52 83 45 246 203 160 213 156 193 193 71 215 23 37 204 238 49 88 250 36 135 224 197 19 139 63 75 92 237 232 215 40 95 254 17 13 132 149 88 237 185 127 44 148 28 87 137 96 234 71 18 238 207 56
218 247 50 77 56 30 134 128 196 143 199 190 102 226 0 179 170 238 88 110 249 236 111 176 192 155 94 136 220 180 153 19 123 102 4 162 86 180 78 36 231 11 205 181 24 247 135 98 208 167 104 171 76 226 193 255 46 59 164 62 235 224 117 24 198 75 246 176 130 176 66 202 140 125 179 25 147 104 204 133 198 89 99 116 142 185 181 53 44 182 196 115 25 22 12 71 78 222 62 196 95 165 224 168 203 56 159 147 134 161 8 65 171 253 50 66 231 122 43 40 63 104 171 76 122 217 162 187 33 147 165 251 19 168 179 44 168 215 101 3 64 22 159 20 224 53 43 132 142 123 67 205 188 95 210 86 29 33 196 115 132 246 191 110 1 88 30 28 17 8 253 100 6 102 25 31 160 147 155 74 78 105 86 17 96 251 239 225 168 217 76 134 86 181 16 181 46 247 103 170 37 85 251 175 160 230 235 56 22 84 180 67 233 150 56 236 33 12 52 183 123 34 197 22 154 1 237 156 8 7 50 36 249 185 251 100 76 42 32 84 171 103 197 135 113 68 242 56 104 230 77 77 40 176 178 29 169 78 121 232 209 224 121 25 54 181 176 53 136 150 40 76 67 181 193 57 222 244 103 191 20 232 197 52 179 250 138 108 185 32 30 109 189 113 115 127 233 253 29 194
207 73 82 194 64 81 217 40 42 7 227 203 53 24 101 163 169 125 83 197 29 94 60 72 204 85 32 79 170 255 102 224 74 186 219 170 17 9 10 87 255 11 113 201 202 125 174 198 150 164 167 205 25 23 26 208 204 112 110 173 4 187 111 42 119 248 234 242 223 40 146 21 16 233 165 2 165 97 247 21 52 74 204 195 236 150 140 92 10 69 36 88 16 218 144 208 210 190 247 160 15 78 234 26 220 112 191 145 197 5 21 191 0 255 139 91 47 161 249 42 43 68 30 29 122 169 32 6 16 58 76 158 171 51 175 141 127 124 65 125 59 7 42 120 186 3 228 99 238 45 194 227 214 32 247 171 185 95 165 219 128 82 105 112 210 237 57 45 185 227 148 50 26 46 33 71 136 133 22 37 199 89 119 215 66 49 123 207 113 223 80 70 126 109 108 66 1 73 227 244 119 208 21 90 156 25 57 144 192 9 1 232 45 45 156 51 91 142 220 100 84 223 93 145 141 75 218 170 46 238 175 138 129 65 134 169 27 107 29 156 110 109 115 238 139 26 253 49 161 234 69 62 217 179 5 90 0 106 173 51 18 250 197 77 125 158 177 13 126 56 227 220 249 116 239 122 12 177 47 157 63 86 41 23 101 121 91 60 140 59 121 161 189 164 167 55 205 198 137 151
9 238 10 219 165 244 54 196 23 69 152 33 61 69 188 29 209 37 164 112 9 44 77 16 137 129 39 41 81 85 184 125 4 5 35 75 94 133 47 33 184 116 192 161 255 169 218 39 134 112 13 83 122 20 43 110 48 134 185 25 176 133 43 84 118 202 164 221 91 74 12 152 240 188 184 227 84 111 238 57 21 84 220 51 37 14 9 228 50 62 203 47 83 53 152 74 6 56 106 71 150 55 159 31 242 127 253 99 68 19 172 2 155 162 135 250 21 161 18 17 54 129 97 85 226 115 0 24 70 165 200 132 49 15 26 255 167 49 94 111 59 41 71 136 196 47 199 29 231 229 129 198 180 133 249 198 25 108 205 217 55 226 124 147 22 99 127 202 7 147 179 226 208 119 89 6 136 85 54 28 59 245 44 33 1 250 143 102 110 224 114 253 240 48 48 51 126 162 192 229 176 120 69 1 239 112 62 244 196 55 150 18 2 141 55 88 208 47 105 106 250 160 21 63 174 169 205 31 0 98 172 8 143 98 255 133 129 160 101 24 110 78 28 23 146 183 13 17 152 126 5 89 8 3 225 43 113 117 236 162 156 209 203 8 69 155 240 101 98 160 115 219 92 162 77 202 78 134 7 22 33 16 177 74 142 211 66 136 81 164 231 44 39 130 31 159 219 251 34 194
211 8 192 251 82 87 135 199 103 71 170 49 183 131 3 113 204 100 220 218 99 173 89 128 113 159 127 138 215 178 49 133 84 98 24 32 36 107 23 8 66 210 24 224 109 179 19 58 105 56 196 246 40 225 127 10 217 209 210 61 39 239 140 208 123 2 182 251 253 91 173 166 229 194 59 170 29 2 117 86 193 134 45 225 245 241 188 78 96 248 41 25 44 35 183 29 207 209 57 236 96 207 89 211 29 155 156 131 119 104 86 13 204 0 216 15 77 59 158 85 166 254 55 252 169 52 208 129 165 224 5 89 237 231 12 26 3 213 9 39 141 140 154 201 104 57 150 225 29 12 69 255 124 66 229 155 164 113 107 66 175 23 182 52 216 109 170 88 225 116 0 62 63 131 58 181 132 42 47 8 170 153 100 246 104 54 42 7 140 175 12 233 134 170 5 27 48 0 91 136 85 81 146 180 190 46 154 28 35 118 114 59 119 126 165 124 97 105 255 59 108 4 103 248 237 86 55 30 114 39 25 99 140 65 13 103 78 175 132 25 46 226 140 187 69 102 192 85 146 32 80 200 242 231 239 222 200 230 11 33 24 193 35 23 243 211 199 25 145 198 154 143 59 105 47 124 197 33 215 40 112 103 116 116 40 216 12 19 166 25 47 195 16 174 15 140 238 203 32 106
193 176 223 95 210 175 19 166 101 248 19 24 235 174 135 15 184 91 196 72 41 131 251 177 254 247 187 205 254 251 2 103 172 54 138 226 94 38 204 104 227 110 56 237 106 211 238 235 245 64 200 33 80 121 226 13 52 197 73 181 52 32 224 27 235 200 57 152 52 210 99 102 96 98 145 93 103 176 21 23 255 7 160 60 123 17 69 44 53 223 64 221 158 67 25 23 13 47 78 3 228 229 174 246 153 62 183 55 239 166 5 69 161 29 180 224 146 68 12 50 101 223 156 139 129 180 254 226 204 21 213 30 133 14 198 189 210 192 104 235 65 182 35 214 31 61 181 112 94 113 101 163 247 118 197 13 244 251 211 23 188 129 22 7 129 218 142 174 90 22 143 84 202 237 99 234 220 212 74 108 76 29 217 62 100 52 48 81 150 111 89 4 60 31 181 38 142 32 235 22 177 68 213 219 161 160 42 130 108 242 166 36 170 92 199 203 189 212 181 35 213 142 24 199 240 123 199 97 32 131 74 252 123 53 239 233 26 152 6 25 6 197 132 187 243 9 61 135 25 85 174 141 218 251 16 223 129 168 126 231 161 80 40 117 5 207 146 243 45 235 50 209 177 195 94 239 218 129 44 131 24 179 254 104 115 188 221 15 188 82 242 108 23 183 251 65 171 108 88 102
211 6 245 33 232 226 8 228 108 36 25 241 38 164 232 240 18 192 211 188 39 179 157 29 7 26 158 142 67 140 49 182 46 147 168 255 111 227 42 156 213 7 190 85 148 229 216 226 131 99 99 189 222 97 18 231 174 129 119 223 249 171 184 144 184 101 25 17 36 244 133 228 120 248 37 124 91 95 242 163 142 134 128 85 55 145 15 239 186 61 221 131 14 97 40 42 118 34 40 171 152 124 157 86 192 218 127 240 194 163 122 41 178 205 91 73 211 115 15 223 35 103 182 116 252 132 169 31 137 70 90 131 190 25 144 85 32 94 119 68 210 35 98 196 238 163 242 26 166 254 119 34 70 140 100 21 196 78 244 236 59 206 86 120 83 3 44 170 202 77 76 62 193 58 106 86 60 96 15 158 11 196 150 244 78 34 151 78 187 117 37 102 23 174 4 153 194 12 172 231 67 61 40 212 105 67 229 31 27 12 41 228 201 100 144 44 250 116 54 114 110 60 165 194 113 148 184 185 182 232 243 70 35 201 209 40 230 12 120 180 83 24 0 156 93 183 75 102 37 215 20 213 14 114 45 146 107 35 254 119 87 255 134 171 161 97 142 179 55 225 98 186 78 122 58 91 223 210 82 31 106 124 27 123 194 249 168 172 244 70 62 118 161 178 40 107 246 150 246 216
154 208 198 218 142 54 199 43 251 154 241 46 145 213 41 106 84 178 205 127 59 167 210 220 247 110 1 73 139 67 19 198 16 76 167 113 246 205 211 208 44 184 134 133 52 3 128 203 218 161 169 109 55 60 58 2 52 199 160 72 97 97 129 16 172 102 129 112 20 124 103 49 107 192 71 179 187 200 208 168 120 143 102 194 5 109 160 41 135 216 247 11 42 172 25 95 10 222 207 175 52 222 190 252 175 162 243 76 73 167 78 100 76 201 247 23 45 200 84 178 57 230 113 11 5 112 248 187 186 64 32 178 28 174 144 133 37 247 108 230 228 250 109 144 141 33 159 13 150 76 37 63 4 137 15 135 63 184 188 107 181 8 190 71 172 33 24 228 102 247 6 250 186 34 133 190 45 71 206 139 48 21 87 230 47 232 78 7 234 17 166 107 242 10 27 53 69 32 229 49 94 96 0 149 129 98 116 15 75 233 5 217 55 193 180 86 206 136 88 80 218 152 140 35 5 86 94 31 205 246 191 200 24 40 161 242 33 47 185 198 111 155 3 54 55 244 216 185 251 131 157 49 61 83 76 251 80 93 174 97 233 9 249 27 93 190 172 32 198 35 163 253 85 61 218 111 82 166 14 34 135 94 103 99 27 86 14 72 102 57 170 18 67 133 252 133 182 177 178 222
214 129 176 4 182 115 72 91 199 181 47 73 64 220 203 125 61 226 213 83 198 103 226 184 233 4 197 152 78 187 200 6 241 63 179 17 108 157 152 75 124 57 142 25 77 142 92 84 9 109 233 57 30 73 76 72 51 164 235 61 30 35 84 90 19 23 68 134 157 200 216 146 232 127 186 233 165 97 161 79 239 204 36 11 199 60 250 74 191 95 184 255 32 47 204 104 124 161 241 157 184 158 70 227 143 0 106 166 194 230 18 41 201 244 84 253 255 208 43 227 116 231 188 213 211 181 165 179 207 221 189 53 48 211 122 152 131 243 84 128 48 94 10 207 107 135 181 199 96 49 44 252 120 188 123 74 232 1 55 79 206 228 20 121 31 248 241 32 117 42 38 5 218 204 179 3 247 243 252 198 56 174 188 1 149 110 192 103 251 248 97 200 54 94 52 238 70 31 138 17 190 102 36 99 45 168 197 99 120 229 220 250 33 208 188 142 232 89 78 220 169 138 151 61 196 123 117 131 150 49 21 68 66 119 112 118 35 137 162 128 126 96 145 224 67 76 122 52 9 117 226 84 73 168 6 76 185 166 181 166 162 137 200 205 199 154 174 98 158 34 252 248 92 157 171 52 215 183 187 90 198 161 86 200 96 16 37 156 28 200 113 16 35 0 184 156 220 201 101 157
112 120 229 2 3 136 200 133 167 5 74 42 89 244 24 103 40 223 0 95 166 45 202 8 155 219 171 59 227 57 152 176 67 241 121 103 115 73 113 241 37 12 253 185 45 235 146 247 66 46 210 44 55 57 124 25 135 67 103 96 0 233 167 182 212 94 240 31 37 99 203 233 31 163 37 234 145 72 231 162 142 83 182 93 91 103 203 80 190 144 156 120 105 220 135 126 61 59 81 183 172 28 159 25 76 13 125 205 182 40 73 143 34 63 89 249 186 106 217 238 202 95 104 152 18 204 7 200 162 25 25 61 244 19 207 144 137 27 95 183 78 37 3 71 73 225 180 188 2 200 149 229 101 82 29 137 87 105 183 78 202 241 237 20 192 235 73 110 70 19 98 182 84 223 86 72 25 220 49 4 196 59 192 49 129 38 6 204 37 118 153 92 32 102 217 41 9 35 238 168 6 204 35 242 11 211 227 149 86 185 127 26 47 148 58 160 62 243 254 92 50 14 142 44 2 211 207 254 89 10 88 87 254 201 197 171 6 3 196 26 238 219 252 134 101 133 140 136 107 21 208 234 228 107 148 191 214 2 157 15 5 197 194 139 12 200 53 221 255 105 29 131 72 211 191 115 140 251 99 127 24 213 32 51 97 29 137 158 121 79 41 23 237 168 247 238 68 72 80 167
241 9 42 209 248 246 51 61 223 97 194 94 184 7 3 92 155 140 123 160 60 64 233 232 236 106 130 99 227 178 106 96 123 26 197 81 47 222 6 16 60 218 52 44 128 204 99 12 220 15 253 16 168 195 190 45 3 117 115 194 220 240 124 78 52 188 187 87 5 230 220 20 230 180 19 9 40 195 251 94 254 70 200 203 40 85 255 172 29 26 179 153 51 31 76 236 223 172 10 115 102 36 116 180 20 67 126 31 163 234 10 99 223 14 133 209 225 177 32 49 48 101 220 242 13 204 53 181 62 37 68 112 109 62 208 106 244 97 123 221 78 110 246 233 114 205 46 161 12 87 42 171 210 49 243 229 31 149 14 212 194 134 146 251 252 62 110 81 215 208 14 63 191 79 242 35 15 130 144 33 12 56 16 12 167 113 248 232 85 11 126 46 245 240 176 254 9 202 118 148 64 68 62 92 69 122 58 105 182 173 127 191 225 195 198 12 99 174 89 6 42 34 102 129 43 212 13 182 46 216 56 54 56 97 104 112 100 131 16 18 12 131 0 153 122 234 162 15 141 205 184 87 130 93 138 235 235 99 185 14 213 251 67 230 115 143 167 182 7 221 166 159 204 33 72 160 192 149 239 4 178 196 55 216 35 178 20 134 246 57 187 107 172 26 112 174 63 230 59 166
112 73 92 219 58 194 9 233 251 241 46 215 189 32 84 60 88 208 159 241 129 53 22 60 69 237 76 94 87 127 15 53 204 135 138 237 191 135 201 131 247 219 111 129 79 182 159 65 211 189 230 253 19 93 18 103 62 238 146 110 191 152 105 253 42 71 208 211 189 31 146 8 90 127 42 171 169 105 23 42 85 12 209 67 242 253 39 81 165 39 180 161 173 135 107 214 211 226 4 117 92 65 148 50 164 26 82 25 84 134 180 103 197 234 217 137 157 157 200 36 77 209 67 233 15 90 16 191 0 235 171 122 94 192 13 78 110 136 87 132 218 233 171 108 164 159 43 79 223 116 218 165 18 190 178 255 64 219 33 89 12 35 140 14 178 232 166 198 89 253 125 66 218 199 123 114 110 33 32 66 218 41 128 90 216 132 124 178 99 244 254 253 86 22 117 218 32 125 29 246 56 204 57 54 0 166 181 100 57 104 198 180 163 31 73 81 80 21 165 214 157 148 177 247 209 59 37 34 48 97 224 196 211 182 85 99 65 97 24 66 188 250 99 188 240 233 174 87 47 58 55 53 244 77 62 144 9 6 97 207 61 78 90 163 92 24 22 194 161 250 16 24 8 159 225 38 156 121 164 147 229 245 244 111 246 95 28 206 204 42 125 6 212 48 47 28 171 65 156 191
56 191 255 34 51 199 153 90 50 208 65 100 114 145 99 237 49 134 166 145 48 43 206 143 244 201 82 231 206 117 3 151 3 181 46 60 168 212 13 96 58 236 167 230 184 74 203 3 69 250 16 104 210 24 28 126 218 170 28 117 7 117 13 149 75 170 223 255 99 122 25 37 117 66 2 91 136 192 66 141 78 32 58 181 15 149 181 70 101 237 198 144 65 150 114 57 13 197 199 178 225 250 171 228 118 171 78 33 140 4 62 40 135 232 114 120 133 161 4 5 194 159 183 240 181 23 10 188 144 243 35 176 40 236 130 79 82 155 183 32 99 224 5 73 89 245 193 106 51 225 122 236 76 102 167 97 195 178 39 233 209 6 142 97 243 185 163 150 156 81 31 213 233 150 173 243 185 170 44 200 54 168 163 218 44 253 225 13 143 7 185 126 205 106 113 249 49 145 5 9 209 198 251 187 233 29 41 191 3 253 253 245 245 152 120 72 7 119 64 118 121 39 138 186 82 68 120 142 21 242 98 19 177 239 68 46 192 180 141 36 234 240 82 187 179 23 34 255 80 86 213 164 196 252 120 171 205 163 118 114 68 238 189 40 42 190 109 223 255 203 88 175 4 27 205 139 148 109 223 207 224 93 96 66 113 147 113 128 106 201 140 97 218 56 220 100 16 193 31 183
39 236 64 122 25 64 243 6 73 50 106 75 5 13 1 206 166 217 65 50 251 13 6 7 174 226 19 24 41 83 234 217 163 142 9 41 107 35 86 58 101 7 133 20 184 136 111 184 4 87 152 104 223 251 224 156 170 1 104 40 159 96 230 97 180 101 10 103 178 44 25 64 51 22 2 194 146 86 116 125 207 81 213 178 168 203 158 205 59 180 84 17 32 51 63 190 123 46 37 246 168 24 190 39 211 241 1 179 2 11 72 81 222 100 44 194 117 145 131 26 225 86 183 197 198 146 251 190 214 197 155 180 194 52 86 119 242 178 234 80 180 117 36 120 79 212 234 108 154 231 26 175 114 3 185 79 199 0 236 81 171 139 17 100 133 211 95 248 190 216 189 121 113 249 110 247 10 82 177 100 215 162 31 156 174 51 71 248 21 209 58 100 58 199 250 151 25 8 240 25 194 217 48 225 189 242 146 32 236 212 40 15 169 221 161 50 29 53 110 178 65 78 31 44 214 239 243 219 236 240 219 243 159 136 27 8 25 120 254 42 170 154 77 87 171 124 138 99 53 91 136 235 148 229 81 231 92 111 80 129 82 168 53 165 212 60 203 194 173 32 176 127 164 170 238 10 122 120 238 109 67 148 29 150 152 18 248 224 38 198 220 177 90 155 218 205 215 242 20 7
182 32 183 138 148 205 85 16 224 110 2 38 213 165 97 175 34 197 89 156 164 170 197 65 20 194 201 116 152 159 195 146 56 223 47 21 225 226 174 46 104 242 225 206 217 125 73 167 206 143 40 30 138 118 207 225 97 250 131 223 222 103 66 246 185 66 227 98 96 60 238 163 150 88 115 26 146 187 232 163 202 97 222 201 249 61 138 158 11 149 146 165 70 158 66 200 183 240 106 144 108 99 174 204 40 30 188 61 185 175 163 205 213 221 241 225 179 72 109 97 254 207 222 133 100 139 243 193 131 213 62 194 71 246 4 49 144 110 103 135 99 41 224 78 225 125 155 201 226 66 176 251 90 86 230 158 71 85 227 67 81 110 200 157 169 206 167 11 143 31 184 178 190 243 230 145 22 224 128 226 47 187 226 242 127 236 140 111 71 80 227 35 225 35 29 10 166 72 47 172 66 73 144 77 34 79 115 127 243 54 209 255 97 232 226 143 195 46 223 47 46 99 155 139 133 28 160 196 248 156 63 2 140 226 86 209 27 244 149 83 105 61 7 122 63 66 156 142 164 35 177 161 175 252 191 20 228 230 182 83 82 147 2 18 16 4 25 140 253 103 102 81 253 248 6 147 185 153 76 214 187 203 101 226 223 171 118 151 180 249 247 41 48 28 195 31 14 146 23 250
13 186 53 203 218 71 119 212 243 114 114 197 92 212 41 146 55 34 254 159 146 50 202 15 47 35 110 73 202 166 213 91 121 158 56 230 103 145 254 229 117 171 133 20 123 115 68 174 216 55 238 138 116 37 232 41 79 161 174 90 211 211 54 237 65 234 70 119 149 124 114 196 233 30 111 175 176 195 150 95 219 202 17 92 204 196 132 254 177 208 76 221 23 24 11 214 42 165 200 115 22 61 94 131 145 247 205 9 180 227 169 109 131 167 156 119 218 146 179 70 252 125 111 227 109 230 166 151 144 182 34 87 55 204 102 156 129 46 245 46 132 171 236 110 94 155 210 101 178 238 129 210 21 148 220 249 178 199 183 23 118 96 135 24 172 91 101 248 198 48 139 153 185 121 195 63 220 144 237 23 97 150 0 121 75 61 244 170 117 158 246 237 167 44 84 178 42 116 225 235 60 19 253 225 206 80 86 218 64 35 173 237 241 61 147 56 2 27 130 217 49 216 173 74 140 3 44 179 243 144 11 78 26 160 127 219 12 45 89 4 7 109 96 70 123 190 249 190 115 65 248 217 44 151 72 35 223 9 70 103 72 34 189 12 234 195 92 226 75 50 26 48 199 15 97 103 139 33 97 69 226 88 78 123 205 79 252 239 65 161 171 16 154 194 182 96 198 209 253 17
67 110 212 13 253 173 202 226 94 205 109 93 173 241 177 78 44 125 33 202 110 63 162 89 49 0 216 165 246 144 153 241 47 5 212 58 6 10 233 237 162 150 68 177 243 139 136 214 128 91 212 78 210 160 52 98 254 106 19 196 133 48 217 119 36 216 149 9 184 74 98 110 13 248 162 152 152 136 18 185 98 81 72 130 45 15 80 105 163 158 102 63 16 194 161 230 164 176 20 244 32 144 165 198 219 1 98 240 250 105 7 61 227 7 194 64 110 148 13 250 166 72 151 234 101 225 62 152 1 241 113 13 145 103 189 152 111 236 218 176 39 0 239 231 101 8 91 102 123 85 195 78 163 136 193 119 190 119 109 117 103 73 53 253 98 181 252 126 106 96 127 4 156 172 138 182 243 171 52 207 180 89 2 48 66 21 46 135 220 142 16 230 72 1 158 48 14 96 122 212 119 106 162 200 253 13 234 82 71 42 58 255 235 163 54 236 213 181 174 117 45 18 203 114 194 185 165 31 227 106 74 49 141 240 61 145 14 112 237 89 201 150 244 149 151 78 31 191 115 198 241 55 252 22 64 210 98 194 195 182 122 161 167 201 97 201 58 158 0 102 66 115 110 173 100 108 174 84 124 124 63 240 40 92 206 83 7 221 170 181 145 82 170 148 174 99 130 13 143 212
35 131 16 3 158 69 25 88 97 90 53 67 28 15 78 99 10 41 226 154 122 227 229 122 90 142 240 182 12 245 139 255 87 4 194 61 254 74 112 57 144 242 101 44 54 188 194 185 77 59 63 196 64 162 45 120 54 230 126 42 28 29 99 215 8 242 142 129 241 92 188 60 41 112 94 233 17 10 61 63 65 145 8 121 37 194 85 137 48 184 232 14 94 125 81 77 169 159 104 251 67 165 175 167 39 142 174 90 112 145 27 204 94 25 103 5 125 28 241 104 155 95 29 244 160 5 175 193 42 48 180 254 236 209 11 155 63 79 135 22 175 148 44 133 125 66 19 38 190 56 77 43 188 227 162 193 118 168 137 88 30 82 36 249 65 3 161 14 152 83 199 179 41 30 4 127 185 138 185 38 84 235 108 52 231 151 50 165 62 178 150 116 91 41 206 107 91 205 107 232 2 246 171 130 52 54 81 239 76 37 204 111 136 62 23 102 126 15 206 248 99 210 201 247 167 92 76 48 203 64 66 147 159 233 251 84 45 181 19 118 218 33 27 145 101 219 51 219 255 79 30 144 12 2 102 75 30 172 46 96 94 221 177 116 244 97 73 49 229 183 96 116 169 154 78 67 221 184 65 182 21 207 157 184 43 11 53 174 242 146 94 67 216 171 138 14 252 39 123 53
87 16 204 210 229 125 151 25 7 143 205 206 149 93 230 96 238 144 24 191 168 69 176 235 158 77 235 119 181 210 165 28 104 187 160 216 218 214 244 144 186 237 159 176 79 196 48 203 7 17 155 217 30 4 102 46 74 200 239 220 106 186 241 166 72 190 153 219 211 198 157 193 199 133 165 227 177 26 192 209 169 155 48 196 200 239 142 184 145 29 237 11 106 55 71 114 46 251 198 60 137 132 164 217 253 184 226 177 190 172 222 81 108 43 28 26 228 139 182 17 198 199 35 197 61 142 12 45 110 144 26 150 2 194 106 250 206 171 35 245 69 129 84 230 62 156 241 198 117 223 69 123 51 18 84 213 224 167 134 167 119 238 94 254 14 140 254 220 68 200 3 24 232 150 43 92 168 181 117 177 192 122 11 2 42 68 16 237 43 36 90 208 29 248 114 8 32 66 97 161 96 51 241 136 187 222 241 115 208 119 234 142 1 143 98 218 109 84 252 205 28 249 168 113 129 33 82 105 49 201 73 158 44 143 213 213 228 157 134 57 2 81 210 10 124 237 28 226 58 42 103 222 193 23 8 181 249 35 247 139 215 185 119 246 69 68 165 207 145 27 44 177 13 53 236 250 85 187 153 90 80 160 15 206 76 177 86 224 185 127 115 63 115 183 250 83 190 160 60 169
7 133 70 13 126 49 102 159 239 12 64 117 9 159 161 49 9 140 73 84 146 144 70 215 24 163 148 214 162 89 11 220 117 70 98 28 39 205 111 140 137 97 203 221 118 107 221 118 55 227 19 109 83 202 175 99 104 202 221 64 157 97 248 10 1 254 26 71 48 49 59 148 52 159 254 86 132 2 102 77 27 234 142 133 10 23 129 102 127 95 225 8 174 53 189 170 199 76 243 209 33 146 45 175 13 110 156 99 243 139 165 163 47 137 49 189 62 103 113 119 74 159 208 181 43 248 63 249 134 76 52 123 244 93 188 165 243 232 51 76 96 96 18 80 49 210 79 83 47 129 172 109 37 64 216 251 247 231 143 6 94 77 135 7 97 140 27 173 96 56 51 177 157 16 3 177 42 192 117 107 104 153 35 157 186 235 108 88 68 128 188 194 169 131 136 5 166 163 222 134 108 205 244 165 53 102 218 196 30 102 182 199 46 190 84 203 102 35 69 181 40 188 3 16 202 124 231 87 150 105 139 1 120 18 119 193 110 128 176 141 219 205 183 202 236 112 106 164 29 228 81 137 102 190 91 240 240 28 126 210 73 98 106 151 200 12 92 225 42 87 145 73 2 136 77 85 255 174 166 77 12 27 105 80 214 169 18 52 253 239 33 226 68 250 167 109 137 174 90 235
103 226 247 26 146 253 237 45 207 34 214 248 202 97 56 213 154 160 80 91 2 1 146 156 41 54 9 220 44 130 32 182 30 93 15 19 87 71 79 114 255 54 88 252 127 102 103 0 16 179 216 15 34 127 252 39 23 94 154 23 0 158 171 172 98 188 10 253 194 92 193 232 249 15 99 27 211 104 13 4 192 224 201 153 23 107 66 147 75 149 153 91 117 8 150 231 127 177 13 145 51 13 254 247 216 255 66 192 18 62 166 14 184 130 131 152 114 229 144 160 137 77 15 106 39 147 72 39 253 72 158 247 214 88 228 37 233 212 164 128 155 58 100 67 101 31 242 227 232 152 176 213 31 213 179 17 159 62 19 222 11 119 61 42 109 189 184 43 56 204 6 54 172 86 173 88 134 134 21 223 220 18 75 180 77 178 28 42 151 34 211 71 63 206 205 200 78 155 45 146 196 78 122 166 184 95 117 12 230 240 131 189 232 10 195 8 146 78 38 193 168 237 157 83 235 183 130 95 157 142 116 218 65 132 138 2 52 105 217 106 127 121 227 63 25 137 233 221 77 29 150 224 125 167 32 155 122 234 140 198 56 178 13 111 169 167 82 12 248 174 118 46 185 239 102 109 250 49 1 35 245 36 168 148 34 185 22 28 115 41 44 146 96 160 134 69 243 162 248 236
124 132 245 160 24 41 97 212 200 59 152 199 4 102 82 34 57 238 199 190 168 223 83 56 74 115 241 68 196 161 125 64 117 158 206 149 110 135 95 59 15 118 25 243 98 11 0 90 226 225 81 33 174 255 25 199 32 244 98 75 91 15 18 254 70 31 55 248 245 32 12 4 207 64 80 118 192 24 193 245 163 162 26 110 60 87 253 5 116 141 14 216 157 206 55 129 84 144 133 93 98 28 103 142 107 25 131 22 70 31 65 185 214 125 17 0 233 27 89 48 88 91 221 183 23 154 140 225 63 220 208 91 61 19 227 36 2 208 178 244 255 202 216 218 15 217 110 204 156 24 74 177 171 88 111 142 234 105 80 136 129 13 58 114 186 176 54 181 33 168 242 39 206 83 245 121 118 18 44 244 201 243 207 25 62 173 242 38 176 124 167 83 109 136 86 116 119 8 147 139 154 47 45 15 124 21 76 168 98 233 219 239 126 232 14 151 24 105 104 39 243 134 51 245 156 166 67 159 41 81 218 4 186 94 45 200 80 253 222 4 236 91 56 65 114 122 113 127 164 86 142 156 231 33 121 243 53 5 215 166 183 141 10 246 216 98 137 149 117 138 223 198 81 242 40 151 185 192 59 79 202 194 28 110 106 187 235 192 33 219 61 123 116 173 238 246 199 120 161 153
80 89 229 99 126 68 98 206 246 26 164 14 47 218 35 65 128 111 135 244 67 3 106 20 94 19 177 71 199 202 127 157 127 232 140 15 169 35 230 233 63 137 177 12 91 137 215 209 197 118 120 186 136 96 229 49 164 41 238 194 231 82 90 80 251 243 190 0 23 14 125 93 199 150 90 142 249 249 161 230 103 94 102 64 89 218 216 140 226 80 206 231 101 212 21 207 207 92 151 42 195 236 195 227 233 158 198 38 121 208 146 11 191 55 112 40 194 189 70 109 94 197 225 207 68 102 191 148 253 2 79 205 24 212 136 155 9 130 246 133 219 108 78 37 111 194 80 152 119 159 22 129 235 254 235 63 54 244 187 248 120 104 166 13 166 114 228 188 65 224 32 177 132 80 183 223 202 141 16 206 11 109 132 9 229 124 136 8 169 198 185 164 54 8 102 45 193 76 59 30 33 101 251 155 87 63 98 76 177 88 129 86 128 84 32 96 162 9 253 246 208 236 229 133 51 190 49 36 26 102 168 130 166 98 161 193 20 162 32 177 2 84 174 106 247 241 11 36 30 231 112 57 102 45 30 206 47 160 97 240 10 5 32 146 18 142 50 96 3 53 213 152 253 145 33 199 122 102 34 35 154 149 168 91 170 198 143 198 2 169 247 18 76 83 154 69 151 43 149 255
246 111 24 115 229 174 32 133 122 109 100 171 251 219 53 227 11 174 162 38 206 143 129 237 60 116 111 232 4 219 190 224 147 69 130 224 190 148 1 140 24 49 161 67 212 192 74 74 224 45 122 128 94 230 77 226 92 120 78 7 30 8 0 123 10 154 245 189 140 142 36 103 254 215 153 181 245 234 92 198 3 189 63 125 169 71 166 103 80 174 83 53 217 144 242 2 39 13 183 3 215 37 113 61 240 177 19 140 77 219 147 38 89 196 111 212 203 174 53 136 209 195 138 232 143 79 184 209 38 106 255 59 204 126 165 81 106 158 96 97 254 177 198 56 116 71 245 148 139 63 90 10 30 34 46 182 157 19 253 14 99 112 224 23 127 35 123 251 165 84 26 50 36 31 106 149 110 196 13 1 255 228 89 100 205 194 39 165 182 19 14 150 5 143 2 120 19 109 225 53 215 52 104 38 13 93 212 181 4 164 159 132 126 46 73 44 173 162 152 36 238 1 204 161 232 65 156 185 109 171 68 190 254 64 195 178 36 245 80 174 229 165 57 45 139 211 146 170 234 144 240 9 138 18 171 141 255 63 130 123 68 83 144 133 95 84 61 176 162 130 254 18 255 31 9 55 38 68 93 85 180 206 39 6 211 205 225 122 109 194 107 249 208 48 97 107 211 144 106 204
116 178 164 83 246 15 219 195 224 93 80 94 210 2 173 247 106 248 243 172 39 5 222 170 72 168 25 135 6 245 192 134 103 95 28 231 44 123 235 159 36 42 198 63 190 248 0 172 132 179 39 74 253 70 32 157 215 115 93 85 22 13 210 198 134 86 253 42 244 18 208 116 101 254 225 100 221 223 200 21 93 3 165 31 36 58 84 243 255 220 156 47 192 127 51 65 234 94 153 140 200 100 218 207 22 249 20 122 151 20 92 83 120 73 123 65 63 4 171 28 208 77 124 155 114 140 104 58 50 93 87 195 178 202 79 181 167 182 18 218 63 20 34 5 116 239 152 64 218 185 125 144 188 27 194 83 7 80 80 146 163 189 156 255 12 97 121 245 173 4 15 38 57 212 95 5 35 4 99 153 110 199 153 57 8 21 73 135 10 139 239 142 84 170 33 21 224 48 180 165 62 61 248 251 151 244 71 140 180 118 214 110 35 161 8 95 75 44 239 23 97 191 226 55 158 32 48 99 15 139 240 78 78 139 105 120 90 203 150 141 178 144 217 150 238 58 16 73 224 147 149 214 182 178 231 116 193 67 230 113 68 192 250 235 237 31 202 160 89 229 113 199 225 225 101 35 137 179 139 150 65 100 150 221 184 42 97 202 189 77 129 67 241 37 146 23 78 195 4 7
140 204 197 12 187 135 76 242 140 130 95 56 20 219 105 76 219 195 103 234 127 148 59 151 120 50 175 132 222 6 105 97 5 144 6 103 100 133 125 174 25 159 28 125 177 249 92 131 142 200 46 21 47 149 112 54 86 211 112 53 130 177 191 77 105 132 98 183 185 15 193 35 252 111 9 244 85 52 112 108 88 54 195 133 8 67 160 204 146 65 218 178 8 243 139 110 104 113 112 108 217 236 165 169 33 148 48 67 171 240 170 137 33 254 5 184 1 116 8 101 96 248 129 86 196 157 136 175 218 224 97 198 254 219 65 52 137 159 115 75 99 199 109 130 35 7 56 117 11 108 184 185 233 160 247 66 118 11 142 250 6 55 137 96 172 233 201 255 3 158 237 8 150 62 52 96 123 79 42 228 81 233 8 236 182 118 19 182 252 157 155 60 2 194 21 165 177 101 61 110 93 193 144 235 187 15 133 156 168 52 221 128 160 78 151 202 179 6 215 239 111 204 167 233 181 74 213 236 168 106 120 37 236 136 179 218 214 171 27 202 87 17 103 230 132 166 213 191 36 213 193 125 155 26 22 240 20 26 44 26 250 239 184 187 185 155 254 89 27 104 149 231 49 125 219 224 155 243 97 53 204 101 29 76 141 212 249 9 175 11 31 40 225 253 133 47 71 81 34 153
133 99 67 190 113 111 227 57 36 0 81 96 167 123 123 39 177 252 170 44 1 162 84 179 146 121 199 96 98 114 77 2 75 2 149 199 182 38 40 7 7 51 39 151 253 111 56 131 250 33 134 85 217 150 164 149 147 194 216 135 116 5 194 67 175 156 251 130 200 176 148 208 3 207 15 220 195 134 178 50 94 164 173 218 9 76 143 12 166 248 27 225 228 231 40 119 246 244 58 82 63 70 13 43 172 175 181 11 82 133 14 219 174 28 181 132 179 214 96 83 226 63 51 234 214 178 248 11 98 95 250 220 103 106 205 206 50 232 162 202 236 177 99 9 23 250 31 52 242 95 196 183 26 57 198 236 147 87 231 249 146 106 233 135 66 216 18 208 190 252 61 103 28 131 150 28 184 174 177 50 143 8 11 181 154 218 144 93 174 215 141 129 143 191 61 202 193 217 97 16 209 247 91 107 199 136 88 64 2 74 200 76 74 39 44 162 60 243 176 89 84 222 240 191 128 44 121 71 60 133 44 85 186 190 103 235 244 235 58 28 137 48 122 166 68 81 5 227 90 84 73 29 147 10 12 181 179 240 129 170 242 138 123 234 29 187 75 182 47 162 109 112 175 76 182 206 147 86 155 138 85 241 144 252 26 23 134 189 246 103 48 114 253 145 238 102 228 238 22 12
63 171 25 31 236 228 25 91 3 152 111 51 186 7 149 173 142 31 211 216 60 105 215 46 170 68 112 61 64 134 110 44 70 254 121 150 144 35 165 50 104 91 231 215 116 109 183 188 231 243 183 57 46 252 122 14 116 202 16 68 162 221 133 172 44 246 169 64 219 153 154 250 148 250 240 230 24 17 145 255 48 244 239 93 89 38 5 41 53 134 52 149 173 195 45 19 237 139 93 107 44 75 54 15 70 89 137 102 16 207 133 228 162 225 195 15 30 5 196 84 115 24 58 196 133 12 222 50 94 49 83 205 34 22 80 5 175 208 219 252 0 113 119 236 222 107 18 52 157 98 154 252 231 245 61 83 141 234 136 188 138 89 225 162 160 224 55 113 239 200 161 41 136 133 58 148 196 46 223 34 47 168 74 205 199 114 104 249 68 112 173 103 42 92 191 252 14 127 199 234 193 135 82 18 7 177 153 36 217 225 225 192 80 38 84 5 174 248 125 18 228 66 73 215 16 254 22 217 46 193 161 223 97 59 252 92 11 214 90 39 11 100 138 147 1 146 90 215 145 220 158 186 55 159 172 27 205 88 7 153 78 156 105 250 101 235 205 134 195 117 4 86 55 64 136 45 206 0 140 242 42 144 220 36 137 241 105 243 252 173 55 21 232 21 186 247 206 19 194 78
250 82 134 198 138 199 227 133 20 19 171 219 77 182 59 132 222 84 153 89 200 77 167 76 158 231 155 73 186 116 177 132 152 77 104 146 64 44 41 185 248 22 40 39 187 100 107 200 20 140 14 139 45 4 226 8 114 166 59 43 76 241 72 9 10 70 164 171 185 37 235 28 39 145 31 26 155 104 176 42 202 134 24 232 104 0 89 84 159 247 72 144 20 217 136 101 71 39 222 80 62 9 69 236 143 213 196 192 137 231 210 244 131 161 124 173 133 240 82 158 26 44 196 66 235 179 195 239 207 182 221 133 175 161 158 12 250 133 208 39 212 5 225 123 147 29 160 121 253 217 41 176 237 2 112 33 188 117 18 85 49 249 33 159 101 108 143 123 230 98 54 140 92 140 202 26 145 107 240 145 240 84 219 76 172 207 131 217 130 158 148 35 7 35 25 255 7 163 11 247 134 140 111 134 226 31 89 229 95 13 203 96 138 250 226 157 168 155 254 223 252 155 203 88 104 148 230 150 117 66 164 19 193 38 203 51 127 213 64 94 127 45 112 194 18 162 45 68 107 146 119 244 96 51 208 110 212 100 12 129 224 36 103 234 98 89 231 50 72 173 248 71 219 195 3 241 18 141 185 250 128 43 3 166 42 31 158 17 253 239 122 48 101 103 71 76 47 17 142 175
168 247 68 34 104 137 62 103 152 112 255 58 25 225 15 216 65 32 144 70 250 226 140 54 159 78 115 210 38 43 87 110 58 6 128 120 174 253 177 141 74 83 18 54 137 53 98 224 244 242 222 17 203 228 128 74 23 195 182 20 169 240 156 184 24 202 169 191 230 17 16 79 28 182 95 8 83 95 253 191 34 68 95 134 201 180 72 122 26 168 223 55 37 36 107 157 231 65 193 75 97 106 134 23 58 139 223 38 241 86 0 27 113 25 167 79 65 30 27 133 244 176 118 50 96 216 125 52 209 153 94 161 231 189 17 68 38 31 204 255 18 42 246 219 109 224 141 242 88 102 30 137 189 249 227 136 229 193 54 172 34 238 159 58 235 110 174 39 159 230 46 210 158 211 180 225 85 253 243 178 127 64 156 211 134 30 137 254 168 105 164 217 36 233 251 81 18 63 101 12 189 228 8 233 230 205 153 44 3 21 52 173 230 160 223 195 148 88 19 158 190 65 105 67 149 135 172 136 252 145 74 12 60 94 31 112 176 2 164 58 133 22 50 121 47 67 117 188 91 115 58 207 104 198 173 102 214 108 101 81 40 174 187 4 131 25 211 16 134 95 131 46 161 142 19 47 147 218 12 78 196 254 48 7 29 198 204 25 175 118 184 78 92 57 88 218 56 250 96 215
234 132 10 107 196 167 18 41 232 169 250 93 154 51 53 220 194 67 254 16 107 229 125 138 179 211 49 214 102 135 67 230 92 231 41 25 5 232 142 164 106 152 100 188 243 214 44 157 50 220 135 27 206 152 11 178 247 154 27 68 181 19 156 229 107 185 232 124 181 46 168 128 108 241 221 81 128 26 16 1 125 150 72 0 178 229 59 238 248 11 99 61 27 229 222 4 243 181 123 118 237 253 204 122 3 155 14 224 15 126 81 139 192 177 74 49 135 225 29 9 158 95 138 144 109 158 111 118 142 54 132 60 237 67 22 104 117 169 241 64 2 98 244 10 158 182 32 201 3 124 167 188 164 214 63 143 194 131 14 29 105 207 26 169 145 3 174 228 60 139 77 62 5 107 164 161 17 171 23 72 165 254 100 87 195 76 46 204 232 234 72 74 187 34 95 90 95 232 69 24 200 50 189 32 90 143 224 153 238 16 2 22 182 41 13 93 56 187 246 87 136 27 206 104 122 100 55 150 94 58 200 247 211 226 254 202 143 208 168 64 234 107 203 220 19 97 152 199 35 255 55 100 130 121 44 180 202 159 0 76 204 145 190 21 173 194 191 18 99 255 54 117 219 76 132 82 71 212 211 13 3 78 115 238 14 190 141 233 145 85 184 123 246 184 247 1 80 127 142 156
225 100 162 138 134 98 230 17 201 29 133 170 156 211 184 95 188 234 235 152 254 162 163 139 108 44 82 176 238 198 174 244 170 20 9 194 173 136 183 185 199 41 132 206 102 117 181 9 156 26 146 202 168 27 222 119 76 241 29 94 137 109 159 105 40 159 244 81 61 189 155 155 132 243 63 139 249 216 133 49 237 77 83 62 152 90 62 101 6 105 7 57 199 242 9 225 222 21 12 14 110 166 197 82 123 123 64 197 231 32 65 74 96 162 61 213 116 132 163 107 184 83 168 207 175 5 88 119 136 148 145 141 17 204 68 74 6 36 129 103 141 113 166 88 215 204 110 229 184 112 51 117 204 126 134 90 192 247 57 115 88 19 146 134 39 22 45 46 165 150 216 121 45 40 37 133 205 150 73 254 215 40 136 167 76 156 65 104 227 64 8 215 250 84 119 57 121 38 164 136 16 209 6 230 80 92 230 21 121 223 239 106 234 125 199 78 228 161 37 106 86 172 27 156 253 181 162 239 155 110 99 159 63 76 56 85 246 157 238 223 153 221 27 168 119 72 50 134 160 75 50 71 135 141 203 93 48 93 23 143 176 60 168 205 149 181 56 93 133 33 28 177 172 42 159 209 118 45 19 27 4 218 119 150 51 183 33 111 47 104 100 212 75 141 186 122 215 170 250 8
112 69 213 231 67 145 213 81 24 80 216 152 199 56 50 145 230 10 87 112 0 131 187 172 52 25 144 159 234 242 55 85 32 193 45 70 100 252 142 176 136 57 131 14 238 45 90 231 64 204 72 153 27 208 180 150 183 242 2 214 88 237 79 189 141 220 50 173 183 60 84 182 17 146 74 92 95 172 67 100 102 44 213 170 205 191 55 212 94 35 83 174 18 181 108 194 231 122 49 149 242 209 74 152 119 219 31 121 168 222 127 205 66 28 144 116 145 23 193 188 204 140 133 141 65 163 29 190 1 50 7 43 169 48 169 224 176 24 181 193 227 132 147 51 71 26 110 73 116 152 215 189 182 79 27 158 162 159 191 76 165 196 170 4 198 178 167 167 110 221 228 59 19 120 58 0 102 174 168 134 69 236 216 175 235 21 118 44 40 172 183 19 109 238 76 116 164 94 35 96 158 131 4 81 39 210 75 92 182 33 101 214 49 118 152 114 253 5 68 95 201 19 1 51 107 104 140 113 13 222 96 136 183 209 162 130 220 106 237 142 99 197 159 116 168 147 231 209 83 253 238 162 147 46 62 219 107 43 197 169 177 68 206 85 176 152 51 224 201 87 152 36 212 163 54 175 126 26 185 67 2 57 67 158 218 42 112 56 214 33 153 183 218 90 132 191 212 106 108 106
174 194 150 218 131 73 16 94 96 120 234 135 235 239 122 93 177 40 194 214 27 166 123 127 252 88 71 71 128 8 10 234 208 87 202 205 61 252 155 61 148 24 131 240 70 254 191 59 136 16 161 41 24 55 107 162 187 219 60 11 81 126 251 246 199 114 127 73 105 0 164 129 99 153 49 6 194 253 122 235 193 47 5 105 167 79 197 110 225 168 242 26 253 175 156 21 164 175 80 203 65 111 36 99 131 125 73 245 133 204 164 177 124 53 33 126 54 35 73 168 89 225 230 191 254 16 189 215 173 170 131 5 202 16 121 148 47 99 241 235 69 144 200 235 44 218 61 242 115 201 116 200 230 71 165 32 245 88 191 255 60 180 19 247 89 70 33 11 46 207 131 177 248 42 78 48 12 143 162 70 112 214 162 25 162 221 200 142 164 170 111 143 243 58 83 187 183 251 216 29 62 59 204 64 157 151 154 188 241 43 116 138 136 215 162 102 27 68 212 239 12 27 194 164 217 201 144 187 219 0 169 165 13 193 4 103 53 90 92 132 144 215 146 241 23 170 142 176 181 112 112 238 154 33 55 142 9 159 161 175 40 1 79 144 68 109 201 5 254 206 202 57 25 235 72 94 15 223 235 5 69 232 253 97 140 140 33 140 138 216 100 231 105 116 249 76 67 141 56 124
68 60 4 249 43 98 66 78 224 83 148 55 198 27 160 28 198 181 133 166 170 218 11 63 50 80 116 82 121 162 11 175 102 9 49 200 238 170 169 5 102 12 177 56 92 66 218 34 234 240 128 246 219 217 61 9 10 2 66 60 210 116 250 92 160 161 35 73 177 121 179 252 152 136 160 145 183 150 180 131 63 42 190 156 204 194 122 146 209 34 15 107 125 175 126 25 157 183 194 252 242 25 213 170 170 96 250 162 226 84 163 111 112 218 136 199 44 90 192 185 72 139 82 87 92 93 84 214 48 104 199 56 51 197 235 70 1 38 178 83 214 161 67 135 228 132 234 158 59 176 70 193 110 139 142 87 60 68 99 242 152 5 187 0 24 50 10 34 187 248 219 171 35 247 20 199 169 235 108 52 48 115 229 163 155 97 77 82 122 136 145 51 56 8 194 49 130 168 39 243 0 225 64 41 185 29 157 246 248 219 253 247 9 167 63 111 164 75 71 67 157 46 43 39 226 14 174 192 20 138 186 241 141 211 72 73 148 70 212 249 206 232 56 149 209 226 65 75 203 185 88 250 67 20 2 246 191 185 2 161 203 180 161 120 8 222 213 90 91 61 84 42 17 60 246 191 33 232 91 11 8 29 190 110 216 62 236 105 116 152 15 22 159 40 36 104 144 252 68 4
195 65 63 16 221 82 91 81 103 3 234 53 45 142 155 165 182 156 179 231 238 144 217 13 24 6 254 138 19 244 145 187 144 188 233 171 112 225 173 99 141 77 43 44 112 45 165 56 62 175 17 242 10 7 177 115 78 220 113 140 4 203 174 152 254 169 125 251 124 31 160 105 68 67 24 91 65 138 42 67 142 50 146 108 148 193 37 12 88 87 42 90 177 97 196 123 76 217 16 15 9 75 234 114 107 63 122 80 74 234 47 25 73 252 114 225 21 252 255 130 3 180 128 159 55 171 27 122 240 214 112 45 171 162 149 248 31 112 189 165 184 155 85 153 73 163 236 175 125 143 180 234 55 37 145 3 27 239 163 172 233 183 6 203 239 248 195 190 15 92 222 150 220 128 162 58 11 12 105 121 129 199 195 4 4 62 147 116 210 210 202 185 38 47 215 68 98 39 198 196 27 202 105 39 111 74 164 141 109 148 213 80 28 2 17 219 51 243 239 254 38 49 100 92 241 238 208 214 210 4 57 73 102 38 229 95 245 163 235 235 237 238 151 19 226 44 49 178 235 9 148 121 124 164 104 95 90 244 244 161 218 208 100 208 43 106 194 183 100 17 152 177 77 61 125 194 240 6 8 58 46 239 80 9 227 249 31 102 211 103 55 190 200 79 181 191 130 132 66 29
108 25 176 198 223 176 204 3 202 114 171 239 208 228 91 97 144 59 220 50 146 124 236 31 148 34 52 187 134 253 81 15 132 246 93 25 13 248 240 146 213 19 134 48 16 2 104 197 195 77 250 78 73 152 225 40 85 96 225 198 198 183 71 202 45 164 130 60 96 245 6 24 15 9 100 33 18 95 69 123 231 191 133 51 57 169 232 209 171 190 109 162 184 31 210 40 73 183 58 113 204 178 10 9 79 184 58 224 80 35 75 198 219 116 203 165 81 38 212 80 108 174 161 141 182 111 220 193 16 107 235 222 169 132 71 142 42 98 45 84 70 160 228 133 62 20 65 21 111 228 79 54 73 166 173 13 150 101 165 213 156 57 217 137 242 153 179 216 169 46 32 56 200 17 64 184 59 163 198 106 235 131 123 182 249 92 114 117 149 123 174 181 85 23 198 236 38 246 20 27 40 152 80 117 222 124 4 135 44 112 11 20 131 248 17 111 124 10 81 213 222 69 246 228 76 112 68 183 79 122 81 245 164 121 68 173 236 93 171 8 127 220 143 85 213 254 157 161 232 66 126 70 238 93 6 86 50 98 22 20 18 202 191 27 41 29 120 21 131 169 152 27 176 32 152 181 78 99 160 174 73 45 164 124 205 185 95 197 233 255 77 254 98 87 135 241 220 11 56 23
191 173 18 14 0 111 114 222 226 0 222 0 135 175 39 11 134 17 229 199 5 22 186 11 99 192 104 162 232 232 29 196 63 172 44 75 199 65 94 205 94 122 26 231 211 136 116 56 22 195 84 16 151 157 225 119 124 47 42 251 147 9 229 24 186 5 249 87 170 33 247 169 77 155 7 126 67 140 193 210 217 42 8 92 125 77 0 249 129 68 120 159 80 245 162 139 73 230 144 63 162 98 44 68 196 53 134 95 178 65 190 172 87 219 212 35 231 1 149 172 25 111 137 92 224 108 170 69 49 130 129 115 236 212 243 95 241 84 25 144 99 35 63 82 236 17 77 179 218 141 180 172 196 66 169 93 38 80 55 90 61 218 23 30 209 174 50 58 190 158 105 182 127 5 154 177 183 225 164 85 70 160 39 13 26 130 208 32 36 201 144 113 194 185 39 207 209 242 218 216 235 225 180 203 129 106 103 255 74 183 58 89 213 209 179 41 157 71 215 208 122 21 69 35 208 219 151 29 14 29 143 20 129 64 205 171 4 49 95 46 147 245 127 217 46 24 153 81 20 182 135 131 11 193 141 136 171 157 197 24 222 27 236 190 214 163 121 146 105 129 27 124 193 198 11 195 130 237 155 152 143 0 11 122 8 5 65 163 20 17 13 18 81 49 71 240 8 175 237 237
35 133 162 28 52 100 144 189 168 127 195 125 57 134 75 26 45 242 100 55 118 79 115 23 147 113 148 226 229 103 158 56 147 81 182 55 193 184 33 91 37 79 179 124 56 127 78 19 183 201 99 51 73 122 76 83 195 158 135 72 94 202 23 110 2 112 87 88 252 249 55 254 229 101 170 91 116 176 43 254 140 152 73 34 46 52 13 117 70 113 64 160 86 176 129 223 156 156 13 179 62 182 38 175 99 61 69 73 206 157 238 255 176 182 178 232 74 140 205 248 152 82 172 197 46 113 167 175 205 104 28 95 100 171 148 12 218 109 248 162 93 252 93 2 115 39 143 227 179 137 212 201 26 1 172 35 128 168 104 183 69 77 4 108 100 74 135 79 15 46 210 203 3 53 184 92 99 171 176 49 114 6 176 10 111 150 140 83 26 37 61 80 48 154 193 151 127 67 145 42 250 73 114 127 220 187 105 164 206 36 136 159 241 192 252 46 214 148 228 143 80 233 129 239 171 170 134 65 136 149 215 162 60 225 92 24 236 151 198 205 222 66 79 45 124 109 44 131 200 28 174 240 125 126 55 130 222 54 154 36 18 229 61 14 133 184 104 233 239 62 234 226 90 97 150 64 173 140 2 122 137 152 22 76 108 220 90 246 99 104 188 171 191 47 83 210 100 128 100 143
251 151 205 88 77 97 65 236 19 152 144 195 108 37 44 195 170 173 49 127 94 79 69 85 166 2 116 207 70 206 109 189 228 252 245 129 43 253 4 62 203 183 168 227 213 159 89 197 81 137 215 150 151 89 67 152 13 204 54 156 161 113 57 28 246 202 97 130 91 127 81 64 64 28 248 118 53 129 206 161 56 130 186 65 89 30 198 30 159 166 151 77 2 20 189 120 169 118 207 115 254 246 65 143 201 191 18 143 230 53 247 10 38 62 36 154 178 5 122 190 214 123 126 112 127 4 165 28 208 83 222 213 84 240 253 209 58 1 238 162 145 121 78 90 72 249 79 195 126 16 187 255 203 196 75 100 247 41 188 58 209 91 61 105 159 67 136 42 89 237 62 41 134 176 2 171 191 93 55 212 241 224 51 107 43 96 95 222 148 37 187 40 14 254 81 35 203 186 229 217 211 238 5 68 132 198 40 191 72 207 50 131 50 56 134 163 131 48 205 246 198 191 103 68 25 16 171 104 45 247 149 132 41 255 233 183 219 74 144 39 125 61 200 137 11 188 239 231 164 102 186 129 156 84 135 1 25 174 61 28 16 9 14 124 141 29 240 92 21 226 2 209 247 50 16 70 66 71 85 66 219 7 0 99 142 133 5 207 232 47 231 86 66 27 97 51 160 174 254 115
200 87 181 45 233 59 164 210 99 201 1 28 243 223 115 113 122 133 107 32 253 39 20 171 49 28 213 166 65 25 84 137 7 25 214 92 69 46 49 145 161 139 1 167 122 86 117 25 154 139 88 94 84 145 69 100 171 47 41 202 236 35 79 35 76 41 132 1 70 228 60 174 17 78 62 193 175 131 196 204 224 158 111 67 147 133 190 16 19 145 164 202 152 178 226 219 180 222 207 81 56 243 98 172 88 250 22 208 212 0 43 230 109 174 62 17 76 75 185 59 209 194 50 71 106 120 172 109 229 237 241 133 100 250 223 207 115 127 40 198 202 218 2 63 68 205 118 65 97 67 33 165 191 239 94 30 47 106 246 189 187 107 61 103 49 33 72 59 18 73 43 91 188 223 45 98 234 147 207 152 191 184 47 250 155 147 101 38 122 37 106 95 82 230 81 229 187 146 214 24 204 126 91 44 142 196 165 198 247 53 199 253 48 52 97 109 97 140 67 170 176 105 193 157 166 108 227 92 237 73 216 250 19 175 210 112 242 5 153 114 13 180 200 71 64 95 233 149 76 237 181 57 0 21 138 75 227 210 136 121 249 41 75 131 65 254 152 144 65 125 66 65 142 229 214 65 31 73 227 122 16 70 64 100 241 221 82 245 166 151 19 229 78 69 232 1 9 46 7 142
139 48 229 135 190 201 188 135 182 179 139 76 20 82 80 102 115 18 32 239 237 232 75 197 108 21 113 75 192 223 202 109 89 167 92 152 145 56 175 185 208 209 11 135 112 156 219 157 38 253 158 162 118 143 214 248 210 45 209 179 244 212 36 171 164 142 167 17 100 68 143 242 168 56 254 137 85 206 183 22 196 3 245 12 161 228 81 156 54 119 121 249 251 202 5 62 175 213 220 123 244 179 86 196 139 150 243 157 153 180 6 135 172 14 151 2 235 26 211 121 167 1 32 212 1 119 149 201 162 91 47 159 229 102 192 141 153 10 5 165 99 164 231 34 115 239 169 249 238 168 178 12 112 121 15 166 144 103 230 88 250 232 212 255 12 47 202 146 192 79 204 43 30 176 78 205 6 251 33 48 136 186 226 41 173 153 137 134 70 118 209 110 66 137 233 3 185 212 49 132 170 102 237 59 172 252 148 255 89 163 197 18 130 77 199 159 192 160 7 143 159 159 49 255 99 91 203 63 234 43 67 175 229 94 207 138 110 197 14 65 234 31 125 72 110 149 96 125 122 40 141 109 36 185 201 39 109 228 228 214 187 174 172 42 24 3 232 49 115 156 204 69 72 58 75 90 176 109 156 57 246 100 20 131 188 141 94 244 181 188 46 188 160 209 231 9 189 208 95 204
148 1 58 195 163 68 161 90 144 80 113 250 126 128 233 56 149 98 26 28 37 3 10 219 59 240 254 156 1 132 0 55 70 17 3 44 65 171 60 204 117 34 111 208 115 167 218 2 11 220 229 58 255 183 9 42 78 64 77 223 205 155 190 62 87 152 177 65 112 86 86 194 68 55 217 44 203 10 63 51 179 44 211 106 142 157 136 254 85 216 108 104 80 210 35 202 175 231 77 135 207 250 88 171 75 90 136 169 31 215 30 235 81 237 106 144 74 200 36 6 42 106 107 112 89 183 80 208 91 25 135 190 217 188 189 16 69 17 30 90 137 28 145 199 52 98 88 199 204 248 205 129 12 69 130 32 205 72 182 40 43 137 10 147 117 175 0 223 240 196 27 13 135 20 160 216 122 173 33 53 236 198 213 108 180 199 136 50 9 60 16 126 182 80 131 153 160 181 109 37 53 41 88 48 158 115 230 116 254 170 161 161 196 46 21 152 253 179 137 135 225 115 104 45 101 74 104 212 53 204 98 204 116 109 143 24 154 96 66 16 150 217 239 148 20 114 3 211 82 53 202 73 214 177 6 197 34 195 136 122 222 190 8 142 151 112 182 145 105 27 16 17 205 94 52 92 213 75 116 200 149 163 169 88 185 7 156 93 39 23 123 171 250 3 141 50 228 240 154 168
23 167 129 64 131 131 184 238 132 36 60 29 180 93 170 4 43 112 229 214 230 170 133 152 216 158 61 138 23 82 208 240 53 246 175 98 97 196 84 34 61 138 182 160 203 178 237 138 117 144 77 175 83 40 70 253 190 172 158 105 14 252 196 92 68 123 44 100 134 229 250 169 53 102 238 25 169 226 168 178 143 62 57 154 45 75 134 164 23 11 244 105 63 234 12 128 109 56 221 86 46 121 145 232 229 100 217 165 23 228 252 64 61 92 135 151 117 216 15 173 58 218 18 102 189 48 35 113 153 116 78 24 29 203 212 130 173 209 44 184 27 253 114 89 177 77 133 93 30 207 249 165 183 210 113 139 109 75 37 255 203 46 21 223 120 189 219 35 198 246 109 52 73 150 99 200 228 93 5 142 134 173 30 242 140 207 130 209 115 48 51 77 232 116 203 206 99 18 27 165 104 171 154 231 110 82 25 237 94 68 42 187 207 105 203 119 174 51 64 228 187 12 175 70 115 79 186 227 175 157 48 238 5 168 77 19 30 13 108 246 25 128 177 47 230 216 123 134 246 36 27 91 220 130 168 164 181 113 146 154 21 8 246 120 69 149 183 94 243 29 210 101 155 32 77 101 196 230 187 132 53 76 92 74 40 132 174 179 75 196 100 253 218 9 128 35 126 209 101 183
83 127 16 169 182 131 217 108 164 95 81 144 191 87 27 172 252 80 105 10 166 181 59 92 171 129 195 162 22 158 211 108 8 46 228 252 219 166 10 245 58 113 193 62 85 85 96 127 114 98 33 189 84 184 156 0 166 184 200 188 45 103 64 44 77 253 243 233 254 154 204 85 250 19 74 182 80 183 136 15 23 40 47 140 131 112 143 235 248 19 135 214 139 250 250 201 26 153 152 155 250 128 205 221 227 175 227 16 102 232 237 192 45 234 74 223 104 233 186 196 144 147 237 132 76 87 116 178 216 146 46 213 130 228 102 166 194 203 200 184 28 153 233 93 134 156 188 223 116 164 48 63 106 22 247 72 110 201 100 156 139 136 225 33 116 249 175 240 41 36 1 63 191 94 32 66 145 1 164 40 53 84 58 131 196 189 184 3 92 70 201 8 117 76 245 232 190 91 135 185 189 186 244 209 227 221 117 223 232 92 171 148 107 193 190 130 87 39 9 125 120 23 134 128 61 92 244 231 5 118 255 147 194 103 206 7 149 223 49 194 85 88 156 14 136 78 75 12 141 244 184 83 242 193 76 254 105 227 110 254 207 96 93 254 74 24 67 168 20 23 2 11 118 55 7 219 214 37 129 78 29 221 169 139 41 202 22 239 146 247 159 162 24 162 132 115 46 101 250 118
232 206 96 133 127 236 57 79 11 153 180 100 185 252 79 19 237 10 188 201 139 156 247 93 170 174 89 108 101 172 46 16 198 254 29 204 120 173 150 198 38 209 110 24 222 154 30 81 23 117 243 101 230 114 201 33 148 153 108 37 202 194 203 249 225 193 161 112 186 48 207 2 87 132 43 158 210 59 162 34 85 16 140 169 215 71 79 218 95 130 25 42 94 86 52 137 23 75 89 108 142 131 43 219 4 182 0 29 67 229 236 125 232 132 3 69 114 17 30 149 171 216 5 249 77 174 132 182 145 127 208 197 15 115 129 99 117 162 160 73 64 8 136 82 229 38 144 29 17 26 83 163 20 246 186 111 98 171 93 228 213 240 0 30 91 29 55 159 118 142 194 162 249 149 243 245 104 203 32 117 110 43 163 55 17 191 4 105 144 164 243 212 128 244 35 53 32 136 195 243 209 0 194 27 146 111 201 168 137 209 170 13 170 23 239 28 97 9 5 104 235 93 215 106 43 88 166 46 74 146 184 53 197 139 48 53 191 208 235 221 154 10 214 47 40 87 111 205 148 50 255 190 157 52 248 187 159 161 91 79 232 8 250 147 13 163 216 75 16 203 43 225 30 148 131 250 99 51 163 187 132 164 18 18 84 138 6 115 169 123 231 199 224 235 207 156 70 211 159 63
250 28 101 140 113 115 15 201 93 135 222 87 178 19 126 15 23 209 58 141 65 64 220 34 59 160 81 26 197 214 83 27 229 177 25 3 176 225 176 67 132 192 178 185 192 214 56 184 229 244 54 146 93 2 11 100 133 222 10 27 140 51 92 185 109 16 249 41 108 174 75 180 108 47 67 143 71 17 140 73 222 77 41 82 29 237 189 1 70 65 18 93 114 129 248 132 85 26 201 10 5 230 255 154 132 162 184 253 153 21 155 0 236 71 209 193 186 58 142 102 96 204 93 60 165 140 221 92 235 97 113 191 52 35 109 175 122 254 54 84 68 107 250 180 129 83 56 168 76 197 72 72 224 15 4 29 128 194 245 128 134 244 119 232 216 127 58 8 47 113 74 152 146 231 21 114 112 217 220 140 86 53 60 233 135 13 184 175 80 97 210 193 17 197 36 218 239 143 243 220 99 48 97 186 151 140 54 37 170 34 62 23 235 31 198 3 209 75 235 47 136 94 5 55 152 190 175 24 122 83 182 104 144 34 107 64 232 126 191 122 175 24 128 213 38 12 138 67 133 164 121 2 60 189 40 98 113 248 99 204 239 222 251 216 64 17 251 26 19 89 98 140 47 21 178 173 221 183 144 38 169 87 27 129 197 237 17 77 212 1 105 225 8 209 25 65 31 161 137 103
134 179 10 33 69 96 88 17 105 37 28 57 54 59 240 238 137 57 137 6 159 209 240 126 53 56 35 186 17 54 207 65 31 16 74 106 219 113 229 93 10 237 99 45 154 181 120 46 52 180 245 118 111 45 86 42 74 229 204 143 147 231 222 134 44 222 32 114 252 157 51 139 46 92 138 201 249 227 173 217 199 222 169 95 201 15 19 245 222 251 7 150 213 155 227 128 4 67 220 132 163 39 13 154 144 222 145 103 188 150 54 108 100 120 156 29 90 140 142 78 96 34 251 149 223 17 25 234 91 48 165 226 228 120 109 91 109 226 136 163 186 10 217 3 193 158 106 92 55 157 213 101 118 65 55 185 75 93 90 41 249 104 171 26 61 73 252 89 97 74 36 93 70 182 125 89 114 163 203 111 174 226 184 203 105 62 33 219 238 162 227 133 21 133 43 209 108 211 104 218 10 7 91 115 29 86 4 210 174 142 178 106 228 109 210 179 225 110 24 242 120 91 38 226 150 220 205 199 138 146 204 223 93 56 17 94 143 166 78 99 35 95 8 44 176 251 89 245 190 162 231 36 44 80 216 127 245 121 70 167 45 66 209 22 62 121 78 112 192 54 183 162 226 10 46 220 92 248 72 84 63 73 153 216 8 227 5 238 61 104 44 210 98 18 100 176 167 38 202 20
122 176 149 178 71 162 251 95 24 129 111 178 174 178 133 6 6 70 191 51 247 114 197 227 136 96 196 149 82 133 130 35 71 228 75 188 6 212 136 212 68 96 51 121 21 130 32 99 157 234 146 21 249 20 148 104 206 214 24 119 153 53 169 174 42 199 101 251 145 121 51 95 225 204 112 94 77 22 18 109 26 100 29 68 37 216 130 180 125 204 70 108 88 85 70 60 221 221 67 94 126 126 240 234 175 109 183 76 10 143 144 33 168 55 121 39 162 153 78 228 170 253 26 175 193 31 6 14 55 200 234 31 111 254 91 32 181 29 68 250 152 199 47 151 75 26 119 144 140 150 145 115 117 181 215 237 251 203 208 205 174 226 135 79 230 79 16 50 132 74 15 27 218 194 243 85 207 29 180 197 21 194 123 140 17 108 50 14 232 218 205 150 225 99 234 217 111 30 24 190 154 75 121 119 71 63 200 112 97 103 161 95 99 85 218 134 116 32 170 225 149 49 140 134 200 150 154 236 196 53 94 236 197 254 126 18 16 32 72 210 44 148 10 83 149 68 38 89 206 0 93 169 150 40 108 17 96 20 244 169 171 193 220 31 203 43 122 22 104 111 197 214 237 99 39 53 174 240 193 243 244 118 24 202 132 149 212 183 201 246 104 79 1 32 205 41 56 71 54 148
178 103 53 162 5 113 137 22 143 126 234 197 33 207 127 248 246 172 171 178 42 8 163 25 139 157 199 234 89 79 9 108 52 3 20 104 6 18 41 19 119 202 85 195 155 193 116 187 1 129 77 116 84 163 198 166 131 54 137 135 166 76 239 172 32 139 92 11 97 209 21 40 7 220 61 105 89 249 6 206 233 221 2 69 197 17 198 55 114 120 70 84 209 108 212 112 22 234 95 249 237 44 19 134 216 205 63 148 2 42 110 40 209 156 225 226 2 34 4 228 85 15 45 13 3 150 15 44 92 156 155 224 58 95 100 229 92 39 124 114 173 199 174 243 112 119 158 244 96 55 54 227 83 144 58 169 34 60 76 46 85 20 33 22 50 232 178 195 120 32 145 109 209 126 76 117 184 189 12 75 100 59 73 251 133 19 55 176 238 87 235 49 41 233 2 15 27 46 70 189 201 58 27 34 75 54 231 135 166 199 214 197 201 153 32 30 217 9 139 158 226 235 29 99 250 102 63 193 18 223 84 171 230 141 78 187 138 93 152 233 127 81 39 249 28 166 126 178 163 146 213 250 139 24 66 222 250 157 61 43 254 174 174 185 73 51 229 132 20 157 227 217 100 116 239 175 45 151 146 137 177 209 61 223 219 98 92 215 118 81 253 42 47 94 180 116 162 44 46 8
1 73 118 10 93 35 188 216 84 80 251 213 28 86 120 0 3 62 27 131 199 227 234 35 42 95 58 12 115 36 176 13 187 155 69 109 189 54 170 168 48 185 166 252 185 121 106 92 255 15 50 1 14 108 51 132 255 59 146 56 131 33 66 173 109 124 147 103 98 9 246 75 242 45 64 38 74 114 183 142 164 214 182 211 77 146 89 4 183 247 17 88 64 245 219 201 180 134 139 75 84 176 128 89 77 155 55 3 70 38 194 52 155 87 191 6 101 159 80 200 197 187 23 184 219 225 85 178 76 117 227 178 252 133 3 137 107 39 133 10 25 2 217 40 66 93 70 95 23 69 236 103 135 161 23 97 220 161 8 232 3 246 183 216 176 206 175 240 57 117 68 239 201 169 11 178 117 76 108 217 145 171 39 72 192 191 62 131 179 210 128 17 117 22 227 160 231 204 160 144 195 93 76 25 216 114 139 111 46 231 208 210 128 25 20 7 127 19 27 61 91 82 22 46 149 81 40 160 22 81 113 175 203 118 56 208 65 26 20 41 115 57 21 136 189 241 202 79 169 130 139 146 209 181 71 159 79 207 179 143 141 54 250 158 101 194 116 247 38 214 42 167 158 79 17 100 56 117 7 224 232 145 156 112 67 30 141 213 211 168 234 199 210 182 173 13 9 171 96 88
90 128 223 20 39 113 12 235 118 106 100 96 246 145 244 91 166 87 197 246 14 132 104 208 88 83 231 23 93 84 204 193 19 242 45 190 102 177 95 26 108 182 70 241 121 173 25 21 247 148 138 119 200 107 120 83 85 73 81 84 240 150 8 197 32 98 113 116 51 54 184 232 58 52 106 212 211 58 250 209 42 217 122 217 238 162 37 167 169 246 214 79 22 146 242 57 207 77 226 253 79 151 128 160 14 72 241 79 223 195 52 163 222 156 44 75 221 53 130 22 194 253 80 210 76 170 233 63 142 239 216 133 80 158 163 169 20 153 21 98 209 1 87 94 50 27 125 198 8 231 203 235 244 157 59 150 112 250 69 59 95 168 232 157 20 119 84 133 167 136 2 12 220 75 167 42 41 33 91 42 187 30 78 33 141 156 227 255 142 172 139 205 148 254 46 120 23 105 240 219 35 240 176 60 143 80 62 8 205 236 149 138 194 163 180 237 253 141 37 28 179 43 3 62 223 19 74 87 200 222 201 145 227 171 137 33 44 50 96 53 97 73 218 249 167 101 86 69 250 189 215 91 22 208 58 107 113 253 13 7 12 142 187 201 100 8 250 125 146 190 186 166 88 125 216 44 165 123 227 179 200 3 163 50 228 206 239 184 36 166 162 131 25 39 108 42 107 67 252 107
173 244 226 179 162 164 11 93 135 179 7 5 233 66 157 46 149 163 188 226 30 129 70 90 28 202 183 225 254 85 157 236 14 113 93 224 45 96 23 242 87 182 73 63 88 111 25 247 77 157 69 95 29 136 221 60 17 112 200 80 23 162 180 156 188 59 159 212 178 96 27 72 164 26 34 121 60 70 29 130 216 25 195 69 201 199 7 43 175 37 191 36 118 231 128 42 19 103 53 182 157 250 29 218 6 206 241 122 225 74 199 1 8 61 240 16 255 22 151 18 125 10 102 23 58 121 134 66 91 223 221 235 8 224 179 79 134 155 74 221 83 157 80 126 44 253 164 168 105 195 133 162 206 218 221 39 23 19 94 32 126 201 26 240 60 185 163 233 198 236 245 47 31 167 133 184 196 22 48 168 212 83 28 62 47 121 231 55 129 63 128 235 179 172 80 53 86 181 71 218 231 135 244 74 244 197 153 34 105 157 242 19 161 254 47 254 208 15 121 157 163 89 146 90 129 43 104 162 121 116 8 245 2 185 245 153 73 94 123 169 22 27 220 169 15 114 118 245 58 158 243 16 5 142 253 125 167 6 225 185 238 69 5 169 177 102 136 93 16 154 2 194 94 37 28 11 4 203 173 176 240 238 21 60 99 14 178 14 94 229 8 189 181 95 116 244 107 114 236 85
235 197 244 241 252 239 174 233 244 28 47 28 12 101 103 136 194 88 127 248 3 237 58 211 227 158 23 133 190 250 134 112 157 31 203 65 88 209 16 43 200 216 21 250 65 149 135 243 25 244 158 102 135 226 211 64 96 90 202 50 179 65 106 107 161 156 154 48 144 235 88 146 154 79 233 143 198 75 151 127 178 185 235 163 198 131 207 132 100 210 232 53 90 28 228 242 224 244 176 131 95 221 246 33 153 158 203 17 33 214 157 254 63 129 245 140 102 81 211 149 96 230 108 57 22 41 63 51 101 205 2 135 156 129 219 79 215 93 22 239 92 227 105 40 63 242 66 118 56 129 78 35 96 47 16 75 202 92 224 229 98 251 226 83 173 153 78 191 250 198 236 13 13 189 90 215 108 37 100 178 200 115 191 206 100 211 8 18 88 15 123 128 57 7 187 77 88 215 207 226 62 236 98 100 254 122 154 19 83 47 56 200 49 44 155 155 31 220 225 80 21 242 130 196 21 199 141 200 36 71 158 131 172 73 232 19 184 189 128 109 145 243 201 21 193 148 175 128 165 101 154 247 145 221 244 205 65 45 134 182 15 25 217 35 63 0 184 48 86 174 230 172 166 255 4 143 184 210 143 6 214 80 175 142 94 107 16 34 61 151 201 69 193 160 182 195 141 18 185 162
135 134 154 120 102 200 244 86 17 187 24 219 89 179 192 152 96 236 36 231 48 161 231 233 210 67 202 129 71 34 149 17 115 218 157 152 98 50 180 250 69 58 57 35 212 253 100 47 114 168 67 152 95 150 200 190 237 231 88 83 171 39 76 242 136 75 101 122 79 88 25 90 144 225 173 246 14 118 68 148 139 163 89 144 174 193 80 159 110 0 42 18 143 90 114 59 150 31 35 143 133 50 224 159 80 213 23 169 87 118 242 77 190 164 156 76 195 185 9 165 136 16 66 17 223 199 95 246 182 8 39 118 90 97 190 28 224 191 79 251 27 176 20 134 55 240 142 176 57 43 42 176 22 155 232 208 165 139 78 83 217 157 128 44 33 202 60 212 244 113 214 91 122 70 126 225 54 20 47 69 127 246 4 118 207 53 176 99 228 236 177 77 215 8 17 171 54 1 193 235 116 169 80 168 48 68 62 100 216 185 91 136 222 184 60 188 237 66 21 118 106 48 118 211 247 198 44 250 106 205 82 188 204 182 212 181 97 109 10 26 198 7 139 119 116 107 152 162 45 110 24 18 17 147 168 176 132 187 200 165 211 82 18 125 94 123 145 132 203 240 92 5 98 4 21 205 81 99 144 239 24 38 65 177 223 152 40 69 16 23 164 146 113 138 165 255 141 37 83 115
156 42 163 5 184 117 52 119 38 251 73 223 27 179 233 43 14 51 98 212 170 1 50 255 184 191 154 223 178 32 186 42 18 8 113 131 26 52 54 86 194 75 19 99 41 24 42 141 32 44 149 21 24 226 89 13 184 171 8 94 71 33 104 176 104 44 25 163 167 254 45 236 51 240 94 232 80 218 146 54 180 197 15 83 202 175 41 160 117 181 88 175 146 109 117 109 19 141 240 210 189 118 56 202 161 122 153 203 169 169 124 79 217 84 167 110 92 187 166 148 254 48 17 141 188 94 203 214 164 215 224 69 190 17 86 202 17 232 31 4 48 83 25 74 181 11 198 231 51 115 63 184 189 172 61 237 105 54 70 175 88 112 249 220 33 0 178 71 144 105 239 18 248 159 158 198 71 111 146 206 109 14 133 229 98 140 143 73 208 85 84 190 126 248 77 25 251 222 41 249 93 202 208 191 162 135 2 32 173 183 164 231 68 195 157 97 184 181 134 49 187 103 170 193 118 107 137 199 11 154 123 114 215 64 113 94 58 87 182 203 187 254 123 89 77 188 146 67 188 113 80 127 2 238 46 105 196 252 218 85 178 32 97 140 251 170 246 221 236 147 2 139 226 232 68 29 93 211 160 56 233 250 193 153 111 0 22 104 156 223 124 154 110 3 77 60 123 212 61 242
95 81 114 6 8 46 103 186 13 32 117 255 114 162 204 139 81 144 127 224 3 239 31 248 83 163 251 165 128 242 121 7 198 29 134 164 23 6 243 250 99 20 143 64 8 158 200 209 207 160 236 143 243 91 24 11 32 115 219 72 229 69 233 245 109 234 93 23 18 232 193 175 249 99 225 199 71 198 111 116 40 232 224 140 146 59 181 128 116 29 242 163 150 116 177 197 33 33 136 48 183 165 200 85 206 190 123 16 124 163 125 34 161 64 229 216 11 12 238 6 147 37 191 232 104 140 198 17 45 156 62 241 36 210 214 220 89 116 24 121 98 19 80 226 42 148 77 34 248 222 142 79 45 76 230 215 131 198 122 62 138 128 208 245 175 180 29 188 254 207 210 254 49 57 41 167 174 4 201 212 139 11 242 184 238 64 99 252 21 10 140 149 116 174 231 115 169 187 69 154 146 169 159 215 7 77 59 101 253 252 38 235 32 226 182 0 161 56 140 182 133 12 161 102 41 26 242 86 36 156 139 111 252 67 161 82 230 131 99 90 30 112 255 156 159 64 38 7 134 175 11 23 65 44 150 30 48 21 94 67 127 147 128 19 119 159 61 9 186 143 159 80 206 30 101 203 52 208 202 192 69 50 65 51 206 176 137 188 5 123 205 207 172 18 24 107 107 179 218 220
18 163 102 132 31 237 8 229 102 153 73 23 217 169 231 174 168 199 13 47 255 247 111 73 113 170 63 148 3 83 217 176 150 126 40 38 63 203 149 85 83 20 190 117 116 40 191 22 120 117 154 104 2 136 7 154 37 150 94 140 146 48 92 242 191 31 205 190 246 74 133 191 175 101 54 83 11 170 215 238 143 0 178 44 239 204 147 214 46 124 176 55 173 44 232 33 201 103 178 184 105 188 236 57 130 191 63 184 226 137 45 255 119 64 12 188 131 22 216 27 18 108 13 4 83 137 132 15 220 125 18 45 74 162 187 86 174 245 229 60 181 78 109 188 61 67 105 249 1 220 6 44 66 21 133 137 9 222 104 183 121 112 68 26 201 55 203 86 202 23 92 108 33 137 104 113 65 252 16 253 158 139 124 161 252 127 136 30 1 61 224 214 120 248 8 202 91 131 162 80 161 166 36 8 188 71 98 255 69 37 160 40 62 191 229 27 10 56 49 2 206 239 171 159 75 115 210 242 161 178 220 164 28 252 203 85 113 236 144 37 218 101 28 168 133 120 127 160 186 175 255 100 17 118 166 64 203 177 244 126 214 147 51 63 91 116 20 233 255 232 253 111 14 165 20 13 170 186 148 43 107 86 222 197 100 145 5 46 248 166 223 25 64 28 75 112 178 125 164 222
97 251 252 196 195 225 66 70 247 73 245 48 93 15 113 124 176 79 232 234 79 140 106 183 40 60 166 112 60 54 65 253 234 118 128 114 202 85 36 151 201 117 142 101 95 105 43 11 213 149 251 103 114 149 17 167 27 186 11 127 26 111 49 1 103 20 144 65 153 181 24 189 233 249 78 31 106 93 0 250 202 51 148 142 106 114 182 167 227 151 71 102 47 135 95 101 93 234 7 26 65 115 182 241 50 62 187 116 208 138 189 178 218 191 144 28 61 227 228 76 247 173 169 159 166 34 77 15 183 245 61 136 213 63 62 247 8 209 95 211 59 230 70 200 227 246 113 97 63 187 7 189 247 47 48 145 26 169 19 239 180 212 90 53 139 224 152 56 0 136 128 2 171 32 230 2 80 20 47 124 35 214 81 205 165 249 114 234 41 150 91 8 161 218 152 34 76 193 4 63 169 220 206 54 139 162 192 96 52 173 57 170 249 174 197 39 34 53 199 241 185 213 99 46 252 175 176 116 160 131 218 128 142 3 171 64 26 243 230 153 75 95 227 69 39 205 173 174 134 155 181 235 5 255 217 253 48 246 182 145 109 155 179 241 107 44 230 160 192 168 233 56 201 111 234 123 182 148 34 195 83 158 209 147 26 157 254 115 33 220 223 72 78 249 20 227 85 148 199 76
10 224 83 33 31 255 160 237 43 123 240 130 38 228 115 59 250 247 85 168 235 40 24 222 148 116 207 203 21 177 126 255 208 95 87 127 148 39 113 98 166 141 110 112 227 161 198 85 62 145 149 237 221 199 61 204 98 79 87 210 176 32 105 119 162 124 96 168 38 12 194 25 89 126 161 192 234 208 95 243 170 113 198 124 50 156 153 74 227 108 89 140 79 89 6 39 177 85 109 206 253 92 235 154 158 36 158 121 232 83 209 94 232 22 224 31 200 247 101 114 196 70 217 157 89 53 208 141 65 165 76 222 85 228 100 199 242 218 204 174 181 74 124 75 29 251 244 25 106 20 204 226 121 33 98 76 142 238 83 191 10 252 167 118 153 84 211 81 48 203 175 201 2 25 163 104 89 237 20 98 177 98 240 186 153 17 150 129 95 40 232 40 249 53 36 46 2 3 182 85 72 42 152 159 157 119 168 120 236 67 241 32 22 188 32 218 158 47 154 184 200 135 117 179 4 233 238 125 168 220 11 46 72 183 234 203 126 172 26 188 231 196 18 194 186 202 238 87 87 29 175 43 222 39 20 10 186 141 65 221 104 129 74 251 56 232 226 77 57 81 28 134 182 127 15 122 68 75 182 212 219 203 183 2 85 27 139 237 182 5 149 55 91 246 150 174 13 195 43 100
107 189 9 71 117 89 173 174 192 8 69 110 24 147 75 94 92 125 59 151 200 103 247 136 38 178 29 243 120 172 252 90 197 242 12 159 169 178 235 136 135 29 8 219 151 219 184 197 215 155 124 235 181 61 231 155 142 122 82 120 64 182 174 150 41 224 2 152 251 21 29 44 221 170 202 228 106 106 232 107 164 252 174 219 1 15 162 128 46 75 145 203 80 101 119 157 107 157 6 211 27 137 54 214 118 123 141 203 34 223 117 167 79 202 133 185 179 249 96 82 145 18 164 199 1 189 97 154 62 137 36 59 10 22 229 175 124 29 165 97 24 135 72 68 239 110 251 21 137 90 218 239 142 129 209 225 115 171 133 139 220 62 41 229 24 127 149 57 194 233 96 234 75 7 35 234 119 24 8 157 6 144 187 246 184 74 16 145 93 105 216 178 166 134 171 131 116 92 88 8 230 44 51 200 57 144 139 21 25 143 24 226 180 64 214 57 37 152 50 198 11 121 54 142 162 231 165 116 55 118 13 219 88 233 80 49 183 28 65 160 32 227 104 167 8 236 30 250 14 51 195 233 230 191 47 129 216 33 255 235 221 52 233 68 99 117 109 202 223 17 88 10 147 37 8 139 182 57 40 182 115 139 17 159 239 98 50 13 52 27 22 68 142 39 191 40 60 131 125 204
209 247 34 172 214 248 100 121 31 164 19 135 210 93 4 160 1 225 6 55 14 136 145 49 86 21 244 124 63 107 110 10 226 223 38 176 180 175 151 183 119 24 158 110 240 149 42 33 115 214 134 5 206 74 123 176 6 162 129 36 130 122 206 146 235 107 203 99 215 249 164 238 75 168 179 124 137 81 109 247 119 134 151 83 216 137 224 71 141 126 6 252 29 101 115 30 78 35 129 44 137 60 147 132 176 170 110 141 238 181 36 130 225 147 164 221 46 125 178 2 50 255 187 12 66 197 193 237 66 221 115 55 99 22 151 250 164 90 59 234 138 252 40 146 56 161 92 95 57 154 241 250 5 159 37 155 213 110 211 147 60 110 212 156 118 5 137 127 76 23 140 119 236 6 181 97 97 119 244 128 175 200 210 49 129 235 92 168 56 124 46 169 119 33 60 103 215 202 224 124 93 76 174 175 170 248 67 138 109 207 148 242 199 2 214 53 163 137 47 150 193 125 42 81 221 229 142 233 172 130 205 1 54 18 59 139 8 172 24 197 72 85 224 16 170 154 19 75 167 117 47 134 40 239 54 100 25 88 32 116 255 95 2 98 90 32 175 251 29 114 39 170 149 91 157 15 20 203 22 212 73 131 55 31 51 231 199 37 162 41 138 30 31 148 111 32 184 50 88 202
16 78 174 205 242 205 120 29 101 151 12 17 135 15 68 39 220 12 29 94 24 202 17 252 216 140 150 131 240 205 147 187 165 95 102 194 203 82 156 120 123 201 79 137 105 3 174 105 234 20 19 142 229 69 104 113 165 66 133 154 179 87 94 38 24 185 108 147 170 78 93 31 138 102 80 20 224 155 98 243 177 145 46 106 41 223 158 201 165 134 59 47 123 20 215 184 27 71 157 43 125 84 2 222 144 192 176 1 149 247 141 3 251 137 121 171 110 21 112 114 73 46 45 35 49 48 20 20 189 218 194 137 91 166 236 102 216 131 145 184 48 89 31 67 18 36 135 215 107 164 117 12 2 193 126 200 76 51 32 81 35 219 125 6 243 166 144 108 241 212 234 34 150 224 192 225 55 144 210 57 254 107 53 175 207 82 3 31 214 91 177 175 204 44 137 167 214 208 147 127 207 111 157 193 29 235 83 212 151 82 49 100 102 25 220 113 143 149 61 212 12 250 15 55 166 128 244 17 163 133 10 228 192 165 130 121 235 159 146 122 96 152 76 147 223 185 107 84 190 139 158 65 231 232 116 235 72 20 187 20 102 99 47 245 232 68 18 172 58 228 62 201 167 125 46 210 93 200 207 45 122 12 9 216 229 147 119 250 27 79 128 136 100 185 79 75 181 167 205 70
3 168 118 92 182 250 76 221 158 175 123 158 117 113 35 176 132 5 163 160 2 197 210 160 77 93 218 245 85 58 126 58 217 224 171 87 100 46 8 183 133 13 255 253 104 204 106 197 173 72 88 191 8 9 31 92 12 188 45 143 83 150 206 38 203 123 55 115 33 166 225 194 31 125 164 208 91 138 64 172 94 19 247 187 152 123 134 93 164 86 134 46 140 148 49 6 75 81 214 180 233 33 190 47 202 143 40 213 76 99 60 252 211 215 70 118 112 174 198 119 138 141 238 59 15 10 251 81 63 106 240 120 242 202 152 197 75 106 208 160 188 58 104 6 190 177 211 221 201 116 95 158 69 129 46 248 209 222 243 223 171 79 249 188 141 50 209 253 209 1 5 231 220 176 135 206 119 60 154 255 206 31 12 137 253 8 166 12 153 86 225 37 164 29 133 56 178 18 59 120 86 111 210 83 3 22 144 155 25 164 106 49 51 97 187 119 153 47 78 108 164 159 57 42 253 160 122 141 125 13 50 30 244 24 124 136 216 34 84 157 84 122 38 138 26 198 19 165 10 7 113 154 34 171 224 34 145 56 92 10 111 97 183 170 237 119 93 77 176 252 121 28 38 70 171 87 59 3 125 200 195 131 205 155 17 99 204 198 190 8 96 180 42 102 191 147 9 174 161 141
118 208 231 85 19 216 33 244 208 151 183 114 125 36 169 143 7 138 147 158 185 236 181 140 93 93 105 151 208 115 97 99 219 18 180 96 97 238 16 103 125 77 3 5 183 27 129 146 190 139 145 233 217 20 188 52 188 36 202 14 182 119 3 47 180 111 220 229 134 70 101 246 115 224 33 47 56 207 67 184 94 29 248 99 108 78 108 102 207 254 196 83 14 134 162 183 37 27 57 211 42 86 154 128 92 95 85 75 157 10 231 65 217 218 76 194 8 203 87 239 44 19 58 18 5 241 47 184 95 26 58 6 206 164 13 8 65 67 107 254 232 109 201 253 233 209 229 61 93 51 230 161 110 19 152 179 19 192 77 241 227 82 185 201 72 255 110 175 14 236 86 147 94 236 33 118 232 217 206 186 100 127 188 220 177 39 14 17 236 162 162 241 65 79 126 222 121 155 4 17 145 179 225 149 128 231 218 240 120 112 42 159 180 217 181 83 74 33 91 151 33 96 23 136 242 223 132 93 251 142 61 74 48 32 49 78 107 241 247 97 117 168 21 16 191 233 251 242 162 252 150 246 1 92 238 166 104 242 165 164 174 67 248 18 255 130 158 119 142 216 226 251 102 135 146 187 7 182 251 166 83 82 140 198 168 207 18 233 36 61 240 53 15 44 18 58 112 251 169 161
66 156 220 6 177 168 35 37 98 127 246 209 71 149 221 25 46 41 229 178 137 148 48 90 104 206 234 219 109 97 207 162 148 145 164 70 232 236 9 98 11 155 26 25 70 68 72 249 9 191 197 11 241 57 241 82 211 208 102 231 84 180 123 255 221 98 182 134 24 15 110 40 217 142 114 45 49 229 122 172 97 148 2 104 75 78 101 8 157 46 167 152 128 169 209 188 205 239 243 82 229 39 120 30 126 21 236 233 161 236 190 210 183 101 30 112 154 60 3 138 199 166 152 32 56 229 46 160 194 83 80 32 217 134 93 172 95 40 109 246 75 167 49 166 29 28 38 59 64 156 15 57 178 29 207 213 188 122 186 33 120 250 121 202 116 97 158 29 254 202 114 29 40 0 110 75 53 230 30 167 205 69 6 168 62 16 142 135 223 72 196 106 24 175 137 221 138 230 119 124 236 20 187 97 255 71 107 240 49 10 119 221 163 185 222 113 62 53 176 60 219 158 55 110 117 179 1 159 209 46 237 232 224 133 26 138 157 13 216 204 88 200 44 26 248 100 84 180 37 221 14 107 97 8 90 171 228 95 135 180 192 141 250 96 24 123 143 179 233 240 100 114 35 19 238 65 208 25 157 222 19 143 166 123 128 4 103 17 139 216 223 166 229 214 62 1 33 205 154 190
76 67 215 197 38 105 74 80 200 132 199 159 12 106 77 38 253 125 216 9 189 37 101 91 163 199 86 77 65 226 13 112 39 46 200 50 54 58 145 10 58 204 118 47 203 94 22 242 103 101 47 41 105 193 179 40 171 221 153 27 233 148 175 164 94 2 196 249 48 159 185 62 179 151 209 62 109 59 118 18 142 215 28 84 246 117 154 220 239 181 211 11 34 166 17 179 64 152 20 228 141 242 86 50 113 214 193 73 134 94 145 195 153 3 217 142 202 201 220 7 128 133 204 82 58 116 164 115 61 38 254 242 41 0 104 208 20 15 197 28 167 122 151 205 115 207 73 102 153 64 71 111 197 163 8 49 108 215 234 228 66 234 50 211 63 250 78 58 237 62 42 169 221 247 41 11 176 182 28 174 117 91 165 243 113 18 160 124 230 213 186 194 105 125 38 104 79 9 164 59 106 58 202 211 106 44 223 138 118 106 110 17 82 237 109 64 75 243 70 196 82 34 56 187 192 116 104 87 245 213 245 12 158 217 155 157 69 31 26 210 252 14 177 108 207 13 50 7 156 153 43 110 167 2 97 199 220 63 252 28 45 69 123 74 231 100 244 34 202 148 41 248 9 177 127 187 158 234 117 218 121 31 113 248 22 146 30 158 73 201 109 162 123 51 223 17 226 61 196 229
51 5 90 63 104 54 252 216 16 156 208 186 237 24 197 131 105 241 179 238 201 125 78 70 101 101 218 217 252 12 19 86 251 133 132 114 144 160 109 204 86 146 240 193 32 79 88 122 25 238 174 66 9 110 251 168 26 188 27 11 144 202 242 165 78 41 130 21 158 188 132 219 20 206 90 205 43 246 105 143 18 130 146 192 18 219 230 132 32 101 152 48 119 200 121 209 5 16 1 175 50 172 118 196 119 22 58 172 237 254 80 130 4 243 244 13 209 249 58 212 160 12 175 118 52 240 121 245 15 193 231 24 93 132 49 150 68 215 48 81 130 156 79 29 68 201 215 181 206 171 178 81 81 78 56 206 49 44 53 156 210 121 137 75 150 167 124 120 32 134 106 25 146 30 23 61 200 44 123 41 124 102 211 16 76 222 46 51 39 46 67 247 247 172 174 233 217 56 166 19 231 78 250 239 222 115 208 26 82 241 76 89 229 19 241 217 27 208 72 117 58 217 178 150 95 138 181 251 83 123 202 117 125 16 60 143 102 71 7 85 51 58 195 219 127 15 137 3 178 104 154 44 144 153 211 146 61 4 141 62 89 41 188 83 11 5 154 180 234 220 115 159 137 204 155 245 255 51 161 85 40 232 84 63 114 133 185 234 10 143 49 60 81 91 151 179 51 241 34 86
9 80 60 86 155 28 210 99 65 6 91 200 241 253 244 125 123 114 22 171 225 7 97 231 83 38 125 81 183 40 90 75 174 168 157 7 165 7 149 16 84 171 173 25 88 62 58 28 251 89 213 243 50 243 162 132 130 49 135 208 87 149 189 118 40 60 191 115 122 115 82 195 142 90 181 162 22 197 134 156 203 132 125 43 39 189 107 87 139 92 141 121 5 31 35 240 139 163 55 137 12 116 27 74 103 180 106 210 118 127 127 63 191 6 82 55 44 134 42 114 110 96 57 170 9 119 178 56 60 233 215 107 126 7 182 138 252 161 53 194 39 17 103 223 181 26 150 18 241 35 122 33 173 71 23 179 253 110 73 133 193 227 15 167 8 67 171 222 157 122 177 201 89 58 254 8 203 87 162 156 137 129 52 109 228 117 117 244 124 171 91 99 21 90 3 206 198 99 183 177 193 128 170 65 133 25 208 247 92 42 57 90 56 158 60 92 79 65 111 149 88 110 189 219 218 240 146 206 91 30 193 206 33 136 29 247 47 95 210 247 77 219 190 139 162 156 125 63 162 139 137 194 179 19 88 139 169 2 8 24 106 99 109 78 158 97 170 124 253 126 173 225 9 87 212 121 114 93 180 203 189 177 129 117 48 200 172 32 134 79 81 57 150 219 104 250 59 25 233 12
135 23 101 181 99 123 174 52 152 39 121 210 121 175 67 233 159 148 59 134 195 136 216 47 146 248 122 196 148 173 115 239 65 222 201 68 241 211 84 201 241 56 152 203 151 78 60 93 159 168 97 205 235 59 247 35 125 61 223 199 238 76 125 32 128 85 168 219 170 152 16 109 148 105 114 83 144 121 219 252 244 188 22 237 237 247 199 103 22 196 37 168 178 17 55 3 137 89 174 31 111 38 157 111 91 219 151 14 150 139 116 3 79 211 112 228 132 247 228 243 154 55 82 180 202 222 165 149 183 35 219 245 74 82 94 30 50 236 179 17 234 50 80 157 121 91 157 186 35 175 69 229 245 73 60 90 67 180 54 29 39 193 70 76 78 37 252 108 115 17 183 84 68 31 61 3 182 131 213 248 197 209 93 60 78 161 128 239 210 130 116 72 179 64 219 149 65 115 192 191 122 21 62 23 219 149 83 103 103 201 204 138 233 8 22 172 80 26 170 53 121 243 69 101 127 23 145 255 121 52 9 35 239 95 184 222 250 66 236 219 202 43 213 5 81 45 245 10 55 237 254 46 124 166 232 77 203 70 183 43 208 169 124 66 28 32 102 245 223 203 80 244 6 56 141 50 233 162 82 215 183 38 189 29 129 104 192 217 102 114 120 231 198 73 208 18 71 106 255 188
211 165 39 37 44 81 183 148 76 101 118 211 230 197 251 104 82 99 160 230 250 209 102 20 50 211 110 146 240 220 255 155 109 153 61 61 185 123 251 24 49 36 1 1 247 5 175 240 142 121 251 5 36 141 156 192 42 186 168 14 11 196 70 194 60 205 128 146 98 120 111 113 89 250 191 85 121 41 229 108 205 177 96 142 26 209 10 30 81 15 57 106 204 7 136 74 103 55 58 91 168 170 202 12 83 176 160 189 40 61 123 209 151 41 60 12 226 31 35 37 139 79 121 198 190 160 175 247 160 67 207 236 101 214 127 73 113 183 72 204 159 40 116 108 5 175 251 150 70 184 226 203 131 128 36 233 106 198 57 212 205 74 177 66 217 173 154 255 32 48 166 136 34 175 108 217 66 91 247 175 145 144 118 16 139 108 60 61 11 119 0 128 137 247 134 163 54 32 43 71 162 145 11 183 221 41 211 57 72 161 194 53 69 115 179 89 150 216 245 199 80 229 202 12 40 91 4 100 144 32 88 42 170 25 71 164 72 83 23 47 151 94 168 112 27 125 17 22 92 31 219 230 84 71 1 43 165 91 58 113 50 12 205 94 194 246 223 174 249 228 25 103 182 163 242 114 5 218 19 82 71 40 32 69 83 27 77 73 132 219 79 115 133 231 56 234 130 206 39 130
18 249 90 144 158 71 93 104 130 255 73 60 100 184 223 29 126 155 233 61 242 152 152 222 169 49 123 49 204 119 199 168 61 84 103 68 213 50 213 75 43 238 215 3 36 249 228 13 194 29 139 88 89 1 64 237 87 92 123 112 207 48 244 170 89 220 177 249 130 187 153 17 181 245 192 228 82 61 164 197 109 81 188 32 184 150 0 180 109 12 233 251 227 211 54 141 85 197 123 55 170 200 188 95 187 38 62 35 137 127 34 240 92 68 154 201 183 107 214 68 242 166 1 125 36 247 141 60 132 247 247 69 236 122 218 130 42 62 132 68 34 152 29 193 12 18 118 135 70 94 187 177 226 195 216 244 55 26 43 50 121 243 78 103 119 216 123 14 96 75 48 191 2 56 41 47 156 234 108 199 90 119 13 113 20 70 239 51 90 120 243 224 19 61 209 221 235 118 181 76 243 77 234 24 44 38 183 156 67 205 115 109 50 87 152 31 158 114 2 0 144 85 184 150 146 27 6 59 65 36 57 228 81 184 162 60 233 113 105 225 154 89 14 145 116 181 137 205 158 134 83 50 82 181 157 153 179 161 113 123 167 44 111 45 240 114 148 66 203 152 116 138 31 11 187 122 150 225 26 147 237 196 18 12 58 250 102 181 215 190 32 138 105 31 97 35 176 8 154 108
158 243 40 13 120 68 200 214 51 70 129 116 232 87 35 54 69 51 94 36 58 229 204 244 234 91 183 150 169 142 140 183 101 197 73 198 218 240 164 8 78 92 33 75 197 98 3 183 17 211 3 228 37 32 22 231 102 165 48 10 163 92 108 10 177 66 248 35 41 149 132 10 104 250 215 3 101 23 253 61 138 57 138 168 82 181 57 248 201 108 32 6 164 148 2 255 165 101 254 244 104 217 199 90 218 175 31 13 185 181 159 112 195 215 112 169 105 192 110 171 150 110 122 10 143 73 208 110 78 147 33 38 196 216 73 129 192 226 115 216 241 144 202 185 190 151 96 116 160 155 102 112 152 216 107 44 224 129 227 252 216 127 116 63 50 215 20 215 173 81 139 249 14 181 25 192 99 188 171 195 102 109 125 38 139 194 240 237 2 73 245 232 125 73 8 4 51 156 129 128 147 232 211 26 83 93 52 92 199 74 148 5 82 230 187 245 57 163 50 215 149 202 63 148 64 45 61 135 250 82 56 181 49 173 47 224 115 49 72 252 245 90 159 253 103 191 132 28 26 231 153 62 94 145 197 224 44 9 171 12 84 41 169 154 40 179 140 197 8 26 71 161 75 152 255 183 8 140 18 153 80 193 108 195 90 123 80 215 7 145 44 202 6 5 229 75 239 77 155 212
152 129 164 229 207 101 50 141 14 213 131 180 192 14 248 202 229 154 60 178 68 234 137 39 3 251 181 125 154 77 137 174 17 38 192 51 100 7 70 4 100 52 115 117 184 165 1 97 55 14 161 154 82 182 172 126 90 86 25 176 157 3 81 245 21 73 84 96 75 99 231 159 179 5 66 83 155 83 90 134 230 210 238 161 211 255 30 15 67 213 228 95 224 207 74 8 136 21 111 121 71 30 115 172 239 237 177 90 30 75 27 164 107 246 244 120 152 152 130 25 84 235 98 74 199 5 60 219 49 192 83 80 195 197 224 182 169 47 23 5 234 84 18 103 111 235 217 254 53 172 195 161 96 152 219 138 225 39 29 20 61 183 6 193 88 144 15 98 29 170 249 48 196 66 108 171 176 52 60 90 22 80 111 194 141 204 207 232 159 217 114 162 91 166 67 200 45 91 19 29 189 165 131 189 205 95 140 127 50 212 98 163 74 167 160 226 205 154 152 173 253 0 180 12 205 126 246 211 3 149 14 143 229 34 144 13 23 108 219 228 64 37 221 208 5 15 206 199 101 217 199 179 86 30 44 244 249 106 158 102 222 206 45 53 142 82 200 213 172 167 192 250 53 15 211 46 3 127 241 42 91 96 173 75 177 98 24 136 179 187 148 234 255 16 232 244 10 240 234 168
160 246 239 210 181 249 102 97 138 240 180 147 87 231 33 174 224 13 56 247 170 235 31 184 24 182 95 15 180 61 66 55 91 196 73 120 165 39 8 12 49 41 235 104 54 36 89 30 68 114 229 58 226 197 46 152 123 30 23 193 209 0 101 32 94 85 234 146 203 144 178 210 131 237 246 72 115 185 195 52 61 46 131 132 49 253 224 250 58 81 68 100 206 219 166 70 162 134 177 98 52 252 120 186 152 230 14 15 105 29 230 42 144 217 184 193 114 214 48 202 48 48 71 218 191 58 215 138 200 155 6 0 51 211 165 174 174 21 237 115 134 47 40 213 211 225 183 230 158 174 160 224 37 239 12 83 141 53 112 16 119 65 103 2 21 157 81 164 137 154 221 44 8 25 194 28 244 183 13 144 45 207 246 79 12 218 248 218 44 148 138 133 122 27 123 165 96 227 233 54 197 204 65 29 68 121 235 56 70 100 148 1 181 28 137 65 22 145 89 105 163 151 249 18 43 223 53 159 219 85 190 162 111 153 5 207 181 158 213 247 4 71 246 46 216 33 108 245 158 218 105 190 31 204 255 203 225 232 186 138 11 215 22 133 127 228 75 245 83 45 212 104 68 93 207 66 218 39 158 179 77 108 222 47 54 139 72 90 49 104 165 76 187 100 180 7 72 190 155 2
255 18 151 152 20 82 90 8 210 99 79 21 88 171 13 148 243 219 221 169 0 204 67 247 109 44 18 73 11 126 135 9 11 227 186 197 218 119 175 238 101 154 116 45 23 237 187 234 255 13 251 25 206 195 191 130 120 100 5 123 192 224 136 71 112 109 44 60 189 47 195 173 87 238 213 149 119 52 105 214 109 222 225 104 100 132 206 161 59 170 126 49 242 44 143 78 234 178 228 24 16 71 15 113 84 68 144 194 186 201 237 254 26 66 96 246 148 113 115 8 108 91 16 141 74 3 44 204 237 11 214 12 134 23 213 158 218 31 2 184 193 107 86 238 232 112 225 80 179 197 212 137 244 14 240 185 59 214 116 34 13 7 53 96 205 70 38 3 246 102 55 32 126 192 50 177 248 54 150 28 102 218 221 229 55 215 127 64 123 134 204 7 240 132 42 237 186 165 143 253 129 177 159 106 116 0 73 115 165 241 132 36 139 48 74 218 203 3 144 33 6 207 20 6 81 111 29 251 26 31 227 236 79 194 85 123 218 183 231 169 227 153 117 122 40 16 101 168 151 123 143 251 13 5 34 226 220 249 112 93 188 47 109 132 122 8 240 37 219 226 81 252 1 70 168 148 34 176 178 60 151 116 125 140 116 177 131 212 52 46 181 163 14 152 127 211 4 45 156 30
231 69 87 237 4 92 76 25 4 0 255 174 47 193 5 34 107 121 173 205 233 182 249 163 177 79 12 224 11 169 43 247 213 222 32 41 12 247 152 243 215 206 197 11 122 46 209 251 102 19 220 232 58 229 24 2 102 11 25 210 147 146 14 79 244 231 85 236 192 224 173 31 106 76 58 216 143 208 203 23 246 247 98 43 7 137 78 68 38 68 244 190 46 37 202 229 45 185 215 132 244 46 199 225 218 198 48 172 14 228 231 250 47 29 21 175 175 192 2 232 50 248 112 226 237 146 233 77 61 162 27 59 111 207 167 3 118 185 74 197 161 1 190 184 133 124 99 130 87 59 0 198 153 180 74 43 207 222 82 108 94 183 4 150 172 53 235 50 20 12 215 66 33 131 144 244 156 158 199 87 52 149 198 59 30 54 87 99 140 65 38 96 191 57 181 12 230 225 121 203 190 133 232 175 190 197 215 28 244 195 246 56 150 97 86 234 10 247 38 139 162 40 50 177 29 6 238 169 151 249 14 23 55 140 202 57 157 22 14 107 193 64 220 229 142 162 94 15 216 12 129 87 34 184 173 142 207 183 168 198 215 226 193 105 222 144 76 185 157 105 194 196 0 164 188 108 242 4 225 180 228 119 253 30 70 134 208 237 94 70 153 125 9 164 196 78 103 206 223 74
15 238 239 36 96 164 239 129 210 57 238 193 15 100 88 206 34 5 104 29 248 17 129 80 76 63 97 186 71 27 38 12 95 115 136 105 240 64 226 240 148 32 152 35 116 65 67 46 8 88 24 218 194 168 158 164 163 44 211 27 250 176 117 225 173 185 251 229 253 98 239 207 67 203 144 18 242 234 170 237 57 50 249 124 122 104 50 221 173 4 172 134 2 196 72 78 80 62 250 247 82 10 201 63 206 88 58 172 17 161 199 220 16 181 229 226 44 220 195 62 14 56 253 222 97 71 239 85 111 221 210 154 46 154 215 253 78 142 55 91 115 137 106 23 129 113 163 185 1 215 111 33 118 26 136 193 146 32 74 243 133 162 160 164 201 132 101 189 39 96 138 48 7 147 69 97 187 212 133 223 67 48 181 129 244 85 132 67 220 241 136 97 218 57 99 34 25 18 38 10 186 168 113 14 21 174 32 208 72 219 190 58 208 90 218 78 231 232 94 5 96 45 229 145 113 222 242 33 228 182 205 214 116 170 93 55 48 135 180 115 231 119 158 52 236 235 105 101 20 99 24 151 87 25 191 242 230 124 74 110 77 97 28 233 61 202 172 63 56 209 211 84 180 136 113 122 113 198 32 190 189 208 164 117 75 184 81 218 185 36 150 211 48 198 140 201 41 245 167 199
228 150 171 14 55 82 219 128 181 179 40 178 121 208 42 143 25 32 12 210 82 21 118 61 127 161 14 7 246 193 72 78 101 235 122 46 245 63 22 96 40 152 216 187 219 128 144 29 128 164 89 137 14 7 168 226 112 145 88 252 215 133 78 181 26 188 225 127 221 136 92 34 171 36 122 9 170 99 229 57 32 88 254 131 223 113 212 79 28 61 37 196 132 103 210 168 140 123 15 86 198 104 193 31 248 172 72 128 175 164 34 57 172 2 72 124 41 154 183 237 223 232 180 154 201 193 182 204 117 224 65 87 61 187 255 32 0 50 12 39 154 114 141 142 197 179 136 171 135 71 120 250 10 205 1 91 229 165 90 18 127 104 206 188 103 202 253 180 70 132 172 197 178 236 25 201 208 120 74 94 212 15 19 177 69 195 134 251 179 35 254 134 214 21 141 212 210 32 136 205 208 53 193 96 241 221 100 70 121 179 104 170 75 162 101 140 181 137 83 121 175 168 67 46 163 59 90 199 168 85 43 59 1 240 74 146 100 228 43 90 30 237 218 221 22 73 1 148 162 48 17 130 150 142 143 135 53 248 245 7 138 223 28 225 117 182 155 16 225 216 187 213 202 88 122 53 16 181 85 50 12 71 108 213 108 26 183 87 42 243 30 41 187 91 247 95 168 143 206 153
133 20 63 33 166 113 172 217 15 39 42 242 132 117 108 57 150 222 31 199 86 133 53 11 200 189 212 208 67 198 103 24 40 136 209 136 169 24 166 184 241 59 48 97 111 72 58 205 20 196 19 192 171 82 77 133 17 96 172 254 162 88 193 129 40 172 27 124 63 54 46 30 16 245 12 167 131 18 188 143 84 121 29 190 193 91 116 145 6 162 82 15 172 100 71 104 224 250 89 38 225 108 9 239 3 9 252 154 155 246 168 30 100 95 157 168 115 30 173 156 176 112 243 248 152 101 141 160 208 81 93 130 154 16 0 94 134 115 102 57 17 224 14 4 57 227 178 245 207 124 64 154 92 62 195 104 159 197 147 121 85 243 106 180 30 126 46 96 151 142 30 183 231 238 75 108 203 148 163 225 250 27 149 30 90 190 156 33 73 81 210 105 68 109 254 46 251 122 40 64 140 238 170 84 56 60 31 215 220 140 104 41 231 119 183 210 11 70 111 233 29 53 66 133 227 221 139 5 69 19 52 213 39 23 178 117 187 1 158 2 68 56 152 107 116 97 120 138 229 101 157 230 79 65 205 225 72 241 10 82 38 247 242 179 200 57 222 89 45 170 35 202 78 206 168 212 86 143 226 58 129 231 111 88 36 131 115 188 51 29 141 71 88 187 18 246 102 242 89 234
242 251 173 42 32 146 82 51 134 209 27 42 239 33 119 239 116 140 115 191 36 9 173 192 114 8 93 189 96 237 39 139 62 215 38 231 236 241 75 221 241 114 194 178 7 16 221 220 113 183 70 195 34 49 251 247 173 82 119 186 242 137 94 200 47 49 83 157 169 23 149 79 166 69 94 169 192 95 44 52 117 205 190 65 220 204 232 174 92 129 202 132 165 166 216 53 248 226 68 163 235 118 134 179 55 83 93 101 89 249 193 184 126 89 207 117 15 232 228 197 166 247 65 207 180 44 253 22 73 255 188 218 112 154 3 65 37 220 162 44 224 142 108 216 2 255 36 44 104 31 134 114 199 195 203 237 138 118 104 9 216 151 132 214 34 209 17 104 12 93 10 107 249 145 17 53 152 83 136 173 118 181 184 19 98 174 250 202 236 236 84 64 152 158 146 231 68 253 145 0 251 26 208 247 139 33 133 175 9 27 48 121 123 169 170 175 88 224 169 182 145 77 32 188 178 115 189 175 73 1 138 216 89 124 173 244 25 24 8 156 56 161 124 0 25 239 255 46 163 116 181 65 80 132 122 106 123 121 120 151 98 104 206 51 84 21 51 5 164 196 184 81 14 82 184 180 64 161 45 55 5 97 88 152 46 158 248 115 100 154 114 7 70 18 222 204 242 138 78 254
54 134 67 57 68 127 113 97 49 145 34 11 191 234 184 18 91 127 167 117 185 103 252 34 248 167 159 87 190 47 1 2 207 187 128 212 59 45 171 133 2 168 37 86 62 70 254 230 64 173 1 223 85 19 121 141 64 213 225 170 164 207 32 123 84 240 7 77 210 56 60 24 171 76 99 253 250 69 9 245 69 126 33 169 36 221 108 89 182 14 250 115 13 159 42 112 109 128 158 25 99 142 156 252 106 196 234 206 123 114 112 206 22 2 90 170 165 178 118 155 226 107 163 25 22 227 125 217 233 53 231 210 217 121 9 38 106 68 248 181 250 86 199 182 213 80 84 11 79 77 62 90 219 164 143 164 108 248 133 224 202 46 6 44 100 57 174 182 106 11 11 92 26 190 153 84 106 247 18 198 117 165 179 225 113 2 6 247 221 7 169 85 194 239 236 149 74 179 189 145 89 228 159 226 71 218 65 67 196 79 39 248 24 151 229 45 202 42 132 44 253 17 58 170 1 200 46 89 176 172 36 37 114 36 11 61 82 244 104 39 189 85 141 198 235 73 242 143 25 207 39 115 233 173 60 117 142 189 159 186 187 125 170 48 121 90 235 197 55 25 237 66 115 156 10 173 125 197 65 13 77 59 61 179 77 39 68 52 115 67 53 221 217 162 141 184 205 189 57 187
79 24 168 158 51 103 187 145 38 136 59 6 120 24 207 166 198 16 237 29 216 60 204 96 167 79 199 33 85 95 58 229 57 157 54 125 216 188 96 144 75 167 218 0 12 25 100 130 194 82 100 131 207 200 7 152 142 38 194 51 176 69 97 99 149 183 139 3 210 212 136 183 204 50 154 123 175 7 24 67 132 235 197 104 63 87 69 157 198 17 59 26 207 61 101 114 110 233 8 116 157 255 98 48 254 31 181 171 155 7 123 109 107 48 203 12 66 161 222 172 160 204 39 104 197 171 136 72 109 206 104 74 152 218 108 158 180 3 210 151 60 185 245 157 68 76 49 212 244 58 104 43 180 40 117 108 245 137 41 123 169 194 126 70 250 190 56 198 169 88 234 57 50 194 145 128 234 145 31 251 186 165 233 29 155 0 135 9 211 130 5 29 174 243 47 101 37 143 182 4 115 212 49 47 83 208 102 23 186 167 214 17 242 103 221 78 178 82 246 202 112 107 16 63 106 230 164 144 189 145 84 80 184 104 89 197 132 66 79 171 24 217 240 185 110 128 63 250 66 174 80 203 216 23 42 247 65 22 177 53 144 237 34 176 97 83 16 23 153 83 164 136 80 33 90 66 84 115 155 37 102 161 178 230 32 113 114 155 80 160 251 18 141 218 119 2 37 41 204 73
245 163 16 188 56 108 100 205 244 212 160 36 209 180 196 232 91 39 12 188 205 245 61 191 171 54 38 199 200 6 102 253 34 77 241 242 18 177 145 218 92 123 237 107 172 159 9 62 1 136 64 177 223 253 224 110 242 239 211 193 147 93 142 229 30 165 18 208 144 225 176 11 247 238 17 210 175 99 93 100 177 155 143 123 224 4 86 14 158 194 109 62 97 172 29 16 128 204 12 43 241 225 18 14 215 88 106 35 184 181 191 133 117 172 212 148 30 6 212 162 236 68 136 215 229 182 67 136 102 80 108 36 150 31 144 19 107 83 98 79 55 173 56 1 226 3 100 197 59 61 251 105 141 188 34 136 153 49 234 29 233 123 31 68 186 247 29 151 9 0 37 185 24 94 144 200 134 171 255 133 166 77 92 12 217 210 217 140 237 122 158 138 114 96 87 235 97 31 133 135 33 207 36 116 120 254 161 209 124 34 168 89 216 228 57 42 108 61 76 126 106 135 26 70 64 82 248 148 219 173 253 165 18 110 224 40 13 77 142 204 115 245 89 87 131 28 174 71 124 240 130 139 48 153 61 102 33 243 160 109 69 233 195 225 84 29 190 133 217 163 40 229 71 47 112 0 248 1 176 112 153 212 36 100 255 199 75 204 106 5 155 68 24 123 231 246 113 135 189 137
42 197 17 88 237 120 229 137 86 234 236 223 215 40 217 192 234 51 106 141 114 50 219 191 188 71 158 202 160 23 135 233 149 195 179 90 216 14 117 207 84 160 36 176 224 179 55 97 193 46 57 90 248 55 24 92 17 4 102 119 24 112 52 197 231 215 188 185 19 254 228 115 50 60 206 226 23 61 134 158 173 249 111 168 74 201 170 87 169 235 71 226 56 43 100 92 144 186 226 171 185 170 24 22 1 31 48 37 246 138 195 179 82 223 98 69 179 170 194 224 30 36 147 237 134 216 91 18 242 74 24 14 190 147 155 57 165 216 139 245 10 156 191 42 223 79 63 76 212 55 44 62 244 81 131 224 7 78 180 190 176 246 215 236 219 70 115 254 47 197 26 196 217 190 246 105 215 59 154 101 86 103 230 96 43 252 77 162 20 30 10 36 121 101 38 129 40 226 188 235 245 119 95 236 236 76 225 45 48 104 235 135 237 211 71 109 15 171 244 94 51 254 107 10 53 187 16 80 47 76 196 254 108 173 156 236 159 182 218 142 54 185 159 197 21 33 169 227 33 230 57 205 42 155 32 56 48 119 110 49 252 60 246 17 47 82 54 38 190 220 244 15 49 42 20 245 18 110 123 175 178 59 157 205 10 24 244 92 252 171 31 236 107 37 92 195 184 124 107 184
235 217 87 234 184 41 145 103 255 180 67 106 239 128 222 9 80 73 211 1 87 185 12 39 6 43 178 75 138 43 13 76 2 114 10 45 108 172 20 138 124 123 189 121 121 248 49 155 200 145 236 125 236 142 36 42 164 242 112 211 93 18 85 31 183 81 110 182 146 125 188 112 74 175 127 136 90 72 59 172 104 157 49 215 93 115 68 193 150 194 251 104 127 19 144 68 4 175 145 15 94 200 187 105 255 79 41 10 143 211 51 82 74 108 139 102 252 189 155 220 123 212 29 237 216 62 27 46 95 228 193 165 24 198 180 41 128 47 158 18 149 32 223 144 246 187 219 70 62 149 58 199 137 142 31 25 254 74 137 170 114 72 249 244 113 140 187 131 37 7 17 10 135 128 250 228 230 240 48 92 189 166 3 41 232 105 3 115 35 32 3 50 239 174 100 142 169 116 40 96 80 136 2 215 208 225 27 41 236 35 2 1 30 254 117 220 66 161 109 204 187 171 223 133 82 71 169 203 143 110 163 88 59 172 111 88 140 180 162 89 103 167 245 178 173 37 123 77 25 87 160 37 137 37 190 38 142 99 96 22 220 185 178 190 147 228 55 54 219 177 90 32 111 224 178 217 221 23 17 116 71 203 233 196 183 62 179 138 218 116 195 85 44 94 114 152 184 169 26 54
87 58 140 202 239 126 100 73 56 168 54 2 11 28 123 237 10 98 111 182 70 176 13 213 214 227 127 151 135 117 99 126 161 90 101 38 179 127 107 174 224 211 133 85 161 56 229 27 62 203 54 31 99 125 150 236 131 214 178 12 203 239 17 54 24 125 250 35 189 47 183 117 139 62 173 141 36 215 144 46 173 1 59 123 16 216 80 95 124 132 165 220 213 114 74 167 52 240 46 140 105 184 72 132 234 236 154 169 174 115 41 220 6 3 186 100 37 209 197 157 208 210 214 53 25 224 116 179 75 129 97 116 81 110 214 23 89 130 94 98 7 108 15 3 184 143 87 97 185 129 80 86 183 37 88 167 7 12 155 3 82 204 238 216 49 3 82 120 185 21 198 21 145 161 140 93 165 104 217 178 198 119 60 103 22 85 20 196 150 242 62 45 147 158 143 145 163 150 30 253 90 2 216 236 195 187 118 255 213 129 32 158 26 208 135 52 113 230 255 220 26 8 155 214 29 146 178 14 136 69 246 120 255 46 194 235 255 178 91 15 204 225 15 102 152 228 78 64 179 202 115 148 229 110 8 92 194 160 103 153 89 39 247 241 85 164 241 88 204 149 108 244 76 208 215 45 198 155 56 89 175 126 95 188 25 224 150 61 9 67 37 145 70 0 51 149 117 196 168 10
128 94 24 207 39 220 128 74 123 10 237 125 8 147 133 223 50 185 226 152 101 149 18 36 213 228 21 138 184 3 98 48 4 94 163 141 78 152 253 202 132 137 199 49 71 223 208 242 64 122 237 47 97 252 33 209 103 196 168 97 45 27 175 48 40 200 56 175 172 179 97 147 169 232 236 3 153 34 7 209 9 69 43 61 245 201 69 84 100 172 118 30 181 225 209 153 200 98 4 147 235 121 198 22 118 126 251 146 138 52 46 115 76 56 189 167 211 133 187 132 98 107 31 158 142 192 162 8 174 43 106 24 238 69 134 99 160 47 181 229 242 81 102 205 91 217 67 255 202 223 249 139 154 237 133 120 125 168 22 83 57 61 108 231 28 33 57 251 219 223 102 185 51 48 137 38 59 128 182 75 2 114 174 165 21 63 86 90 187 84 219 226 47 107 195 90 213 10 85 81 210 210 108 2 204 156 175 128 76 145 165 4 235 2 148 162 166 133 237 122 84 50 212 201 83 9 73 9 62 219 32 71 164 227 130 53 62 59 255 1 107 127 119 27 33 180 48 195 61 56 38 145 143 239 144 185 160 45 77 75 41 41 161 148 249 47 153 154 198 238 27 2 93 8 85 129 243 221 206 184 192 157 90 95 124 177 81 61 57 21 61 147 17 202 233 165 5 11 229 225
164 193 182 237 56 167 52 146 210 232 13 118 124 179 205 118 249 135 178 191 88 110 47 97 187 187 26 250 143 5 114 191 168 45 37 222 71 39 114 116 96 1 65 156 195 180 46 32 90 18 156 224 91 157 65 20 32 135 77 115 194 158 207 10 81 174 116 98 133 201 12 193 5 37 4 190 17 213 68 164 208 245 162 19 27 10 52 144 244 59 142 246 156 95 107 227 110 13 88 39 109 215 27 158 14 245 132 87 8 18 139 240 238 75 205 13 46 33 157 52 214 199 202 14 152 238 66 196 133 164 17 48 88 236 225 135 241 192 109 158 194 138 125 28 168 194 148 25 176 77 188 138 7 185 6 206 109 155 181 248 219 96 25 198 132 28 127 220 142 5 60 203 236 49 15 114 118 53 93 172 148 62 3 68 220 158 161 5 83 117 255 145 1 182 23 243 99 168 38 240 115 110 176 194 20 97 51 19 4 2 132 171 85 46 214 3 93 70 225 143 250 107 154 152 244 57 94 22 218 245 157 47 250 116 247 148 7 223 17 54 15 77 48 27 88 202 152 113 15 138 172 78 229 225 244 79 32 189 98 31 43 5 236 38 149 176 48 3 166 5 128 18 43 211 243 135 89 141 100 209 20 169 130 72 214 211 212 247 43 96 219 2 71 145 249 80 139 228 78 216
183 118 212 205 0 161 157 132 48 164 75 166 200 109 158 250 108 192 76 201 106 242 204 77 23 64 7 73 190 249 27 36 55 191 245 125 242 185 3 212 10 71 126 107 96 108 40 112 247 17 207 135 38 200 48 147 67 248 124 195 219 97 169 222 114 217 1 211 68 117 138 209 177 222 63 171 69 170 189 24 107 236 155 33 42 40 137 193 25 203 208 95 154 246 248 125 52 180 227 174 120 136 9 239 118 2 212 41 57 4 76 117 51 200 19 43 17 97 147 139 212 48 93 107 117 163 27 107 203 223 78 202 168 209 12 187 40 216 226 2 234 10 147 111 163 65 207 130 123 117 161 86 45 177 249 167 127 156 109 67 107 224 159 210 62 23 7 12 52 212 86 104 98 74 247 17 252 65 132 66 102 142 35 14 41 13 71 187 174 215 24 78 43 163 96 221 116 115 235 205 169 38 68 94 254 170 129 0 189 190 223 177 164 18 231 212 210 5 61 58 200 249 190 116 83 146 173 125 104 8 161 209 67 208 63 62 46 244 161 63 10 246 96 155 127 43 10 145 158 38 123 248 164 141 34 155 54 155 142 148 192 9 241 244 172 28 221 145 23 252 176 132 29 57 84 79 55 210 55 84 241 48 199 52 243 175 88 81 113 249 144 249 213 174 77 103 135 167 166 113
46 90 39 97 29 175 78 223 237 105 233 35 16 29 235 35 16 148 5 249 184 5 40 96 217 164 46 25 163 200 177 247 163 127 101 164 28 64 133 140 93 251 228 6 13 138 201 221 47 68 59 239 235 211 39 49 236 13 171 29 225 121 172 111 32 149 239 21 245 164 148 45 158 41 18 215 205 197 95 199 4 175 58 113 152 17 96 88 108 128 56 62 184 32 225 236 74 187 150 41 211 71 90 239 50 115 200 94 82 47 234 25 238 176 126 111 217 115 247 87 181 59 150 243 98 70 163 235 38 11 76 74 209 80 127 200 61 218 60 167 194 18 184 155 172 192 167 219 106 164 75 146 139 220 40 117 231 58 87 168 65 232 15 134 84 177 191 171 35 145 97 33 214 131 216 174 109 51 141 171 253 163 50 251 36 57 222 129 64 28 176 68 144 44 26 55 4 70 27 205 93 58 193 192 55 69 235 38 32 26 77 149 234 162 169 227 103 142 204 63 206 167 18 86 198 126 135 92 76 89 128 233 160 5 107 15 112 220 238 176 110 46 246 240 89 147 217 169 97 200 3 126 60 198 241 228 141 0 60 170 29 39 160 106 165 5 97 239 78 62 10 140 121 206 128 198 18 43 91 137 64 209 133 108 229 16 62 86 11 39 63 49 97 135 200 59 73 98 187 153
122 233 71 201 155 200 94 122 5 27 101 65 14 9 76 75 160 64 26 174 136 74 248 167 40 243 11 143 153 11 103 252 81 156 196 73 152 53 57 109 158 78 180 168 156 125 245 13 92 214 78 162 184 47 115 87 247 99 219 31 147 160 207 97 85 114 180 86 220 35 208 60 191 235 101 186 243 122 20 171 182 247 186 214 138 6 115 26 103 223 121 232 29 182 167 24 142 60 43 224 130 4 44 65 193 113 46 39 110 35 25 141 114 106 59 130 77 224 126 97 151 229 93 32 62 225 102 171 68 65 149 95 207 221 4 4 211 179 114 13 97 148 227 3 59 195 227 59 242 152 43 211 87 39 17 211 114 238 142 53 187 227 213 105 30 19 175 167 75 27 182 176 99 243 213 180 253 17 197 128 67 178 244 171 57 155 203 136 185 162 117 140 69 219 212 108 209 136 98 89 168 17 15 7 139 82 109 151 18 152 134 212 167 122 17 86 81 162 197 58 196 7 109 215 129 101 231 131 225 143 36 74 158 14 20 168 71 4 88 152 130 24 10 77 5 252 152 147 29 18 72 174 39 185 61 39 151 169 88 171 129 231 47 225 206 212 235 3 48 55 181 112 124 80 206 205 40 66 140 77 95 46 192 233 64 192 75 240 168 1 43 107 164 99 168 235 1 89 184 175
7 225 168 192 49 69 50 37 32 18 36 150 12 181 47 179 114 154 171 163 115 197 16 35 199 193 154 82 42 128 7 160 4 236 22 58 220 23 99 210 53 106 200 167 25 248 80 51 2 85 166 165 27 212 191 95 13 46 77 195 27 143 145 128 94 178 132 56 200 36 9 214 188 202 62 114 108 222 96 125 39 135 5 51 231 193 104 146 102 33 208 27 181 222 21 253 54 62 155 0 2 158 224 18 128 206 248 56 149 41 255 137 244 124 14 24 96 153 13 66 103 14 116 253 179 24 34 7 94 1 11 207 37 157 10 249 247 147 42 238 76 222 110 114 255 81 216 181 182 100 88 20 205 235 255 5 223 189 170 187 216 200 81 20 194 110 79 221 208 105 175 142 27 139 199 27 206 218 13 212 93 82 115 20 192 182 201 102 87 73 58 216 190 154 124 134 20 104 0 29 250 70 221 47 64 220 168 98 86 173 225 41 43 228 81 88 27 174 31 40 46 203 223 186 207 28 220 114 196 48 88 86 239 109 130 117 187 13 211 62 162 66 211 98 203 96 157 240 215 153 129 169 86 121 103 76 123 71 212 117 213 74 151 5 223 91 150 244 169 94 162 190 220 172 52 47 120 0 43 95 46 226 126 39 119 57 193 48 138 156 114 234 176 207 230 74 97 234 69 239
