P3
100 100
255
115 33 212 229 223 18 142 80 41 67 215 238 255 229 43 10 123 206 138 208 137 64 202 129 126 24 134 51 169 196 221 159 196 144 36 78 60 182 254 69 37 89 113 193 89 126 98 152 5 102 127 206 8 50 121 252 104 246 108 36 34 12 191 75 4 135 69 161 79 0 216 6 173 182 240 206 144 228 166 218 4 229 233 167 125 50 145 142 41 180 242 234 121 64 232 134 102 127 73 193 160 97 89 44 6 88 98 58 148 174 224 176 251 118 39 122 223 233 65 115 141 127 186 24 55 107 210 155 97 144 142 127 122 41 72 159 210 187 11 51 60 170 117 109 32 151 93 50 65 152 227 170 47 215 35 147 116 240 58 145 233 57 115 67 100 207 127 140 36 246 162 114 24 242 134 170 11 108 153 169 145 22 214 168 141 168 57 231 37 34 132 199 188 243 197 163 232 190 197 93 237 126 248 109 152 76 119 126 122 54 1 240 236 69 122 32 227 115 210 31 81 136 230 96 184 86 178 173 238 51 175 246 213 76 252 226 214 144 212 176 99 192 77 205 86 38 109 237 42 148 66 79 177 154 115 226 214 148 154 24 138 14 13 253 101 132 253 139 236 207 68 189 119 10 242 199 170 152 73 45 104 99 27 174 176 166 157 162 101 204 61 48 204 125 200 26 179 33 159 85
228 124 243 156 113 249 110 203 111 132 255 203 138 151 222 31 254 242 162 154 203 39 8 210 137 98 230 254 204 217 79 119 173 58 120 236 223 219 255 205 224 93 186 144 103 40 22 203 188 3 9 186 165 113 137 208 126 20 207 64 101 143 96 99 172 34 9 32 242 171 13 210 117 53 168 184 78 201 159 140 225 255 233 174 155 88 242 185 176 10 167 195 82 74 209 133 229 229 11 176 51 209 23 56 144 98 10 23 215 190 91 193 135 146 9 138 99 19 250 226 136 138 7 25 240 2 182 164 198 157 28 28 9 66 61 85 42 129 135 30 230 143 216 229 49 55 84 40 160 198 6 205 162 201 132 174 129 45 106 172 226 220 181 250 10 59 239 74 227 236 254 73 231 97 68 144 207 197 236 171 19 125 28 51 139 165 91 99 131 157 137 208 204 160 143 196 87 17 29 223 31 21 160 235 186 21 2 207 119 3 51 10 245 143 13 212 228 46 10 24 210 29 131 149 230 225 26 28 197 105 117 229 248 48 194 104 252 71 227 182 42 239 254 151 129 130 243 88 171 102 83 36 143 207 191 8 239 148 218 113 187 253 190 7 53 119 131 137 74 106 94 244 230 42 242 75 247 93 111 228 74 119 85 85 194 200 10 3 211 185 29 78 117 74 46 186 45 240 67 227
44 98 185 230 144 232 217 182 87 228 17 45 77 122 127 192 73 216 211 57 74 174 233 131 55 136 217 158 23 8 49 111 94 235 237 20 75 38 221 38 223 223 45 238 111 160 241 161 173 20 47 162 249 18 9 65 8 151 196 39 8 176 180 31 237 105 100 181 130 176 136 83 102 28 63 146 27 164 84 215 224 154 148 21 217 254 6 32 207 102 200 229 253 204 158 217 128 239 209 50 150 171 31 67 236 79 144 9 200 201 62 202 206 60 192 192 46 146 128 182 49 97 43 109 115 254 67 214 34 84 183 249 48 96 167 110 16 24 17 42 85 50 162 173 59 6 96 98 41 255 146 148 171 217 171 49 188 222 104 178 28 118 107 25 57 16 196 183 97 235 160 198 29 234 8 9 103 5 148 2 234 83 114 248 148 71 5 152 217 55 155 70 15 194 168 6 70 100 55 58 130 182 209 58 35 151 244 146 221 201 120 216 131 55 12 213 39 146 26 118 105 173 178 30 176 238 6 20 143 226 216 86 203 51 17 108 102 43 108 135 124 78 171 245 73 5 126 95 250 31 185 140 194 67 160 179 212 253 3 176 13 122 207 59 180 204 196 108 124 72 115 245 65 178 44 175 29 15 120 79 50 104 184 222 201 224 207 226 247 157 67 90 100 87 92 149 174 0 146 159
51 164 152 52 245 230 17 234 129 249 218 155 160 247 223 147 188 19 143 52 92 202 176 26 190 129 171 189 119 99 131 20 54 181 78 149 155 253 217 253 125 209 109 160 209 25 118 124 144 189 16 98 142 248 136 96 253 188 23 231 7 22 88 132 88 174 158 217 126 41 142 44 250 43 162 245 92 51 136 24 61 54 0 22 172 22 202 51 64 25 118 98 50 16 141 11 2 235 193 16 144 34 110 239 158 213 236 148 18 155 193 86 20 67 71 5 56 200 243 228 55 123 199 69 226 231 108 192 221 241 243 179 106 198 84 199 138 188 38 175 177 19 237 199 183 87 32 118 233 19 21 202 6 208 225 124 121 123 254 19 189 254 223 105 119 211 134 240 150 220 224 249 62 204 101 247 3 2 164 103 37 203 202 180 114 131 97 60 29 103 232 38 96 217 121 109 192 22 101 67 200 62 67 16 96 137 145 196 59 32 136 26 157 252 216 101 130 255 27 77 250 98 229 187 222 124 15 156 255 60 204 210 129 131 155 31 19 37 82 49 123 199 159 229 210 149 76 110 146 223 56 173 93 123 102 75 179 239 185 162 169 190 209 175 114 175 204 186 221 126 158 63 93 5 79 245 148 219 100 161 77 115 162 106 97 225 64 145 95 44 29 102 238 161 105 159 161 93 142 210
203 22 179 178 153 64 57 52 138 120 38 132 127 184 59 159 102 125 124 229 48 45 169 96 126 188 160 17 168 169 67 165 195 77 140 225 237 180 170 51 65 173 155 31 247 212 244 41 152 45 30 64 229 227 102 254 33 44 102 15 249 54 176 121 218 71 42 46 221 242 38 102 199 188 96 31 111 100 131 114 30 154 49 205 141 207 200 247 22 200 105 242 42 227 130 26 195 37 34 225 59 80 13 203 188 5 61 194 68 19 122 7 8 157 82 216 67 68 48 136 180 73 104 43 18 173 125 75 229 18 149 158 171 228 79 133 75 150 227 62 200 77 26 255 24 17 240 169 179 81 142 79 126 80 80 77 84 57 153 242 21 133 137 168 44 69 166 41 171 27 172 196 26 177 133 89 108 89 238 156 226 155 148 70 82 192 213 51 20 199 243 236 132 15 132 241 2 80 132 126 42 131 61 52 157 241 137 14 215 107 222 96 138 111 201 217 21 119 170 220 58 167 207 105 236 59 123 103 109 191 20 80 27 43 108 98 184 35 170 206 188 186 107 180 180 15 117 245 244 52 252 88 133 79 5 142 221 152 133 39 143 246 128 218 183 191 192 22 103 151 193 193 32 223 212 121 49 119 20 86 200 38 66 22 197 238 150 70 164 30 107 228 17 83 215 125 157 83 177 95
18 141 48 175 134 208 92 92 215 183 43 226 198 0 116 198 205 60 204 208 224 17 51 188 126 191 236 82 185 109 202 84 2 90 22 228 96 154 202 227 238 135 4 165 175 166 175 164 132 128 29 255 212 108 140 91 12 45 206 22 211 60 129 75 41 75 59 163 17 243 33 144 36 3 231 26 209 29 9 78 170 186 133 129 255 247 239 153 154 68 173 154 22 170 34 30 170 59 31 195 8 47 46 135 249 176 185 179 21 122 78 126 93 33 138 27 161 234 142 217 14 58 69 120 175 116 201 241 26 52 62 175 142 166 142 174 10 232 243 182 26 14 39 162 37 142 165 253 150 234 206 36 167 122 211 198 106 171 200 58 57 35 60 193 120 61 210 197 157 168 235 27 70 36 145 108 64 201 0 128 255 52 247 143 151 10 196 251 87 194 102 58 5 17 117 50 20 88 93 205 92 45 125 150 62 119 76 95 40 213 118 113 35 74 19 27 39 118 40 196 186 161 186 250 220 218 21 20 233 33 158 3 39 6 149 105 198 65 117 184 34 168 101 225 49 37 23 120 232 91 30 160 57 186 141 11 74 217 220 231 10 199 215 76 108 62 19 246 39 252 187 58 169 22 52 120 35 164 173 31 27 64 195 95 72 126 234 28 82 26 168 65 165 88 215 94 26 55 243 128
87 33 252 119 80 53 214 135 138 184 214 227 182 68 119 166 126 31 75 50 143 10 44 14 59 196 126 9 37 215 241 203 188 231 168 9 206 159 3 66 84 7 177 83 94 98 56 143 52 121 56 84 181 89 19 64 3 130 28 1 124 168 97 84 39 223 214 193 55 105 1 135 19 113 93 32 211 224 161 234 28 221 22 206 185 78 32 80 51 66 82 64 161 13 213 47 145 3 101 208 180 69 241 113 129 53 174 110 93 6 17 27 78 101 119 4 3 247 32 92 8 123 201 183 104 31 116 212 21 217 142 146 47 237 136 174 54 254 138 60 183 140 65 90 54 92 235 12 151 66 182 44 86 111 200 77 242 60 82 25 162 253 161 9 215 20 0 152 67 17 40 25 89 183 4 88 56 224 93 175 192 220 98 69 1 169 10 146 160 212 130 183 120 56 224 166 193 16 186 125 58 121 60 134 95 57 164 254 18 68 232 61 165 149 190 141 145 254 237 67 235 2 234 109 14 191 143 183 38 10 75 148 55 126 28 26 119 254 102 105 85 250 183 123 160 86 154 118 10 206 12 4 188 247 180 194 22 163 71 77 92 168 37 161 177 184 189 46 10 67 96 104 244 255 176 75 54 224 161 211 211 31 152 124 58 157 238 107 55 104 6 128 167 106 135 176 124 96 148 107
235 185 220 35 120 81 231 68 236 140 59 115 143 36 193 178 92 142 88 47 128 114 167 98 216 39 48 48 141 234 134 92 242 60 190 222 145 99 36 161 10 217 69 247 4 139 86 243 109 7 27 242 24 87 207 124 170 60 19 22 169 4 111 168 131 222 161 79 71 185 223 126 253 55 33 22 52 189 96 131 201 192 157 51 2 141 214 212 238 221 251 143 41 157 40 51 24 137 163 151 46 200 124 7 83 161 21 221 201 114 126 62 41 105 108 121 99 88 195 160 77 147 1 249 12 158 187 196 231 97 37 50 129 6 28 144 152 26 199 250 84 89 161 208 220 135 122 25 96 248 161 149 67 246 50 166 205 187 28 141 231 53 185 211 75 85 185 70 169 167 73 109 147 97 43 87 88 212 4 21 192 236 35 147 100 61 186 187 82 57 225 148 211 138 71 109 73 45 27 0 100 220 175 115 3 206 128 154 249 169 171 177 82 186 178 84 47 127 171 198 209 183 124 190 226 213 157 47 126 98 39 71 46 137 13 117 87 195 215 174 200 161 230 127 211 103 101 44 99 71 121 158 210 48 186 2 162 39 53 158 27 249 221 36 7 217 199 250 140 252 5 213 163 21 204 198 96 136 2 213 55 236 155 216 244 187 143 61 76 92 69 4 30 117 120 0 144 140 141 21
22 8 34 174 178 248 164 210 236 176 150 70 215 99 124 121 161 34 108 154 45 51 253 153 213 104 26 94 112 102 216 160 97 147 229 168 139 235 28 68 233 238 26 223 90 59 173 158 94 156 143 195 58 85 93 162 202 31 44 94 6 63 118 99 38 99 64 49 171 47 24 196 95 210 80 116 161 196 14 40 8 254 70 221 210 206 190 113 43 34 26 0 53 54 245 202 215 227 235 96 27 166 63 6 235 219 224 82 102 250 225 9 25 118 40 221 14 159 94 200 129 180 95 234 156 190 70 200 91 127 198 72 129 237 29 15 83 93 145 5 165 230 2 172 127 188 187 84 12 177 194 95 49 18 69 42 66 209 82 247 194 90 166 147 62 148 64 146 43 210 174 166 134 189 43 213 215 135 201 170 46 34 92 124 91 98 67 80 168 140 150 42 234 136 248 124 164 29 125 189 5 112 237 117 94 233 35 148 100 222 234 113 216 146 50 242 140 157 204 48 163 112 208 67 88 214 7 46 42 102 109 125 167 44 121 56 125 250 83 148 10 176 163 64 135 33 136 66 179 56 196 125 53 129 20 30 187 179 61 49 204 25 57 122 35 218 59 43 213 165 44 204 237 189 46 114 104 194 228 237 30 138 121 146 130 7 155 135 21 172 175 84 242 18 122 59 223 28 24 87
148 195 95 197 34 176 162 240 0 35 56 93 65 114 40 253 184 249 253 175 133 188 251 136 164 174 224 253 207 231 3 82 190 93 193 67 17 61 17 178 111 219 23 41 153 249 14 203 147 119 219 139 29 24 46 182 62 88 81 232 33 108 89 234 217 190 95 47 0 212 149 239 149 128 81 170 30 47 4 64 253 192 21 122 166 21 132 126 165 115 201 175 103 107 19 127 97 62 234 220 199 99 101 65 52 240 66 160 203 199 62 226 47 119 106 164 130 66 223 15 205 158 107 29 234 174 110 49 184 228 171 116 249 59 6 241 13 197 87 222 227 140 11 188 218 45 199 115 233 195 28 56 31 103 222 217 100 137 188 192 130 206 36 80 76 58 246 177 91 61 58 145 0 167 210 206 104 151 102 22 97 219 27 106 92 80 207 250 89 120 20 157 145 72 111 74 88 25 41 99 191 184 159 203 96 151 208 96 90 170 64 44 77 255 146 77 75 64 153 179 1 217 46 212 216 158 243 180 180 105 94 186 143 39 26 47 18 165 34 160 142 168 31 69 166 252 241 50 241 136 186 101 127 178 251 172 78 208 5 137 1 197 74 48 113 234 208 88 91 52 248 204 186 77 66 131 211 228 82 86 41 75 70 29 6 2 129 240 242 139 119 37 16 168 34 232 85 176 252 53
120 20 6 38 36 179 158 217 253 140 10 86 239 9 46 88 37 135 124 26 243 215 216 54 137 9 204 160 214 159 119 156 147 220 153 25 13 20 59 218 45 223 19 66 129 225 187 118 81 214 204 170 112 155 10 153 125 75 215 67 117 5 117 30 58 71 164 211 224 40 47 36 224 63 243 57 85 145 223 163 184 190 229 64 229 89 80 118 76 155 138 219 118 79 126 110 130 222 96 148 248 64 124 128 219 104 255 198 219 47 239 130 81 167 156 205 170 4 36 153 83 145 119 190 78 204 238 130 228 129 231 96 236 154 233 54 53 214 111 107 210 255 100 52 129 131 79 12 136 199 52 219 38 32 164 95 201 172 156 154 173 211 67 38 221 210 216 12 90 247 111 160 221 172 28 232 215 252 217 240 78 52 239 152 57 204 192 190 108 189 13 146 207 115 238 214 247 232 64 92 235 233 238 79 76 230 248 223 209 5 73 216 140 99 164 243 62 214 46 47 65 182 68 66 119 57 232 8 55 211 245 197 149 239 251 84 173 171 120 9 235 245 77 219 37 233 76 235 190 175 183 18 30 124 226 3 58 123 39 57 48 70 100 145 156 141 239 34 36 95 234 159 233 122 214 228 131 38 223 179 54 28 22 163 89 79 22 197 194 177 117 131 194 60 125 108 177 138 58 19
189 41 102 56 190 171 27 40 51 205 186 145 237 125 154 128 75 19 45 123 130 209 205 8 150 41 194 254 203 243 220 209 238 40 81 165 56 18 75 80 157 20 1 104 124 152 149 75 167 175 240 125 226 204 0 109 6 131 149 210 165 141 219 73 155 10 121 73 68 75 206 204 128 157 23 230 178 170 0 125 2 52 195 162 49 170 121 6 151 54 219 73 195 68 41 163 242 91 81 242 179 250 90 86 22 153 58 37 16 50 133 20 185 98 69 150 99 38 107 125 149 214 162 233 123 176 200 43 92 211 200 165 241 45 187 223 21 245 244 233 38 84 75 248 235 46 96 112 188 73 73 199 130 235 102 219 1 164 3 97 102 113 25 118 19 216 28 147 184 56 59 103 242 112 113 125 12 197 235 138 204 10 136 190 207 217 66 188 137 231 211 69 9 57 210 54 58 178 250 84 42 176 241 1 148 14 198 216 93 111 201 141 62 219 26 200 33 20 151 43 62 18 30 184 104 199 194 0 13 3 43 26 91 114 142 206 225 1 118 23 248 197 249 230 25 44 181 105 209 144 6 80 176 119 70 115 190 145 247 117 216 178 9 147 74 48 38 135 140 228 99 248 138 35 84 78 91 178 18 114 49 139 189 53 199 64 144 203 220 178 218 6 101 116 233 251 101 93 52 33
168 72 135 245 50 135 150 213 43 42 151 7 141 53 71 156 141 255 106 38 93 50 119 255 186 215 112 243 78 27 6 6 125 250 251 124 218 26 52 43 50 107 151 46 136 107 19 109 39 19 115 192 227 168 161 21 17 215 224 63 191 2 226 35 128 217 120 225 28 15 180 151 222 8 171 36 73 234 31 125 145 239 128 102 181 10 53 102 17 166 249 41 148 61 28 244 24 53 145 108 252 163 155 254 9 9 52 229 175 89 148 5 203 226 68 215 152 212 111 104 41 245 78 254 67 40 209 24 84 71 131 5 36 26 238 185 115 83 173 243 4 31 229 110 191 153 153 131 14 114 189 95 12 205 135 87 233 30 115 81 160 162 216 161 128 20 44 124 162 254 72 173 161 48 137 17 168 130 255 230 90 180 146 22 251 146 41 99 66 245 154 26 71 97 3 92 24 213 1 216 107 199 125 207 253 40 52 182 31 15 160 231 56 199 161 210 110 132 81 145 73 174 162 56 162 161 113 230 165 169 135 106 166 111 216 57 154 242 116 42 118 105 243 238 101 44 240 53 45 212 155 220 18 6 218 201 58 10 50 121 208 250 157 189 235 23 83 40 186 158 40 76 240 94 180 107 250 157 35 109 177 78 14 252 176 59 253 43 30 25 169 99 192 228 238 248 18 160 112 90
210 128 246 215 117 180 72 150 219 236 245 223 169 63 147 123 239 226 113 9 156 22 97 37 129 0 60 154 95 49 120 47 146 128 61 182 10 140 61 111 179 207 61 139 229 116 43 248 167 6 153 162 89 162 168 52 160 119 127 139 247 112 121 24 93 31 47 29 119 97 28 11 9 111 20 15 28 162 196 242 150 169 80 43 234 132 126 176 68 109 105 160 114 100 30 219 13 207 212 93 208 101 119 244 3 98 37 65 230 38 168 165 210 154 22 56 138 28 147 21 5 118 240 30 171 114 217 197 242 46 97 175 64 71 171 103 59 12 30 106 88 216 16 165 70 80 146 156 206 147 109 201 167 163 111 66 86 230 17 95 163 186 166 86 203 57 177 143 163 131 251 248 17 230 95 185 138 106 2 32 190 199 106 81 49 153 208 11 134 158 95 89 116 12 177 49 120 229 76 168 202 109 104 140 76 202 154 164 145 120 212 17 250 194 199 116 34 40 222 24 253 91 80 94 127 138 224 162 244 155 246 104 14 13 179 116 199 236 138 105 124 43 132 33 176 40 150 146 245 206 134 185 201 241 170 106 36 226 180 137 5 232 107 117 162 172 63 159 62 28 42 19 40 147 43 60 143 113 253 8 30 129 136 167 64 56 233 27 178 250 55 185 0 238 48 148 1 199 223 161
228 93 117 46 112 246 116 45 33 85 208 143 60 120 37 220 246 7 25 158 37 94 19 2 193 200 78 247 210 241 118 94 77 238 62 124 73 233 80 218 173 103 106 156 218 184 89 66 154 113 246 181 165 24 83 123 5 188 64 176 207 78 106 222 179 84 196 127 89 229 21 53 42 13 103 13 78 224 80 89 219 2 203 68 50 141 163 115 12 234 55 197 64 218 209 238 41 184 198 50 172 175 131 187 85 155 175 42 196 224 122 198 175 158 118 0 253 208 10 55 234 66 135 48 20 112 32 85 67 63 3 200 202 124 84 56 20 176 157 57 62 145 55 206 64 60 2 178 193 107 204 242 239 81 66 81 76 69 252 23 56 25 45 31 67 204 157 170 127 225 26 27 99 139 239 144 160 9 207 201 37 187 208 70 131 187 159 129 158 186 22 51 71 166 199 78 144 0 239 214 160 23 197 103 136 89 107 131 149 84 195 146 253 239 9 37 152 210 157 15 142 183 106 241 100 67 193 184 38 104 83 118 33 205 246 86 108 38 111 202 228 211 35 251 230 225 45 69 186 230 8 110 3 25 82 86 134 208 221 233 154 34 216 82 90 43 101 160 163 162 216 159 78 53 141 149 50 12 93 51 156 137 208 79 105 203 73 195 213 58 90 190 83 212 80 25 109 223 16 152
160 213 163 59 26 45 17 62 184 8 94 207 46 235 204 71 8 25 117 30 87 237 196 36 182 21 70 105 82 167 16 52 63 38 228 104 108 165 109 218 161 75 163 23 35 108 232 100 162 179 23 85 181 66 129 255 178 104 35 20 80 239 247 247 136 196 88 121 31 241 5 198 1 167 163 229 12 142 7 201 129 162 66 198 235 53 72 0 94 119 123 90 85 22 215 15 167 11 147 92 215 194 79 251 16 231 46 73 172 10 106 41 88 12 204 75 98 71 9 206 35 152 218 154 93 196 177 170 126 20 215 214 45 134 101 32 163 212 16 52 13 82 85 82 214 1 100 21 18 228 121 66 43 137 67 14 250 95 197 157 218 134 20 10 246 125 226 248 26 203 60 78 240 61 51 202 67 12 94 116 76 87 142 253 116 31 206 166 231 127 192 168 75 128 30 129 82 9 139 73 215 45 255 195 71 171 47 167 17 221 117 42 119 144 177 226 181 190 10 12 18 86 193 218 152 145 254 38 247 115 246 86 70 130 141 99 65 126 73 51 102 224 248 35 152 17 118 22 170 100 49 161 235 59 127 192 108 254 183 32 155 195 190 106 19 134 57 32 20 55 25 131 137 33 254 129 60 224 210 84 24 135 219 237 76 100 118 166 52 200 184 145 144 176 149 233 177 151 24 98
158 33 173 99 58 18 24 85 89 111 114 69 162 56 202 250 43 41 99 106 92 27 182 245 198 174 234 179 83 218 158 241 108 117 131 62 169 54 231 54 111 16 135 128 5 10 94 188 7 136 125 77 251 159 190 52 33 81 11 138 226 203 53 187 138 147 58 18 83 130 199 28 3 122 111 122 248 245 34 112 112 141 70 28 77 128 92 63 69 17 126 191 18 254 14 229 187 251 209 218 87 102 9 151 164 192 39 108 65 83 148 155 134 215 159 183 187 108 172 33 70 155 197 43 74 49 127 191 194 230 137 219 116 43 132 82 235 167 60 214 58 225 24 19 164 219 228 209 1 67 61 241 55 82 62 107 80 72 158 51 51 95 226 84 51 204 154 31 231 243 21 143 122 235 153 200 117 49 215 22 226 124 155 173 185 239 123 87 206 8 169 189 139 76 183 123 118 115 201 73 189 149 74 0 163 90 155 232 21 107 151 72 23 112 206 200 207 61 72 209 108 145 178 54 240 3 107 135 252 149 254 174 51 37 42 160 109 19 205 246 9 93 146 28 125 65 181 181 24 112 128 135 21 204 142 206 31 177 59 188 149 158 154 167 85 112 254 183 78 241 148 60 187 106 17 157 192 224 137 221 133 194 248 116 223 0 220 128 165 27 245 164 144 146 173 247 55 167 192 165
215 197 73 158 171 10 181 186 185 228 187 6 243 67 221 181 169 218 76 157 177 37 241 250 144 196 89 246 4 84 145 46 145 178 255 236 84 17 81 155 218 241 230 59 31 165 34 136 115 136 230 144 101 212 141 116 195 205 82 114 203 57 48 244 212 27 58 84 189 39 94 227 67 207 220 123 234 221 113 140 247 120 252 25 9 140 217 111 115 2 176 208 177 133 154 14 130 200 143 134 98 231 211 217 15 215 229 138 95 44 99 175 218 218 154 250 148 102 29 57 2 36 232 220 84 169 157 226 222 99 192 238 5 203 101 164 206 212 85 145 134 140 180 178 152 50 126 199 237 211 200 203 161 167 59 157 244 36 229 118 234 148 51 19 243 6 165 177 243 128 89 0 58 166 97 28 149 140 99 219 209 113 160 121 12 24 184 77 119 173 35 47 48 240 64 155 95 232 200 201 239 41 226 223 255 34 144 230 55 193 165 218 205 61 84 13 10 6 82 102 239 84 231 50 197 171 215 109 240 185 150 28 183 179 37 8 80 109 235 210 111 144 103 87 180 52 237 168 29 134 163 226 147 199 122 168 6 236 200 181 31 32 194 248 76 82 55 38 87 105 168 38 117 230 59 184 96 71 181 230 199 3 10 230 99 244 124 135 33 67 183 237 228 188 96 229 31 98 13 12
235 215 44 52 250 28 129 51 246 118 239 69 172 155 54 191 221 183 170 170 228 190 88 41 97 151 191 179 147 112 245 44 203 74 191 239 210 240 207 235 181 196 179 159 150 146 98 247 55 117 254 49 68 197 188 49 14 139 242 171 75 74 182 76 182 2 234 192 16 97 227 23 107 150 182 121 78 172 117 74 125 47 219 72 208 8 69 126 235 252 203 23 195 215 12 171 180 196 233 207 139 202 64 221 49 8 56 45 3 159 180 192 20 245 235 142 183 244 114 218 194 30 50 132 61 95 11 254 41 67 235 182 93 139 176 18 119 246 49 14 8 21 134 165 50 157 193 97 249 12 207 204 193 220 84 87 182 204 78 74 128 92 66 60 160 144 72 108 237 162 88 83 2 144 211 129 146 27 23 214 53 111 119 50 145 217 179 24 125 178 2 72 47 122 58 106 111 138 120 200 138 154 111 39 93 237 239 227 50 101 109 159 206 155 201 190 152 70 227 0 82 206 51 156 72 174 48 243 223 44 79 241 202 204 58 107 114 24 93 23 37 4 111 13 123 154 40 255 160 224 214 96 93 157 99 202 79 63 191 238 174 1 129 67 244 237 112 179 140 180 48 129 179 83 192 98 6 107 134 26 99 15 199 64 26 99 107 162 252 188 172 99 187 52 216 187 186 236 55 20
90 199 79 35 16 164 59 179 246 57 176 105 247 59 93 2 179 141 25 152 178 191 147 212 87 98 134 96 226 211 53 96 176 111 194 238 203 107 183 14 176 43 98 98 38 222 252 193 183 60 110 13 182 109 199 55 206 243 181 158 236 187 228 165 38 170 25 135 82 106 201 36 191 46 221 204 233 102 39 155 172 121 232 38 246 19 101 110 196 255 78 84 218 230 55 134 120 5 124 247 82 54 104 254 138 130 240 245 194 203 189 219 156 231 200 11 120 33 146 133 187 89 131 120 225 91 43 30 98 186 178 91 187 20 35 67 210 169 110 198 72 202 51 165 51 9 195 168 41 75 186 228 252 119 135 54 231 196 5 45 29 133 25 184 151 201 18 85 122 16 169 29 66 176 88 106 245 213 71 177 227 150 136 161 55 110 151 23 130 60 82 47 10 159 56 171 77 122 52 207 95 36 111 180 141 114 3 103 129 106 193 12 194 3 155 183 146 40 178 229 56 222 206 134 82 49 252 20 187 248 164 93 247 15 198 40 82 195 15 167 189 70 150 126 47 81 127 202 13 209 9 130 171 12 92 179 56 244 46 180 16 192 54 250 104 102 83 40 68 238 202 4 61 22 77 21 80 185 202 76 31 157 254 109 17 151 188 51 125 133 66 235 240 76 247 186 107 136 49 74
170 23 101 127 226 8 229 66 115 248 127 177 187 198 232 25 207 208 140 173 1 134 72 212 226 218 234 160 14 198 95 236 30 215 40 224 3 203 150 189 42 129 151 59 123 252 60 177 98 65 168 78 107 152 132 172 124 81 128 202 82 223 162 140 69 252 107 2 41 122 216 127 215 120 120 91 233 160 84 238 97 170 148 79 50 169 213 41 200 24 33 3 152 131 72 85 1 22 121 186 9 235 150 22 208 205 41 196 208 209 136 135 251 217 56 2 149 218 180 218 238 125 163 167 82 99 70 171 228 225 173 117 160 245 81 123 204 146 45 236 230 69 37 119 123 240 84 184 73 49 232 213 140 193 5 79 188 126 179 190 89 60 98 36 178 125 246 185 182 228 187 236 69 10 201 106 247 46 245 228 140 203 18 247 5 49 64 134 127 123 93 53 54 116 37 94 6 60 193 94 202 71 134 194 211 80 12 166 50 33 133 18 230 125 216 164 26 12 178 82 71 155 242 104 115 73 214 172 188 242 124 95 59 53 56 79 141 123 233 172 101 50 139 9 51 19 76 179 60 37 54 208 179 76 71 199 4 99 110 92 105 32 241 44 173 10 86 28 167 168 62 227 104 79 204 169 123 118 226 163 70 253 201 109 50 173 230 84 44 48 136 254 248 201 221 183 188 134 243 26
117 13 255 16 240 19 180 141 188 2 111 67 165 184 102 181 243 130 184 126 109 157 15 204 162 147 4 115 32 19 40 146 98 28 159 225 186 87 123 125 209 147 133 199 253 36 252 192 138 161 10 74 93 33 29 58 125 152 46 187 88 193 118 222 194 48 219 185 180 213 128 101 216 63 3 206 51 18 243 26 138 172 229 253 66 79 49 147 59 145 122 188 192 231 164 216 84 181 32 178 35 200 13 170 92 84 173 88 165 4 59 118 227 184 83 66 155 244 89 27 35 223 142 97 157 217 153 170 184 93 73 92 222 229 71 148 247 189 154 137 129 209 124 99 22 244 210 115 59 246 104 146 224 147 178 232 203 209 69 124 181 60 124 144 108 186 184 184 198 108 195 180 85 153 15 246 208 141 154 147 191 125 14 80 70 192 37 98 45 219 155 167 105 148 163 150 88 221 104 150 71 254 108 227 67 179 108 195 22 119 39 213 186 88 68 38 129 238 74 75 98 76 188 206 226 83 37 92 196 51 70 186 234 41 254 122 13 82 74 12 188 38 227 224 234 21 205 251 237 109 254 211 5 126 86 215 166 14 118 254 210 192 10 67 65 173 206 227 26 17 91 111 217 217 240 80 36 248 162 122 4 100 176 76 47 211 11 68 109 177 232 88 24 118 248 48 251 96 91 102
192 183 44 120 206 145 110 42 144 164 198 245 249 239 13 87 89 187 77 53 53 53 140 209 252 30 219 83 50 177 236 53 4 254 114 27 55 111 114 187 127 161 254 89 245 122 252 22 85 241 89 12 55 149 131 254 192 158 115 229 103 191 145 106 93 185 70 92 76 57 136 91 183 27 193 133 7 84 138 233 196 178 177 146 147 93 21 228 33 71 9 234 216 5 157 105 79 162 218 109 67 10 22 242 113 14 199 14 61 76 141 197 33 168 80 191 136 53 246 215 29 131 253 58 6 24 125 34 134 54 30 167 33 88 16 143 64 13 208 154 100 123 35 150 205 151 187 24 139 25 251 234 228 129 237 87 254 121 93 78 67 122 230 213 49 254 160 151 31 55 82 76 41 204 158 112 137 103 234 156 21 132 187 154 116 39 13 34 112 141 211 233 197 135 255 118 136 31 212 242 201 240 142 180 175 243 161 248 41 131 46 221 233 8 130 80 249 38 77 128 106 138 207 152 213 131 14 3 25 7 34 84 115 42 131 228 41 8 65 223 215 133 233 234 33 251 173 47 195 207 18 92 112 235 31 28 202 207 213 73 150 235 210 247 111 191 188 228 56 216 8 250 4 209 25 57 155 15 160 52 198 44 218 142 130 105 4 16 9 57 112 178 100 95 161 130 160 72 106 137
205 26 217 196 202 131 59 161 146 190 206 232 207 90 193 30 36 51 237 213 174 22 71 106 35 22 191 196 101 206 29 140 139 250 192 15 151 132 101 97 93 44 169 160 15 129 119 179 44 191 32 151 71 29 78 72 120 92 16 126 89 204 142 129 56 159 65 128 37 221 82 37 129 164 119 211 227 153 40 254 185 61 254 48 50 1 223 167 121 218 135 213 75 219 25 69 62 206 175 202 88 19 142 139 177 123 168 218 125 63 149 3 203 115 33 124 109 116 44 172 108 37 237 4 19 217 197 224 148 141 173 196 16 124 116 196 190 61 114 134 83 205 227 89 108 46 141 128 39 121 221 154 146 198 83 108 215 175 80 135 60 125 136 62 42 190 38 104 221 115 165 253 209 162 84 204 155 199 184 249 130 180 63 3 60 226 166 231 92 3 151 162 30 140 92 118 154 167 43 142 10 148 70 197 116 109 162 240 216 42 131 3 96 132 200 123 112 36 157 103 91 24 56 205 217 228 153 128 8 34 28 129 237 3 183 43 96 99 139 157 155 138 231 11 61 127 16 135 176 9 171 126 61 113 150 210 55 46 118 11 31 83 84 111 169 3 228 141 34 102 174 72 252 184 235 112 216 76 198 144 202 245 4 207 188 66 200 200 118 39 187 119 131 219 2 162 225 92 159 169
132 134 109 178 107 102 252 74 164 231 243 20 204 59 98 224 30 225 78 130 22 253 20 232 53 169 70 4 153 161 62 81 158 5 14 91 253 132 113 251 37 249 145 95 106 252 193 66 2 121 56 162 99 93 26 202 75 15 99 140 146 74 174 245 46 215 26 141 94 58 116 43 119 245 88 124 48 87 172 51 143 28 132 238 66 29 33 1 45 143 185 138 151 199 165 74 176 116 126 129 2 80 40 151 57 93 226 221 198 26 158 85 215 93 174 42 13 160 217 38 177 94 181 22 172 117 78 34 4 149 51 198 201 164 126 188 170 182 32 32 220 215 165 71 196 108 66 128 120 233 8 94 56 100 112 230 120 172 99 196 188 215 37 216 132 159 128 32 204 241 78 20 191 232 244 191 86 122 104 105 176 45 221 142 97 239 114 97 249 88 188 244 31 97 210 211 93 79 227 0 238 237 119 217 103 82 125 129 5 87 142 137 33 238 103 82 148 230 228 23 225 239 128 101 44 147 157 160 151 211 213 225 246 6 180 3 125 97 192 192 146 139 186 86 107 30 44 199 215 79 254 117 213 154 158 221 151 122 4 84 235 231 34 26 232 141 58 88 40 140 190 53 216 135 16 209 82 29 94 45 80 11 105 204 66 27 173 200 197 229 236 150 252 89 159 31 248 122 239 25
149 130 74 53 160 160 10 120 63 20 129 14 0 18 134 76 133 74 102 24 203 170 83 156 163 242 109 238 194 151 16 218 81 78 80 222 190 40 77 168 22 111 53 64 177 76 126 174 213 188 12 157 206 130 7 89 56 147 105 192 36 43 133 7 131 144 154 237 166 69 34 113 129 40 38 6 202 155 46 91 197 234 239 152 89 108 120 210 29 172 209 152 255 187 10 35 241 126 244 236 170 226 228 165 202 226 203 34 230 111 41 231 197 59 68 178 217 54 93 44 113 245 93 181 68 144 131 178 59 190 53 67 143 125 226 28 154 41 218 87 147 82 59 19 62 115 178 226 163 37 250 250 193 11 103 115 128 121 11 135 57 94 195 103 52 85 249 242 76 43 150 13 136 170 106 35 166 19 33 46 90 193 253 208 114 127 22 192 29 107 21 199 59 18 128 23 181 68 75 163 89 32 5 124 156 66 86 14 179 78 147 223 121 246 81 212 183 164 79 116 68 250 195 104 74 148 115 235 148 48 29 180 122 141 44 199 19 99 238 206 19 36 119 46 198 34 60 230 118 162 33 157 182 55 230 157 73 91 144 78 22 216 151 91 190 48 42 139 145 204 68 199 176 236 168 191 82 223 203 95 1 48 131 198 14 198 105 37 144 233 194 75 90 190 239 16 168 246 49 202
26 96 197 6 108 245 7 92 177 63 31 110 234 207 27 73 157 250 101 148 246 77 95 202 134 3 62 237 21 238 140 180 112 36 193 153 230 169 8 27 225 255 75 231 63 222 30 87 207 177 196 143 76 255 31 178 78 238 29 10 79 111 166 117 254 177 138 64 228 80 192 34 30 250 15 8 62 2 180 173 248 104 149 45 185 161 115 149 114 122 216 71 207 29 182 11 76 230 113 34 220 250 78 66 202 144 254 137 13 28 22 173 247 53 59 119 208 231 104 53 28 158 113 74 130 108 57 119 227 93 238 33 46 240 77 217 253 16 50 117 209 248 238 184 226 85 82 63 129 63 241 60 61 108 76 84 210 35 197 116 62 44 76 1 127 238 82 215 42 51 16 1 87 184 213 16 254 6 216 147 132 86 198 242 133 200 64 192 186 164 133 210 171 166 159 81 6 243 115 143 216 212 100 186 57 21 52 28 242 198 96 253 197 22 76 209 148 30 26 185 147 251 235 214 253 243 72 177 159 209 182 222 129 92 240 42 194 245 217 185 230 88 83 5 232 115 29 9 175 186 198 58 221 60 92 101 8 237 171 117 89 221 255 179 172 87 127 157 215 23 126 206 70 225 29 14 89 123 125 181 235 254 79 221 243 171 150 74 194 66 4 179 81 37 97 204 237 164 74 30
127 117 203 16 113 58 232 13 66 48 13 190 225 88 77 161 144 207 168 161 115 44 100 15 158 249 143 0 57 168 20 251 192 51 148 35 242 209 163 42 169 176 14 230 67 164 175 205 72 235 29 210 108 189 67 21 54 156 100 122 28 13 166 58 184 24 168 4 34 52 40 54 56 104 8 227 17 63 224 220 116 121 189 236 99 31 110 231 93 248 251 243 226 159 216 225 183 64 229 18 7 116 46 107 40 126 133 201 128 119 255 166 190 152 35 121 215 225 207 164 33 17 141 116 2 228 179 173 175 106 79 214 73 209 151 89 93 196 62 69 5 91 237 86 128 190 43 200 2 1 106 155 247 229 118 68 13 1 3 222 147 210 249 178 96 148 110 168 140 50 121 2 222 12 91 80 43 248 168 129 114 153 31 102 38 143 177 162 28 51 37 110 81 176 59 205 246 250 41 56 244 150 179 220 20 49 15 40 6 26 59 220 246 218 116 165 127 249 167 63 89 5 100 177 175 22 118 177 98 239 237 148 138 147 12 185 51 248 248 231 28 85 36 70 3 117 141 180 205 4 10 32 37 151 175 154 30 175 132 99 76 246 48 233 73 202 226 225 42 104 241 132 194 188 163 138 203 77 218 126 142 48 84 159 208 24 88 78 93 194 210 61 16 83 124 72 191 145 247 241
228 23 117 185 192 249 16 48 254 42 86 101 217 96 100 126 217 226 151 205 131 178 193 218 77 155 82 118 109 84 78 41 115 14 185 103 143 221 233 215 67 189 109 210 233 8 146 88 6 172 176 0 137 59 37 58 106 149 214 89 236 60 197 58 122 231 94 72 96 190 38 3 196 183 186 15 120 204 133 95 130 175 169 144 90 24 24 47 181 201 111 86 9 39 186 150 163 197 70 66 4 253 104 139 248 189 61 18 47 131 141 163 229 217 56 198 248 207 9 227 136 159 156 7 57 179 80 187 238 64 216 25 210 209 46 207 22 192 63 174 76 252 149 7 150 213 110 169 83 192 96 180 249 154 245 129 20 185 10 139 189 70 67 54 88 192 203 86 146 136 110 3 137 36 184 158 226 201 72 171 1 1 226 150 105 53 124 56 136 147 128 117 163 40 30 163 85 121 110 75 39 180 243 18 223 41 51 206 86 171 94 250 29 189 85 135 99 16 138 18 164 54 90 5 229 216 68 35 241 225 251 230 65 235 64 223 150 236 199 251 231 230 217 127 90 232 213 189 109 97 3 31 103 5 41 102 151 156 40 151 219 165 142 252 233 230 116 205 149 148 120 91 106 8 25 212 208 97 220 152 231 2 108 175 7 234 71 162 4 118 163 157 16 241 89 32 224 34 255 209
45 212 107 180 37 83 36 11 166 185 211 128 90 219 11 17 115 210 156 4 91 228 103 114 30 233 37 179 155 119 15 97 78 108 148 96 217 14 173 50 155 29 73 232 197 73 184 116 136 254 38 230 79 248 48 241 117 114 73 196 50 76 184 116 178 235 197 89 13 165 197 170 70 226 6 192 178 230 8 143 43 42 81 39 3 130 93 160 125 142 153 191 194 103 31 144 109 181 229 221 63 36 117 45 215 15 240 96 158 209 137 127 117 81 133 82 77 61 164 38 193 221 114 122 42 15 144 131 19 44 55 234 115 252 152 51 130 195 145 113 164 166 145 77 16 95 205 234 55 44 21 11 118 245 174 231 223 94 166 66 32 228 116 188 198 177 179 59 44 243 41 200 175 41 198 137 138 33 203 38 144 60 254 141 116 63 177 64 179 168 29 226 114 86 116 250 48 89 100 24 197 96 122 62 132 36 249 178 166 159 28 217 1 76 145 159 224 31 245 92 11 125 99 8 199 211 35 197 46 40 250 211 106 214 57 109 183 6 223 46 71 198 174 198 186 218 7 221 189 28 25 88 55 112 46 126 75 27 66 77 75 194 33 243 138 213 137 220 11 90 120 75 87 219 188 93 9 33 92 112 9 122 114 158 198 61 81 10 9 175 46 90 34 69 50 61 154 57 116 20
20 236 185 63 212 43 41 151 67 140 182 179 214 77 238 68 151 217 217 205 54 132 31 14 140 72 89 164 186 203 136 210 7 131 2 129 16 237 85 22 63 185 18 189 124 76 108 212 163 17 191 247 24 182 97 209 228 238 12 126 252 223 123 70 27 201 56 152 233 76 66 10 46 32 168 33 248 180 169 54 131 186 3 168 115 10 30 195 225 113 64 71 108 135 34 55 204 37 225 216 93 154 130 204 153 25 184 68 62 176 232 78 248 233 110 98 93 135 192 89 121 207 143 186 107 33 122 152 243 194 134 189 56 105 175 188 150 176 145 232 64 221 155 117 239 101 206 139 79 20 123 70 24 4 18 115 40 229 102 107 78 233 38 53 152 86 238 24 9 76 10 251 142 206 240 171 255 226 194 99 119 99 60 145 177 201 234 196 89 235 158 242 20 247 178 46 160 219 206 133 51 28 84 183 136 5 18 213 233 241 4 128 36 28 132 70 140 174 56 95 140 7 155 51 58 134 159 58 197 130 60 57 75 17 200 174 205 203 141 53 84 103 81 12 170 81 46 229 159 210 15 1 4 84 225 237 231 109 33 142 85 219 87 50 228 74 19 206 36 68 194 196 249 141 231 31 110 12 142 23 30 78 148 84 40 4 62 148 26 158 17 158 15 187 157 173 136 5 173 51
89 245 242 199 100 6 3 7 32 39 119 27 43 200 142 234 6 217 207 0 116 110 127 224 133 192 112 47 19 114 155 4 243 129 63 95 149 176 145 85 190 49 114 23 203 143 254 3 137 47 39 34 192 237 153 36 19 216 87 184 219 157 70 142 115 28 118 29 255 252 118 233 192 95 247 33 55 223 230 185 54 226 48 225 148 224 151 132 91 63 138 41 141 9 36 58 167 66 63 34 182 181 46 94 189 90 246 23 163 191 211 182 98 94 193 207 48 171 170 249 64 67 139 56 16 168 182 202 70 217 239 9 70 117 85 24 199 242 67 214 122 134 64 125 84 231 117 52 44 250 199 171 16 84 90 204 17 147 198 234 165 6 69 216 56 75 47 159 7 243 206 227 214 86 173 121 67 127 102 156 248 62 104 185 57 162 183 51 217 132 33 244 186 50 79 113 192 227 172 86 7 185 116 153 36 118 155 156 117 151 132 207 218 202 252 40 43 206 85 111 116 40 215 119 101 129 13 211 96 151 242 58 87 248 224 226 55 111 231 250 164 7 254 207 193 175 198 205 186 234 12 130 125 156 211 218 68 24 245 199 50 229 109 9 50 96 204 79 196 204 15 224 53 11 195 191 181 19 219 7 119 106 8 171 41 195 30 136 195 156 136 154 249 54 87 194 10 74 190 247
47 155 77 103 191 186 92 231 192 19 202 26 67 80 173 146 69 53 206 123 48 64 112 104 76 204 39 78 245 139 66 53 188 217 133 238 63 150 90 21 247 118 227 48 26 174 200 40 114 8 175 90 229 154 141 10 104 71 190 112 175 94 231 80 253 245 172 161 138 69 150 53 136 229 137 242 153 160 40 152 149 164 36 81 171 52 99 203 135 111 155 227 243 240 18 55 99 206 37 27 173 13 86 118 38 121 57 128 43 186 105 183 237 21 21 224 250 216 246 210 217 137 149 63 209 196 30 230 5 246 36 182 56 238 104 84 121 217 236 40 120 79 0 69 253 94 215 151 45 32 246 149 161 140 57 162 138 58 82 125 223 40 174 44 119 189 34 45 212 9 134 139 149 251 178 142 7 68 116 186 81 132 102 210 33 146 118 249 127 224 232 73 195 95 221 81 54 245 253 73 38 189 126 90 75 167 141 91 181 245 178 62 240 159 11 6 84 86 230 95 238 1 43 13 128 62 227 67 182 78 205 174 11 164 181 12 97 75 82 153 185 126 211 66 95 131 105 171 101 147 124 137 107 232 72 67 80 160 167 160 106 206 253 102 76 109 249 77 99 194 23 109 7 125 36 37 216 29 23 183 158 101 48 143 58 26 150 148 7 62 58 214 119 210 21 97 154 15 139 153
246 191 165 155 102 110 154 168 138 246 137 192 144 137 53 69 123 111 15 81 110 186 74 24 6 142 135 206 159 248 202 110 125 9 163 57 155 128 34 182 212 78 215 45 23 90 24 212 239 239 212 106 142 180 63 128 169 112 208 179 115 121 171 153 157 207 105 198 220 59 186 139 196 84 127 227 218 78 55 74 127 55 22 126 93 233 73 237 177 47 26 47 179 192 137 143 161 73 149 250 138 63 241 13 214 59 3 98 253 53 252 252 204 5 33 153 81 201 191 157 73 247 30 93 57 4 245 229 86 41 250 212 2 186 151 124 17 135 157 208 254 185 184 215 250 217 85 223 221 129 71 121 185 69 215 242 237 18 59 213 88 2 21 144 132 205 253 193 178 5 75 64 147 50 23 78 167 235 168 212 57 118 229 221 102 22 27 19 45 130 212 233 5 203 79 190 142 129 77 115 177 80 227 107 131 93 108 215 183 46 86 51 226 144 77 254 85 183 77 2 102 161 139 0 41 17 149 210 93 68 253 113 82 186 197 111 53 197 212 3 117 66 223 254 19 23 100 21 68 231 152 218 29 14 111 117 32 199 12 63 148 180 72 189 79 73 213 7 210 39 28 62 184 35 239 49 2 48 219 197 236 78 108 225 201 163 141 97 77 137 191 31 75 16 8 29 74 8 112 203
184 166 173 133 50 224 147 54 114 226 238 221 179 73 142 155 44 71 110 180 184 191 36 180 154 132 229 139 248 47 72 245 106 70 27 129 84 135 86 155 61 207 204 244 20 70 240 205 37 118 110 248 218 154 149 92 232 20 95 165 142 178 138 58 120 181 161 37 91 92 41 29 129 25 106 243 63 248 205 236 110 128 108 207 112 207 21 3 209 95 226 193 87 20 160 225 154 54 66 33 166 106 62 19 9 35 145 131 196 163 109 114 30 210 185 155 244 199 118 15 132 140 126 211 247 181 225 116 235 37 235 73 225 113 219 94 232 149 103 173 138 125 116 230 102 90 227 135 83 118 255 18 126 150 111 217 143 15 5 202 41 133 94 117 32 217 8 111 96 162 94 115 179 166 30 138 66 123 76 183 194 42 219 75 101 156 132 20 212 53 209 71 232 141 215 229 49 34 67 185 223 189 108 84 8 200 40 193 206 56 146 48 219 170 195 201 120 48 68 109 111 92 37 202 226 68 205 111 0 164 160 24 0 113 149 83 30 133 158 1 94 37 13 48 182 162 12 186 206 15 87 97 41 67 146 195 20 202 169 81 145 2 54 216 25 1 231 5 188 131 62 33 60 110 218 135 194 14 153 231 45 105 80 31 120 42 251 0 194 136 34 141 255 243 204 21 91 87 203 215
12 184 170 91 104 188 28 224 31 125 239 28 88 64 142 68 227 146 251 148 85 82 77 241 173 33 10 58 224 7 152 44 223 97 208 80 119 152 71 168 54 253 239 81 245 0 255 34 151 48 61 77 12 137 17 190 192 1 85 80 20 123 254 166 75 176 24 240 6 188 207 224 66 251 152 217 219 49 186 65 134 105 213 147 130 180 119 115 142 15 219 124 199 154 101 62 0 190 14 67 156 36 201 77 88 52 35 151 253 133 193 93 62 78 84 20 84 154 93 71 44 94 118 230 148 248 132 41 92 24 201 200 50 91 227 29 53 78 171 209 88 217 171 20 72 175 208 115 237 157 138 136 126 75 85 48 144 14 78 8 189 246 129 19 215 246 95 242 38 101 211 94 0 75 224 214 23 50 0 151 177 5 38 96 240 229 150 84 60 5 59 12 125 13 171 23 82 205 102 180 142 153 161 23 55 132 196 135 223 137 123 25 187 193 85 142 2 128 55 143 209 243 65 170 193 135 80 157 79 170 246 30 48 199 185 248 180 105 240 197 116 50 121 221 134 122 227 150 207 59 227 24 216 203 34 70 46 138 89 18 97 166 216 143 155 179 245 93 229 148 62 20 98 212 127 4 68 57 45 222 107 123 47 57 218 20 135 229 93 87 162 222 178 19 57 31 9 90 3 188
177 177 113 219 78 14 47 189 250 209 220 167 47 125 156 83 222 107 224 118 88 110 196 149 115 118 71 147 233 126 151 7 144 17 62 244 140 177 34 89 151 64 200 98 6 164 250 138 194 129 216 133 206 193 105 12 239 52 135 215 43 8 67 217 229 239 74 138 234 99 169 192 39 184 12 180 120 61 148 232 198 88 152 94 198 210 206 155 221 73 32 85 178 55 6 209 128 118 143 245 254 66 70 1 238 183 176 26 93 193 242 82 210 25 46 146 63 8 110 81 235 150 196 180 198 47 166 167 34 91 228 186 97 59 154 177 182 216 181 129 216 60 134 5 184 164 135 143 114 138 241 33 86 87 154 184 169 31 127 81 154 138 153 224 15 109 90 61 170 236 134 198 78 79 168 187 141 80 191 174 42 52 87 139 96 233 14 55 228 189 127 38 85 16 127 253 64 149 68 30 109 180 6 249 231 78 172 231 223 63 211 151 126 37 251 55 102 163 179 166 140 142 20 144 173 99 61 57 181 206 224 5 227 45 47 237 11 52 68 84 247 66 18 99 115 0 214 254 155 42 111 216 244 29 1 117 170 47 142 83 151 161 29 249 176 143 7 25 71 131 214 128 235 233 197 228 54 61 217 202 246 226 209 158 233 127 210 79 77 108 125 164 211 6 72 190 84 69 169 239
68 249 39 209 24 151 64 167 214 132 219 144 10 52 224 124 101 198 156 186 226 42 0 7 34 147 51 138 151 226 67 5 20 245 53 250 231 5 130 86 68 254 38 54 28 132 175 33 144 76 26 2 239 173 134 75 123 90 61 99 36 152 214 145 148 177 200 44 20 204 245 26 197 223 216 52 206 184 116 95 163 169 10 128 137 229 186 135 8 76 187 137 159 255 170 36 189 115 157 119 165 222 40 185 16 95 46 2 251 205 8 252 117 100 218 83 164 54 53 211 46 170 112 205 143 37 209 228 203 212 109 97 176 116 186 171 136 143 72 41 135 28 22 103 125 94 185 224 100 84 112 143 116 37 212 8 76 61 198 110 85 183 243 179 45 171 71 81 151 121 242 249 2 119 245 35 159 203 42 118 87 148 170 1 60 126 185 222 19 111 121 136 142 15 124 182 87 192 180 71 216 0 176 174 223 35 150 188 26 235 67 119 210 170 148 69 13 163 88 77 188 46 34 168 173 209 28 58 165 85 42 24 158 133 215 199 151 124 218 173 65 128 82 182 160 169 165 79 101 15 193 40 0 254 87 193 225 227 20 96 151 139 87 56 67 188 41 235 36 238 79 223 24 215 97 211 197 129 20 233 207 111 8 6 90 161 36 114 27 85 153 99 169 255 140 166 228 5 194 111
56 204 221 215 154 20 126 118 1 185 228 86 80 183 177 55 40 249 175 150 104 194 6 213 149 251 138 173 51 189 134 181 127 95 224 69 213 134 228 218 18 120 225 128 36 208 195 79 16 125 245 113 159 12 133 86 51 227 57 101 194 98 208 126 255 119 240 174 235 192 140 247 159 130 38 127 77 180 62 201 142 152 37 69 220 88 65 49 118 203 32 161 167 2 113 52 89 15 164 253 254 147 166 146 51 59 64 32 48 99 184 2 49 26 35 201 110 31 137 226 205 86 153 55 145 183 176 116 110 69 61 45 239 2 9 221 106 179 93 68 28 25 20 227 118 216 157 222 192 89 61 199 75 54 76 13 20 148 176 16 236 100 114 98 32 126 118 3 107 148 116 7 110 251 83 115 67 84 112 95 121 169 13 41 212 133 201 77 138 25 122 110 249 75 134 101 18 237 60 252 9 96 155 111 125 4 21 237 61 114 17 64 27 62 214 83 78 158 71 243 253 235 228 32 70 48 74 163 159 88 18 237 188 26 113 129 68 135 221 65 120 179 131 178 163 164 164 37 109 29 15 37 35 105 224 102 153 176 126 16 192 161 3 117 170 199 152 9 153 190 67 103 75 154 71 190 112 205 29 64 151 12 239 34 84 94 230 134 168 17 53 175 146 74 105 0 120 76 238 90
237 234 182 1 0 50 52 238 6 95 131 227 114 130 55 180 220 119 11 209 166 175 252 35 43 154 66 65 218 166 2 198 81 207 181 223 190 55 189 154 249 156 78 242 148 237 42 18 137 83 18 183 255 16 124 5 251 104 184 99 195 165 161 206 20 57 211 44 173 228 239 247 222 120 204 177 43 244 253 7 119 89 218 135 45 108 200 40 66 83 172 25 230 161 9 91 132 159 113 2 31 188 62 217 125 188 96 195 41 27 137 54 175 111 173 133 106 71 187 99 117 237 64 35 247 175 164 152 205 106 156 120 249 219 237 127 164 142 170 92 123 136 88 122 171 95 85 151 173 241 7 234 252 14 41 36 247 204 141 131 245 21 240 181 110 96 23 243 60 26 217 37 81 56 178 134 187 194 239 28 27 68 175 199 139 115 199 245 27 102 251 246 66 243 157 212 252 205 19 45 224 41 116 195 91 111 146 93 16 157 200 25 182 105 229 241 175 77 73 107 94 157 168 232 123 64 192 46 231 166 11 223 47 42 128 95 150 60 22 239 86 11 76 225 27 155 53 63 235 18 81 250 121 175 66 26 156 29 241 187 212 54 221 33 109 238 190 162 255 129 148 249 171 21 55 176 83 171 80 48 34 33 210 60 175 3 111 26 67 180 25 157 56 15 124 55 230 238 252 33
114 42 71 238 134 38 9 249 46 8 243 94 235 77 29 165 213 200 119 197 131 244 81 163 21 74 250 53 210 219 38 135 15 62 154 114 30 118 97 83 230 237 109 249 24 159 150 177 206 204 238 243 4 19 63 45 107 205 59 94 64 52 132 249 55 104 13 252 188 179 30 194 44 230 212 1 143 6 164 9 161 84 219 108 102 38 177 215 188 200 67 121 122 228 215 235 131 235 22 14 122 83 136 2 247 125 251 152 5 148 99 141 149 148 227 167 43 150 44 209 116 215 89 127 183 68 157 245 42 136 29 17 203 203 118 7 106 39 239 152 188 170 173 137 92 253 253 77 3 79 155 108 237 190 148 88 101 137 140 229 83 107 195 12 141 232 179 78 214 251 230 74 3 53 230 127 171 4 117 41 235 29 200 4 127 120 105 153 124 52 118 68 151 188 207 126 192 203 28 76 125 92 119 190 141 129 177 253 207 20 43 71 241 44 37 254 106 43 119 96 211 27 13 198 98 153 245 32 221 111 112 121 71 129 221 135 8 249 47 89 219 106 96 200 137 248 79 29 47 124 75 76 250 120 149 30 110 13 78 20 173 41 144 44 108 154 217 207 90 121 191 44 138 232 18 156 111 214 233 170 79 132 196 15 0 96 196 144 234 177 73 46 160 61 9 85 22 80 140 95
19 55 86 227 69 53 200 62 9 241 30 4 81 95 32 251 189 75 158 120 139 165 177 199 42 108 72 27 185 25 223 12 32 129 186 145 213 216 51 226 87 148 125 129 5 127 230 132 72 253 31 92 5 226 254 11 115 216 86 161 238 54 252 229 74 245 85 184 36 15 20 54 184 37 223 19 251 245 156 188 106 48 112 250 137 84 186 96 220 245 178 127 237 8 140 184 153 43 80 110 115 89 218 141 28 250 252 39 83 206 28 162 255 115 231 89 228 9 230 230 140 83 37 154 48 134 99 137 178 125 122 154 22 135 49 247 5 16 238 209 6 98 60 158 235 212 228 201 121 165 50 130 249 228 255 214 83 99 5 48 100 178 5 243 17 146 33 206 136 69 255 228 107 206 118 231 139 189 7 175 70 14 137 25 231 220 211 89 99 196 82 110 230 45 91 145 75 5 155 31 107 35 43 134 214 237 248 214 255 196 151 37 37 160 42 16 118 8 229 141 27 67 70 70 60 228 252 102 72 213 89 34 16 174 126 42 174 195 28 88 32 133 132 237 15 10 138 62 246 161 124 150 134 8 208 88 165 179 247 69 114 145 251 128 238 169 242 44 0 61 192 157 118 166 132 210 228 167 106 61 213 242 204 177 133 41 167 194 128 116 170 226 187 167 17 135 214 57 233 14
57 239 166 88 176 0 40 147 121 85 28 182 176 74 90 203 135 188 155 227 218 124 17 204 111 135 200 65 129 93 152 109 147 78 126 95 251 236 47 55 185 57 251 9 130 50 100 247 107 233 93 144 31 151 255 221 181 215 101 69 237 210 200 167 65 103 3 72 57 174 194 52 96 39 100 20 9 201 147 47 27 228 86 218 78 175 249 22 249 178 23 176 103 123 161 82 243 246 70 106 2 205 67 24 32 104 218 206 140 174 105 158 222 245 20 197 210 249 148 140 103 24 224 14 72 92 172 54 11 13 107 15 175 170 52 46 186 56 84 158 119 91 174 208 191 142 255 225 1 2 135 234 41 121 173 91 3 148 153 65 174 207 112 101 28 195 9 128 232 30 92 29 116 51 162 126 163 74 124 152 174 201 42 167 229 15 243 11 43 150 156 26 96 72 182 201 32 75 149 239 179 192 94 80 114 66 64 39 49 245 225 48 239 234 111 15 38 216 143 255 187 162 242 123 66 33 254 191 4 156 217 92 124 9 172 21 56 46 178 251 166 161 30 199 110 120 130 108 10 137 37 164 215 29 195 161 147 209 180 212 77 70 60 89 55 56 169 163 119 200 77 129 127 80 22 66 171 13 44 156 63 182 157 197 212 138 239 105 158 220 93 94 98 116 246 9 213 168 149 44
237 188 35 34 59 73 91 136 117 168 239 151 85 197 249 47 23 201 104 99 96 142 151 240 200 20 121 169 94 128 10 186 206 94 195 219 39 43 131 219 84 225 193 179 188 50 133 49 182 18 37 54 132 54 31 231 207 254 207 59 81 173 137 133 211 23 184 70 220 127 158 162 223 187 90 140 236 152 223 132 101 61 65 153 81 129 149 195 116 60 62 109 79 82 131 11 113 20 241 43 81 136 77 235 141 235 235 207 55 152 166 243 130 180 69 149 71 193 96 218 174 245 156 169 34 214 170 243 205 14 154 104 156 150 247 74 199 90 145 234 246 178 206 24 93 17 132 254 245 166 64 160 35 66 134 40 178 207 215 59 79 214 139 0 120 242 123 60 21 219 61 203 130 215 105 65 174 15 108 0 224 230 59 220 42 103 190 75 135 139 66 34 112 33 31 36 129 97 18 99 110 7 36 191 252 153 202 152 92 116 21 113 214 37 146 134 54 251 130 196 146 15 189 236 163 129 134 30 145 181 145 232 35 24 70 221 3 18 130 44 148 2 147 43 201 216 8 18 78 138 212 150 154 16 242 218 219 66 201 232 26 83 130 72 139 175 7 140 198 133 197 7 138 20 38 111 61 92 31 27 163 7 40 13 28 151 17 219 200 142 91 181 207 97 155 24 11 155 112 119
67 255 252 226 1 84 8 155 147 205 171 155 210 104 174 34 249 241 43 200 183 187 151 23 106 166 239 63 247 160 72 122 147 219 8 218 179 119 138 22 98 190 155 231 202 97 21 162 122 19 36 218 94 146 207 220 176 130 32 207 14 106 142 204 203 181 142 171 102 88 215 133 162 196 31 84 168 250 217 132 227 137 70 77 187 141 102 231 124 252 10 247 240 1 51 212 214 101 206 26 211 251 130 77 219 166 24 210 232 145 86 15 13 43 242 51 13 128 153 33 0 196 52 231 202 179 208 124 81 60 109 206 112 57 169 44 206 177 184 42 208 48 32 248 79 61 14 64 17 54 202 67 165 220 71 173 254 70 12 228 32 239 16 87 255 129 210 41 144 173 70 84 184 99 97 228 218 21 143 137 209 79 23 128 127 192 77 141 130 165 199 140 171 139 90 63 217 111 111 38 71 184 69 53 236 89 88 252 220 39 233 16 224 151 42 181 220 142 176 159 173 153 38 239 4 187 105 51 46 228 50 46 10 100 244 204 46 34 21 42 82 196 164 162 84 209 33 98 234 159 103 56 229 114 36 183 81 40 221 169 7 59 190 111 38 178 42 95 137 61 84 10 56 55 196 78 178 172 135 4 146 136 80 136 93 173 253 225 96 224 41 71 76 124 50 2 108 91 196 61
79 225 222 81 241 65 18 198 74 141 159 243 47 211 96 12 194 83 110 48 82 33 215 26 201 8 59 144 185 87 19 138 47 107 27 166 130 35 189 251 128 32 43 172 54 199 160 211 230 154 197 100 38 199 60 154 104 55 50 236 250 111 58 160 236 253 79 234 198 201 160 241 148 84 216 32 215 20 131 133 252 104 59 208 41 178 75 87 28 20 170 247 155 100 143 88 77 222 216 44 230 4 211 108 37 154 117 12 171 218 125 63 17 203 4 206 108 76 228 160 196 206 209 21 124 87 231 214 219 122 213 232 250 218 32 153 4 129 199 126 195 69 82 146 0 31 35 125 8 227 13 31 238 9 168 124 110 146 42 10 146 236 72 161 184 130 165 117 32 239 126 178 7 212 215 87 227 197 90 162 58 214 202 48 5 80 176 183 206 136 56 81 183 242 162 119 95 141 49 216 94 36 145 74 119 73 204 206 252 75 234 175 88 235 102 95 44 72 226 226 102 119 12 57 191 238 223 158 183 88 223 130 101 58 205 59 76 96 36 184 50 117 100 58 204 159 230 180 146 101 191 85 252 115 7 16 105 49 84 241 12 103 16 147 204 159 70 110 213 180 240 181 132 42 59 119 155 70 159 87 248 235 8 242 56 171 203 137 51 25 32 186 66 4 26 56 122 221 100 61
126 36 226 160 239 96 82 237 130 226 227 71 120 188 200 224 127 144 203 7 215 183 252 128 1 9 107 254 99 123 209 56 206 235 12 130 125 226 147 94 84 174 43 194 249 102 37 15 234 208 238 207 199 84 188 185 25 89 194 212 220 248 124 239 230 145 90 242 237 68 124 9 247 238 171 83 178 247 245 211 242 112 88 157 231 16 130 200 12 61 22 198 170 46 78 237 111 46 179 79 95 152 185 195 167 162 132 215 177 129 32 241 209 81 220 119 121 121 167 160 140 151 32 141 218 98 27 113 198 154 5 38 116 95 196 59 187 50 239 206 48 171 155 75 192 206 76 125 151 205 59 95 243 244 108 122 38 90 132 197 169 28 185 72 52 5 100 158 200 200 242 155 1 120 243 150 135 211 140 82 226 56 23 55 168 106 105 80 164 213 99 76 47 245 80 60 216 244 38 229 255 219 209 103 133 251 126 6 18 45 21 201 13 53 122 209 132 30 64 50 111 45 143 196 234 74 236 186 106 79 105 1 210 78 100 77 194 27 81 157 97 68 115 113 163 198 188 170 52 74 112 199 143 246 72 28 8 22 176 191 182 144 79 229 156 137 136 155 197 98 18 237 189 121 207 61 8 77 70 180 193 207 145 104 165 246 144 127 184 155 172 110 40 65 112 109 169 123 242 209
41 86 77 44 51 85 237 93 77 26 70 204 13 95 102 33 144 160 241 188 239 142 189 144 190 29 175 73 25 234 11 139 219 142 162 160 43 171 248 131 77 55 148 149 184 198 93 250 80 65 222 210 39 52 6 251 34 173 83 34 62 249 25 42 116 176 200 248 241 38 246 168 6 208 1 19 254 225 252 165 36 105 139 160 28 136 145 141 251 10 255 2 35 48 45 33 194 16 195 78 79 223 120 99 223 75 250 117 7 176 98 122 100 206 151 4 144 174 137 118 34 208 96 226 191 232 93 41 117 201 0 174 144 6 203 185 66 201 40 89 129 232 54 103 73 254 220 91 45 160 123 64 169 97 222 81 151 189 87 6 66 217 113 158 176 163 211 188 170 246 37 122 83 52 69 49 193 97 209 64 20 87 245 81 105 228 16 24 190 82 176 7 212 214 173 191 22 241 59 8 2 152 167 158 61 60 118 159 173 12 55 43 201 176 15 55 130 56 29 9 116 53 111 68 120 64 70 202 244 15 121 122 131 10 47 65 244 224 168 116 218 75 172 217 167 247 8 210 232 233 40 102 66 204 126 129 86 192 106 61 217 203 31 44 27 50 71 60 112 134 195 55 153 119 43 42 142 152 111 59 136 205 100 198 150 224 88 45 57 12 92 165 218 105 178 250 127 67 10 127
0 167 33 92 51 45 171 234 45 83 247 47 146 37 201 112 84 142 236 136 35 213 16 197 11 26 153 9 146 45 94 213 184 149 130 207 61 92 234 252 183 206 150 37 59 130 141 113 239 25 57 54 120 188 219 166 130 179 13 103 196 200 1 73 60 20 79 47 85 58 168 233 163 198 165 112 8 199 240 45 176 21 53 87 152 6 165 75 97 166 116 126 224 37 213 143 172 12 166 7 76 206 210 38 31 227 28 243 96 38 133 76 218 113 71 108 78 135 94 80 77 228 243 145 47 248 128 92 247 174 77 60 54 126 195 161 101 255 131 122 221 223 38 50 105 94 64 86 170 92 156 120 234 12 149 159 214 120 26 96 35 74 136 120 151 70 76 143 137 78 198 171 129 174 73 82 86 152 114 93 165 122 246 48 137 73 220 82 123 98 150 85 56 224 237 213 48 222 204 128 46 171 6 27 8 16 236 105 240 241 27 248 59 54 199 222 196 103 164 38 155 241 168 71 248 18 255 98 226 22 216 170 217 71 191 127 38 110 190 114 139 4 105 18 21 225 70 158 165 132 4 182 132 127 144 203 101 130 226 194 73 189 107 224 109 117 115 9 155 244 246 121 228 137 184 135 44 110 171 249 46 211 0 70 9 7 226 57 51 247 225 73 16 103 167 124 230 113 49 217
235 97 157 1 40 24 177 48 74 173 54 110 212 157 167 9 137 176 127 29 52 42 222 81 159 55 6 96 42 141 26 242 69 11 61 253 168 53 74 42 145 252 15 214 220 197 66 40 193 231 109 175 109 238 33 165 44 80 90 62 255 57 65 27 11 47 232 7 82 122 161 153 93 104 109 80 55 174 199 116 237 139 36 40 171 181 181 168 140 99 199 74 160 200 240 139 6 246 75 132 9 61 66 181 150 249 157 206 153 153 31 94 53 216 111 75 242 22 142 195 104 96 240 242 222 82 139 211 59 148 176 143 79 186 13 100 159 92 6 237 219 234 116 208 158 36 154 123 239 108 200 24 118 126 162 147 234 86 138 82 236 185 178 3 208 253 199 177 213 172 89 172 120 181 135 126 23 30 223 49 139 221 52 114 2 248 85 119 155 212 245 22 2 53 186 100 46 53 222 156 225 76 237 4 212 110 188 220 128 235 125 100 27 48 107 10 56 200 3 25 143 52 190 26 192 98 143 56 5 241 174 177 64 159 108 254 152 16 148 31 146 133 237 149 201 209 131 54 10 50 32 190 174 88 159 100 175 13 208 152 216 68 104 186 134 248 21 33 40 139 27 86 245 49 46 223 86 162 36 210 32 137 48 186 196 255 34 142 163 52 116 26 80 245 13 162 64 58 186 204
74 4 200 188 196 9 106 198 185 89 191 53 192 232 217 214 2 196 191 226 99 157 4 68 28 206 242 53 238 151 224 132 63 119 75 119 30 118 144 63 146 233 136 22 241 180 113 227 147 182 209 222 179 239 205 207 226 112 104 65 91 73 221 151 137 7 110 251 156 19 36 131 207 203 18 66 255 57 205 114 228 97 255 220 158 103 174 166 122 13 11 97 89 208 97 161 15 197 3 151 253 125 182 165 66 183 253 12 185 141 116 85 166 41 23 58 241 234 95 204 233 203 36 105 254 1 114 176 54 10 212 1 204 176 121 27 109 220 58 255 57 155 162 136 117 184 233 78 7 65 59 101 47 130 238 214 137 56 82 88 187 5 158 170 46 84 189 129 245 98 74 147 82 55 135 51 114 8 26 156 170 199 127 16 106 98 249 227 146 84 219 30 179 89 61 88 38 246 65 182 200 39 215 218 179 241 104 129 250 12 162 100 166 27 131 171 172 2 136 209 78 82 228 164 10 48 181 5 47 235 163 135 203 49 232 123 33 198 130 218 56 131 224 170 41 138 230 38 54 75 224 49 245 127 216 137 137 149 89 3 229 115 97 136 249 154 33 83 190 225 41 31 232 67 201 111 156 47 216 34 73 133 35 207 248 109 212 165 72 60 69 106 24 236 233 0 151 251 203 166
96 66 251 237 120 9 173 55 112 190 219 49 209 16 182 197 154 95 100 98 155 17 167 20 5 21 79 214 151 118 237 254 34 234 47 22 157 72 179 60 244 166 103 91 136 234 171 46 102 134 74 141 37 46 178 20 47 77 137 13 5 149 76 16 225 197 126 139 137 160 57 224 77 196 64 126 203 166 178 82 237 56 19 253 61 157 249 181 224 196 116 17 114 191 220 96 226 48 121 116 215 17 74 139 54 132 89 89 97 150 243 129 40 54 40 235 14 8 39 179 30 155 129 28 105 189 150 165 7 189 236 107 64 23 247 88 206 24 196 129 147 132 241 134 241 82 125 162 39 106 221 17 84 18 88 77 132 39 31 79 72 33 253 244 21 220 211 73 150 40 251 249 108 118 170 69 3 79 145 100 112 87 131 145 206 93 145 71 109 0 181 202 18 18 172 228 46 158 176 206 78 157 21 236 110 140 179 119 205 179 120 110 88 229 37 117 85 205 234 157 163 3 125 120 198 196 191 53 255 83 91 159 113 183 191 162 193 206 86 92 52 181 125 248 11 36 193 233 209 133 144 243 252 246 186 158 69 149 95 74 206 217 149 61 123 229 196 18 63 17 45 239 74 241 136 219 200 43 57 214 55 154 232 75 242 168 39 21 125 40 241 21 13 2 5 46 38 165 179 61
4 84 190 106 23 45 224 215 46 155 1 127 194 189 181 169 99 50 69 105 92 222 69 161 219 124 146 108 221 183 65 36 142 238 17 175 155 57 247 112 119 169 31 226 241 129 253 23 147 234 232 22 39 117 187 44 79 10 98 20 234 182 237 219 110 51 182 203 187 84 149 140 216 83 119 169 146 47 74 95 119 248 84 43 81 243 148 100 62 39 60 245 112 147 131 30 249 61 177 247 4 116 159 159 250 97 153 147 196 46 81 216 107 247 90 2 253 19 73 90 126 132 23 251 99 83 119 82 59 255 64 60 92 167 149 17 112 68 113 161 29 69 174 27 64 127 66 53 56 75 138 13 233 164 116 185 93 123 187 88 206 67 204 208 13 93 76 1 176 123 93 36 143 210 137 171 23 52 165 27 79 23 82 21 13 95 33 110 75 4 57 254 37 120 63 19 34 136 146 3 231 149 139 1 14 127 53 67 30 251 129 40 239 119 64 70 133 166 223 248 194 146 226 189 178 71 54 50 157 182 204 45 222 238 14 223 230 223 194 31 53 247 247 247 141 254 51 50 116 0 188 12 196 10 122 100 239 121 138 116 133 12 43 147 193 5 230 237 92 64 175 230 54 246 238 121 105 252 169 251 163 141 205 151 161 39 198 172 227 48 195 177 255 185 184 125 116 224 0 35
63 37 63 35 72 45 121 101 110 156 39 225 52 74 177 205 192 126 233 22 13 78 18 137 42 138 108 214 208 162 149 135 221 165 99 91 153 166 102 149 175 171 245 70 8 134 188 188 222 40 111 241 99 94 152 72 107 234 238 73 118 197 197 46 22 0 213 5 96 16 176 62 117 76 204 38 30 163 175 171 225 197 155 149 44 198 179 92 248 144 117 166 124 8 132 151 78 3 228 95 168 234 183 232 203 30 246 48 108 209 148 211 208 31 58 218 191 238 82 202 212 111 91 154 240 188 86 231 231 132 73 44 222 213 227 102 48 250 15 151 98 219 210 176 78 146 51 131 92 48 220 224 234 27 8 29 47 101 15 75 239 57 217 176 99 103 239 160 154 82 161 187 93 213 8 96 190 22 225 19 205 182 250 250 235 153 39 55 162 89 187 34 162 112 26 207 20 182 91 14 29 177 165 243 124 46 121 234 98 189 193 227 236 18 131 138 69 211 167 180 30 111 24 102 230 93 253 85 52 163 209 221 159 225 203 238 29 194 243 78 179 135 50 12 18 158 99 161 223 21 180 114 26 4 122 159 138 108 69 121 11 33 18 63 139 251 23 191 183 168 8 126 27 29 194 4 193 193 145 197 88 153 76 238 173 184 203 136 132 233 230 192 154 150 99 226 84 134 21 254
125 171 246 209 84 211 46 170 125 15 212 67 0 51 77 161 1 248 126 59 139 119 73 248 62 34 109 5 169 85 29 137 43 3 95 147 192 168 73 91 229 243 128 170 14 40 92 67 13 212 72 16 123 195 74 1 0 81 217 255 22 84 89 184 98 66 61 95 97 205 212 228 5 123 175 144 1 98 28 213 83 148 93 167 99 174 24 255 246 139 8 213 142 112 61 206 189 202 72 120 230 57 17 210 124 204 157 166 162 127 69 59 90 5 136 94 254 19 68 201 105 67 141 145 54 205 139 5 68 203 220 91 119 92 116 92 47 21 103 133 34 188 16 105 119 221 91 247 201 153 217 22 48 57 146 168 126 139 254 239 156 213 124 24 29 13 86 11 119 74 119 104 211 45 196 11 198 145 90 194 241 135 104 153 55 122 173 192 73 216 239 63 76 14 228 244 62 166 248 212 57 108 78 99 93 253 33 173 238 184 39 65 160 61 62 142 100 251 176 25 183 214 134 109 14 111 132 87 82 120 129 64 122 22 97 202 231 91 8 64 189 44 32 81 157 59 109 231 28 37 152 181 197 101 255 142 232 125 181 21 23 220 239 78 189 184 250 61 120 44 99 217 33 213 157 109 69 235 170 45 200 136 161 12 125 161 91 140 73 172 40 145 181 234 244 79 142 25 17 180
68 58 2 67 98 31 112 76 160 188 224 155 105 154 199 159 85 103 49 208 186 102 192 3 251 159 104 55 141 255 4 180 5 66 218 160 245 9 127 18 93 14 139 203 233 229 62 184 226 44 141 200 12 48 187 88 6 198 65 190 186 63 216 232 195 98 246 44 147 154 128 114 187 204 162 226 220 28 251 30 86 160 28 248 70 202 202 198 242 4 90 55 162 210 205 107 36 220 210 157 77 1 106 5 200 166 245 129 186 197 19 23 246 142 131 128 148 125 225 154 150 158 110 140 139 194 176 76 107 47 42 239 225 179 74 20 72 192 68 223 97 84 152 4 194 91 98 32 151 137 73 226 62 116 231 116 67 203 46 224 116 196 34 45 4 39 201 43 60 78 80 159 29 141 249 153 84 87 62 181 170 97 253 136 24 10 13 131 68 157 241 220 175 61 109 74 173 77 211 25 121 90 32 109 228 135 167 247 24 48 237 10 103 116 169 182 141 137 55 85 161 187 174 250 3 28 100 233 222 0 97 189 1 228 242 215 183 165 63 48 194 160 218 12 101 10 71 249 26 87 239 208 166 183 204 94 8 2 71 201 55 83 212 130 233 158 162 77 81 60 247 158 71 231 47 82 160 114 198 96 240 166 0 11 15 28 5 142 53 17 84 123 215 208 108 70 127 45 252 52
255 50 12 85 45 77 156 127 28 81 226 176 121 22 66 5 155 17 6 8 20 186 201 233 14 244 7 209 158 95 9 191 109 217 21 213 92 252 151 168 128 226 5 18 190 74 1 122 182 5 3 11 159 145 199 234 78 71 188 159 77 152 78 131 183 22 56 203 109 80 196 26 188 25 19 49 80 70 20 126 124 110 231 195 93 182 121 75 171 0 229 114 41 91 34 101 237 164 67 6 111 97 174 5 200 4 45 139 241 14 202 92 0 181 51 22 194 133 215 62 141 56 88 35 28 206 63 95 93 128 40 146 74 215 71 103 94 132 239 69 5 129 182 189 30 218 143 140 32 104 213 56 255 223 135 12 52 0 124 162 0 151 252 227 201 229 241 152 165 10 180 123 134 101 4 130 230 227 108 240 32 18 173 67 130 26 140 32 253 79 205 56 254 18 72 162 104 181 133 93 127 137 121 177 44 50 245 43 134 47 43 104 11 205 149 47 103 42 164 213 28 246 63 177 136 216 255 15 69 68 236 147 229 33 104 10 171 113 54 237 1 67 81 246 36 172 64 90 239 143 25 112 21 153 109 17 119 244 129 223 15 228 91 30 172 82 147 24 83 18 199 60 134 152 224 28 196 39 110 146 76 36 42 177 69 234 188 87 141 204 243 9 122 58 123 90 215 35 130 223
49 225 100 233 112 34 145 67 148 102 170 10 254 112 16 165 235 188 221 165 13 80 233 94 199 176 218 245 147 141 14 192 78 203 226 122 9 215 102 5 75 217 229 29 197 254 141 87 41 107 21 217 20 178 109 231 42 204 24 0 28 53 147 123 250 218 244 208 189 25 86 218 161 241 184 241 233 46 25 187 186 4 151 245 57 175 244 47 63 143 8 189 136 153 200 223 97 123 33 202 183 220 55 45 51 30 75 184 226 226 96 11 118 7 229 251 185 16 33 28 73 42 119 232 47 88 137 236 86 60 113 163 129 30 83 95 118 200 180 116 239 210 23 155 186 151 113 235 90 59 69 172 190 31 131 214 89 60 229 246 81 138 247 90 87 78 6 249 243 59 150 181 242 153 237 202 158 207 137 205 7 218 89 2 195 99 82 40 239 255 145 248 246 177 255 61 16 142 146 157 153 33 178 38 180 221 90 2 4 141 252 63 1 106 251 232 242 25 15 239 34 36 247 179 130 129 17 141 59 211 254 96 172 88 132 229 230 193 185 66 75 88 0 234 165 178 148 135 70 225 19 68 240 65 69 167 169 53 133 156 242 70 41 234 160 31 22 255 203 104 167 223 38 101 11 227 90 33 175 212 99 92 90 22 62 0 78 234 63 112 46 197 89 245 188 91 201 21 133 181
165 234 28 211 7 211 69 11 176 100 82 3 211 12 49 21 228 74 171 88 122 183 218 211 26 8 34 255 180 194 215 108 70 33 0 233 82 34 155 76 235 246 180 98 132 34 2 232 176 135 245 79 22 183 112 14 210 173 192 118 255 226 176 158 172 95 92 123 232 100 18 209 179 200 173 96 101 164 109 111 72 194 234 240 165 26 77 150 194 98 112 169 232 166 150 81 210 92 159 253 133 60 53 17 125 82 22 79 11 90 114 116 222 156 93 120 214 23 118 171 114 215 80 142 187 114 20 235 109 72 142 23 145 116 134 137 188 237 162 143 255 156 227 206 5 200 121 125 147 109 26 77 112 215 80 133 123 63 93 115 234 249 236 145 4 175 134 48 25 91 94 215 89 22 78 251 184 73 22 203 145 125 180 59 217 24 29 9 101 53 182 221 119 132 1 182 103 60 59 131 191 187 99 155 235 44 52 159 70 145 2 180 102 20 145 149 83 31 254 102 103 146 2 237 146 197 139 149 191 156 245 109 56 136 161 255 40 57 3 46 223 131 46 61 2 74 110 194 183 85 51 59 59 230 12 20 134 133 216 182 179 76 254 210 85 28 239 69 221 136 57 50 127 7 162 124 69 99 151 31 162 218 204 200 47 106 161 14 40 106 75 115 119 215 171 66 180 174 112 114
95 114 191 223 59 72 210 147 29 76 218 189 139 86 178 118 227 174 186 184 30 32 94 243 146 178 15 1 32 251 231 89 126 44 93 188 25 174 8 46 23 169 188 92 200 168 110 133 27 86 37 178 244 119 77 45 2 216 141 151 80 5 143 66 212 81 129 252 94 60 5 185 143 35 194 233 199 157 153 213 187 240 177 122 188 220 167 32 69 208 162 233 85 212 162 12 141 53 249 207 36 72 197 179 118 19 155 198 119 210 56 236 129 118 210 100 170 86 161 155 7 252 69 26 121 155 241 207 102 61 234 83 109 214 86 95 213 16 24 166 217 175 77 40 134 179 0 171 248 124 180 13 123 79 204 130 20 17 26 32 33 117 213 216 199 255 44 217 62 20 192 22 246 189 120 161 245 209 149 130 199 136 25 7 124 139 249 229 152 54 64 166 202 190 12 145 16 34 56 176 135 7 172 22 106 199 80 242 122 252 246 212 129 150 9 180 142 151 42 7 151 131 74 220 7 102 67 2 216 102 33 30 242 61 245 108 139 224 75 214 73 183 33 140 203 223 74 16 235 30 229 209 66 154 170 50 29 6 245 128 61 158 102 131 112 190 85 128 109 224 151 56 117 219 241 254 230 152 217 117 5 223 198 32 246 208 95 210 135 74 148 85 68 31 253 4 36 55 28 235
19 138 221 199 216 56 2 134 184 24 143 82 156 247 1 44 76 185 245 106 19 251 160 236 39 133 107 199 180 244 112 59 17 145 188 205 196 186 63 153 7 26 249 56 175 14 96 141 178 179 167 4 146 225 80 154 186 25 36 86 126 42 73 163 120 35 143 98 248 170 116 233 105 79 27 73 79 207 0 3 51 68 180 235 98 164 177 115 9 3 45 190 175 118 176 170 174 238 42 42 235 93 243 214 12 52 53 151 24 1 11 76 16 240 134 162 202 120 55 145 177 22 152 239 119 231 228 243 208 204 229 143 245 72 54 180 212 116 109 106 212 15 198 35 249 231 168 207 8 144 178 157 210 163 163 147 223 181 253 150 123 193 89 43 176 21 20 27 0 112 131 244 9 207 216 72 182 172 122 237 23 54 72 240 58 165 174 119 226 174 27 13 180 158 247 4 92 197 170 23 81 158 166 115 85 150 181 114 232 122 90 38 179 39 220 154 216 126 223 131 2 182 206 215 116 77 124 210 183 71 169 126 55 136 146 159 50 34 219 52 187 87 45 239 90 0 51 230 210 71 213 182 146 29 179 206 105 41 251 238 191 128 35 109 10 163 13 193 178 74 19 129 152 147 174 152 150 34 207 149 183 61 223 64 54 208 251 159 220 146 183 150 7 102 188 33 15 113 83 15
122 138 131 89 59 213 211 34 128 235 230 229 146 65 226 124 108 155 146 194 47 133 138 84 53 164 56 5 201 83 134 223 254 206 240 52 56 197 243 14 97 195 142 105 47 240 164 248 83 210 1 101 147 208 15 11 59 8 92 17 186 254 77 82 10 33 100 250 104 153 138 1 22 169 238 212 18 205 240 31 68 217 23 246 108 219 54 204 156 38 103 152 47 208 39 89 230 149 158 24 72 127 31 219 247 48 58 92 147 48 171 112 170 229 138 1 1 190 163 209 214 151 29 173 20 148 135 64 32 7 70 231 217 157 226 104 37 166 193 107 187 154 136 152 227 39 168 118 28 228 175 10 46 84 182 150 217 189 176 206 110 219 194 130 14 148 117 181 102 163 93 138 104 247 6 86 67 21 73 197 81 17 199 117 243 70 195 84 216 175 255 72 81 153 56 30 18 128 135 170 158 240 53 248 184 35 223 87 30 3 15 238 99 218 90 198 199 253 163 149 147 137 28 80 170 51 210 5 185 255 236 20 65 120 214 251 159 202 214 83 51 213 87 231 118 115 35 105 82 95 212 25 69 185 197 211 63 102 230 108 77 104 168 62 174 175 12 95 190 96 239 229 223 54 146 28 216 90 243 105 88 16 249 6 37 18 96 78 88 192 201 214 142 189 127 1 166 248 59 167
127 68 211 112 1 14 193 105 200 215 40 215 10 164 233 7 182 131 210 103 250 165 74 44 11 218 247 3 201 154 173 181 25 98 219 44 75 140 7 102 155 98 96 249 234 41 222 15 229 200 98 103 29 86 20 133 17 135 123 140 190 238 82 90 237 126 188 217 23 190 175 94 213 199 14 169 101 246 23 162 165 58 147 148 169 186 110 168 218 242 86 212 178 251 74 175 118 221 80 253 49 134 43 213 147 218 52 173 102 13 156 231 8 26 15 89 157 229 247 63 104 46 23 199 126 199 8 231 130 19 3 12 116 226 248 1 238 117 100 134 83 35 25 108 78 88 68 142 220 162 187 230 77 194 161 71 35 12 8 70 133 215 226 153 138 108 19 57 97 139 222 113 49 68 5 125 255 214 140 150 144 101 227 21 244 252 18 152 224 47 141 40 182 35 190 128 108 138 87 137 44 219 204 153 119 140 191 254 254 216 92 152 72 176 109 162 110 162 222 41 214 88 195 49 70 202 228 147 134 164 245 242 129 232 155 29 178 185 222 109 29 37 101 152 121 234 195 215 0 217 111 20 10 169 201 38 9 97 174 254 192 29 180 103 179 239 226 245 54 116 108 124 160 125 56 249 9 52 29 193 65 163 156 72 214 177 67 217 129 172 136 136 90 114 17 156 215 39 201 130
191 31 83 33 226 118 86 209 129 7 53 122 150 35 161 144 207 132 58 253 212 121 197 39 111 163 62 219 225 211 54 129 191 205 158 64 70 6 27 219 242 204 165 253 15 148 198 46 49 139 128 76 184 56 170 18 43 12 240 6 86 109 196 166 241 91 113 31 224 215 154 52 51 205 211 84 143 35 46 18 85 235 142 104 28 185 81 37 93 171 63 10 225 196 86 35 84 22 232 44 191 83 108 159 89 15 115 8 146 79 131 96 133 10 18 119 15 48 159 105 236 107 214 246 221 107 215 230 71 88 54 173 144 115 212 76 33 128 227 147 205 146 118 22 207 47 158 21 255 50 53 11 80 120 174 56 248 192 244 134 221 43 131 252 138 164 248 147 197 175 198 86 53 95 24 228 163 195 47 214 39 49 237 184 99 171 244 71 161 97 60 8 29 44 111 113 202 98 103 188 201 165 110 208 242 48 253 2 83 33 94 144 54 203 255 198 12 36 207 34 139 249 50 155 28 124 36 210 160 91 156 36 96 57 220 244 209 167 4 113 124 63 90 20 183 250 147 169 173 122 160 152 159 28 68 52 226 192 60 168 38 18 243 209 64 238 116 24 102 77 223 223 68 70 58 249 228 92 111 81 46 232 170 222 177 91 244 73 208 186 200 97 135 155 16 57 73 4 217 15
231 123 191 174 105 43 227 193 184 19 76 157 126 83 155 76 2 198 13 108 168 40 212 4 53 21 154 133 149 35 103 51 250 130 54 206 176 245 31 89 64 94 72 14 10 135 203 128 103 25 86 74 103 32 198 126 141 152 225 0 130 235 201 238 131 70 5 167 187 79 238 214 223 29 76 197 207 163 88 42 214 147 75 96 55 168 178 21 117 50 118 44 105 199 12 206 178 113 44 207 170 95 0 80 197 216 190 200 180 136 222 71 122 158 5 47 58 104 89 52 90 207 98 49 84 24 226 191 29 129 216 132 228 45 123 38 126 108 219 118 207 165 75 186 36 112 26 162 20 146 7 246 6 21 47 208 126 64 52 162 31 254 110 219 105 175 6 41 92 82 233 236 43 243 251 228 220 203 178 148 16 91 238 126 175 207 61 97 73 208 178 159 183 11 83 26 208 37 118 21 0 80 111 250 167 0 31 88 108 220 118 88 173 39 217 105 198 29 201 109 185 4 54 185 110 116 138 21 254 75 24 141 110 9 215 145 109 36 83 49 33 1 41 246 211 174 210 228 4 175 245 7 10 36 233 196 170 229 231 107 112 141 63 202 240 193 8 29 157 146 252 72 254 92 232 31 100 208 248 81 107 5 147 63 55 135 79 200 23 184 78 118 11 137 55 0 124 58 253 15
56 237 188 205 78 203 254 223 80 223 167 44 170 197 175 19 249 244 64 208 226 55 176 237 12 57 238 10 124 25 39 3 148 4 103 128 240 42 18 196 110 203 53 215 114 153 85 18 20 12 156 82 162 9 185 254 55 175 23 228 165 245 163 131 18 93 179 17 37 181 217 98 37 179 115 204 230 89 195 1 56 196 70 191 20 148 173 216 83 173 14 236 99 67 170 248 114 239 251 20 142 64 59 172 104 233 24 109 183 231 36 163 97 133 9 255 155 57 131 136 163 131 104 27 2 206 199 195 84 58 22 244 98 204 202 104 154 8 57 169 128 119 77 111 20 139 117 98 104 238 61 211 224 72 86 114 98 142 142 37 84 211 120 192 200 6 118 111 7 49 34 121 174 143 107 191 148 216 22 208 33 68 156 244 239 82 195 137 8 180 136 232 236 193 151 225 176 118 142 38 36 102 162 150 90 48 249 5 98 58 191 217 6 242 236 192 229 100 140 116 71 81 198 77 157 7 166 80 192 139 115 86 218 75 33 161 214 125 159 209 186 80 37 195 208 73 184 5 63 140 81 56 200 106 59 227 40 146 104 219 150 53 69 154 70 255 58 223 72 226 144 5 0 157 5 98 144 23 189 138 247 9 51 164 203 124 27 84 19 25 158 12 31 26 96 206 94 162 212 83
130 93 181 74 183 221 41 128 185 212 205 121 7 110 191 42 26 184 81 89 215 211 157 64 44 126 119 239 242 194 5 123 178 51 62 248 186 4 194 211 71 107 220 80 164 6 6 123 163 117 252 114 175 248 135 156 58 109 101 111 172 255 10 184 249 71 144 25 11 35 183 176 224 248 181 123 206 150 248 139 176 184 36 53 220 218 149 118 130 200 38 49 224 79 126 79 64 194 116 106 87 115 120 35 22 176 223 43 102 11 110 161 173 21 0 40 47 146 78 2 71 80 44 58 232 55 114 135 105 231 139 35 163 65 14 44 101 246 77 165 223 116 247 56 118 22 90 246 109 210 27 150 146 116 123 163 251 135 227 19 144 125 165 100 43 72 167 34 128 51 41 114 116 112 255 225 16 119 195 220 45 148 104 174 164 181 93 252 215 107 190 242 97 186 51 35 250 108 241 78 147 52 120 254 36 158 214 132 104 71 87 70 104 109 72 28 178 227 141 182 6 185 152 113 202 158 57 233 82 107 196 21 162 246 148 131 11 182 230 107 85 140 192 96 211 82 56 241 162 143 31 81 2 21 142 128 35 90 231 183 255 190 234 161 251 96 77 155 116 45 81 0 228 194 222 93 142 125 223 214 172 15 25 172 239 40 166 143 14 173 153 232 65 250 43 85 100 12 217 197
154 188 153 145 119 26 88 186 2 242 200 50 198 130 114 232 35 223 213 196 185 12 232 75 184 176 174 201 33 154 236 80 221 17 182 57 213 57 223 187 165 15 118 47 187 100 38 191 64 167 31 70 142 69 83 79 119 116 219 147 56 168 211 228 96 42 228 15 145 185 69 157 143 92 199 71 247 78 94 91 53 100 166 172 227 27 162 67 25 73 48 171 136 212 216 28 209 154 141 187 169 113 132 11 177 191 17 45 188 19 255 87 145 131 208 106 143 239 164 197 190 151 37 108 32 210 148 174 39 199 21 209 188 90 84 134 210 106 244 210 101 119 201 117 115 213 235 10 66 44 131 3 99 1 30 169 48 161 185 15 161 74 164 184 218 232 132 57 138 30 242 211 87 155 76 244 61 99 93 162 109 255 161 170 229 138 172 4 182 51 146 202 224 41 87 91 185 30 225 43 151 48 73 177 227 179 84 116 142 227 87 175 79 83 125 89 0 194 120 35 31 255 149 249 13 83 39 150 70 251 208 128 188 219 35 227 33 42 109 109 145 222 7 197 83 53 209 233 108 64 253 246 157 183 128 84 54 65 118 25 16 208 7 245 39 64 185 232 62 84 66 22 179 53 239 123 200 94 91 19 184 185 116 113 113 158 21 84 183 15 9 157 57 229 228 243 255 166 239 248
52 26 104 84 75 7 178 135 150 68 132 65 252 93 131 231 237 148 182 234 16 114 134 174 11 32 146 57 198 27 229 72 75 170 101 134 154 40 22 52 225 251 222 24 87 97 38 84 120 15 211 214 56 8 3 112 81 255 158 6 189 158 22 214 215 123 106 115 247 211 9 170 52 3 197 203 9 183 81 129 27 188 108 96 64 244 148 135 252 44 42 18 32 2 170 18 168 11 126 15 24 48 210 59 96 109 82 95 118 147 35 55 18 125 132 167 37 64 51 234 79 0 71 178 22 0 148 4 249 253 226 230 8 235 114 247 30 108 66 12 143 111 183 168 8 96 83 250 89 101 16 161 128 60 16 4 66 43 247 224 129 231 86 103 128 131 53 200 170 193 204 0 53 164 36 134 139 83 166 94 23 209 155 147 99 174 120 188 124 38 2 201 51 146 178 218 100 164 30 175 218 38 228 98 44 149 71 242 6 244 97 40 123 178 150 198 146 231 218 63 133 141 164 209 87 214 127 232 14 209 89 188 154 150 211 128 105 218 231 130 48 160 226 147 103 199 150 170 56 3 210 162 233 88 198 176 60 62 191 67 255 126 241 91 24 164 122 69 245 139 202 7 127 75 164 90 12 125 59 22 108 161 109 116 134 252 72 34 117 179 46 53 46 194 170 174 102 34 181 47
139 215 113 157 253 51 143 185 38 220 61 174 231 183 225 220 17 36 130 232 181 233 23 229 140 147 181 175 246 187 77 224 169 28 25 121 235 93 136 209 157 94 39 100 201 139 172 208 45 165 143 127 211 145 210 1 168 196 203 11 4 72 131 114 169 59 170 157 8 139 92 199 227 92 52 194 45 169 10 7 241 64 151 43 248 45 3 180 83 253 74 143 19 110 76 237 91 111 215 76 79 33 200 1 71 92 46 199 217 210 118 156 21 47 38 194 102 201 14 39 32 199 119 236 200 135 50 87 114 95 69 178 212 80 150 90 73 228 139 198 219 76 55 156 79 4 62 184 99 59 32 212 250 28 163 14 7 43 94 106 203 188 132 118 104 171 168 90 103 11 42 189 116 234 202 57 106 6 66 150 32 251 166 21 154 14 165 19 160 196 255 7 116 108 162 31 202 147 228 7 239 57 136 221 161 136 161 65 150 97 101 123 235 226 60 173 204 163 149 206 243 72 13 5 104 59 33 131 140 249 28 18 76 89 23 214 30 24 204 134 129 64 215 39 232 76 52 94 6 150 103 136 81 13 144 128 8 85 141 3 134 190 54 60 15 166 16 197 40 160 131 52 3 230 96 153 30 148 138 162 102 130 212 69 93 56 239 202 241 195 4 130 17 84 125 105 41 53 143 255
1 66 93 153 116 38 161 114 213 125 122 7 66 89 181 166 174 28 124 126 96 178 199 141 177 199 179 240 219 226 146 140 101 101 111 40 61 165 232 166 212 207 154 27 234 156 187 186 227 251 139 135 96 201 56 166 141 27 50 204 161 97 234 209 249 2 197 72 6 209 122 70 120 188 83 128 132 134 104 190 151 108 62 76 123 160 115 251 136 137 107 187 15 125 121 254 4 154 87 147 201 122 242 184 89 79 151 176 125 14 237 137 89 82 11 137 34 42 49 22 172 219 188 232 235 196 95 81 10 75 20 132 79 7 194 185 243 90 126 58 234 247 91 16 204 86 138 183 227 175 207 91 203 182 64 190 166 123 174 91 49 180 170 3 91 7 14 113 132 152 10 125 26 215 17 169 105 95 31 116 87 249 1 190 118 168 153 190 2 69 156 44 79 214 54 125 244 234 1 162 174 199 109 20 68 186 24 131 8 20 172 29 20 101 158 99 246 16 234 133 104 20 141 41 20 60 171 184 196 152 15 54 115 246 177 88 151 221 102 60 107 215 27 131 44 136 97 140 13 246 27 76 211 162 131 68 200 10 58 230 193 30 124 94 13 90 226 231 218 113 206 238 119 141 61 154 255 158 223 14 106 54 192 211 102 30 25 130 94 23 167 163 153 149 128 80 248 75 24 181
66 11 171 53 97 196 63 19 236 103 134 138 204 229 34 43 216 71 183 119 196 25 205 2 107 20 73 70 233 114 124 243 0 161 240 162 20 246 221 229 44 147 238 77 221 133 43 240 229 9 191 59 246 78 44 1 118 38 229 94 100 162 199 89 145 144 166 244 37 22 104 29 72 138 52 140 121 224 55 25 107 47 152 106 237 197 177 240 67 188 146 177 60 72 82 40 246 151 200 16 7 72 198 52 195 25 159 67 26 4 126 229 21 74 186 196 173 248 225 179 109 138 173 27 141 210 224 172 215 56 60 46 50 165 193 226 203 161 173 105 35 125 95 90 87 197 252 108 252 85 170 14 8 233 48 99 242 202 45 0 48 119 144 198 82 145 1 43 84 29 171 146 0 28 104 253 148 188 136 88 37 43 90 232 143 134 235 159 137 185 48 136 69 240 132 34 108 107 49 198 225 96 60 177 229 53 3 33 186 153 136 30 246 228 172 216 166 189 114 45 112 42 101 41 30 254 163 233 97 8 206 106 37 144 196 139 114 207 126 17 70 161 207 101 102 4 17 226 167 83 204 251 218 63 99 93 245 191 78 108 128 248 210 187 253 34 27 104 142 199 212 253 135 59 134 5 18 139 160 54 91 49 214 182 143 54 194 90 158 231 37 216 226 90 251 33 155 119 82 18
189 167 135 165 126 24 171 100 175 139 210 24 32 219 26 33 26 69 83 166 19 215 52 42 95 234 246 167 97 12 164 140 176 50 181 115 225 173 81 75 96 74 211 67 170 28 34 198 230 139 124 174 240 171 116 99 27 245 138 113 239 161 87 211 195 3 168 106 166 213 196 5 210 202 44 207 254 32 175 141 227 246 137 104 0 44 112 148 206 11 137 228 189 215 137 52 102 8 5 92 178 157 177 192 26 47 170 151 211 123 22 179 128 201 74 123 11 88 100 81 244 197 225 55 141 61 155 102 155 7 125 19 203 187 73 153 147 162 28 123 233 105 10 234 72 12 4 141 117 218 237 17 130 113 87 55 58 4 136 188 228 42 77 58 194 80 38 228 24 200 83 54 96 255 153 42 71 194 172 130 88 215 230 202 223 43 129 123 219 6 79 64 99 211 76 65 144 196 55 196 187 39 73 82 87 133 204 57 154 246 3 136 203 194 89 211 129 116 94 206 182 132 227 104 204 1 219 111 149 249 201 14 95 197 166 147 97 5 23 106 71 197 34 222 102 92 67 31 86 0 246 68 76 95 241 105 114 198 92 53 123 44 166 254 191 3 24 92 230 147 207 100 111 34 226 50 23 51 176 5 128 16 47 59 105 41 186 195 31 80 240 1 231 101 44 125 127 202 168 28
59 196 42 246 3 137 130 84 26 94 50 178 170 9 181 13 192 242 56 157 25 130 225 206 203 160 70 244 6 201 118 244 235 232 150 70 223 214 225 186 216 95 217 216 70 167 216 107 5 45 201 139 127 142 41 164 4 26 44 6 41 73 116 91 121 26 137 127 36 68 221 231 76 29 117 35 6 59 198 221 213 221 76 149 75 18 27 187 67 31 145 111 176 87 223 119 191 211 203 35 113 53 173 13 139 185 18 62 28 220 224 53 170 50 125 218 103 92 64 5 161 4 4 191 218 36 158 113 3 221 98 201 163 155 88 139 18 79 60 137 216 7 25 193 197 192 245 102 216 2 107 99 232 169 45 216 226 205 168 149 102 139 141 16 133 219 226 173 122 199 212 65 245 73 228 177 81 69 51 24 64 160 135 157 151 213 174 156 229 210 160 142 195 126 11 215 227 53 158 10 2 71 77 215 88 51 133 139 3 47 93 155 220 49 36 188 70 253 20 229 42 109 239 152 220 106 171 198 84 229 187 243 130 108 76 27 64 247 35 11 222 6 38 38 119 160 164 135 37 225 32 68 84 227 201 248 57 30 117 103 231 225 97 134 7 53 59 147 75 68 193 91 212 142 47 21 64 97 23 100 127 40 221 247 34 130 211 183 3 76 155 54 33 100 122 88 188 35 58 15
158 41 240 52 103 214 4 228 176 50 13 63 249 188 209 2 171 197 207 88 131 184 107 141 169 195 47 67 196 5 111 47 167 234 40 132 81 239 100 172 200 180 90 186 97 127 147 164 143 15 225 172 201 14 93 78 76 21 148 122 18 236 223 55 226 48 176 119 254 137 40 51 117 136 131 202 187 69 175 72 227 223 219 4 95 132 202 178 220 180 235 147 195 146 178 164 214 158 40 34 197 104 14 195 255 213 32 79 172 53 11 191 206 122 133 196 13 101 92 230 133 111 15 93 117 47 142 165 146 60 33 33 165 47 44 78 3 1 101 24 233 246 125 173 56 221 13 10 190 125 162 95 132 189 51 245 7 201 21 36 50 131 157 208 185 177 221 5 196 85 156 255 37 119 126 87 99 37 56 190 170 255 200 249 130 103 34 201 18 229 3 236 55 146 192 132 91 74 51 16 221 106 67 3 238 234 106 96 5 178 206 161 179 224 222 102 232 7 95 94 34 77 154 22 233 20 36 65 133 138 212 134 130 90 64 62 51 73 131 38 59 236 46 164 242 116 170 236 129 147 245 189 192 122 156 28 136 233 70 231 244 161 174 5 42 224 56 37 198 73 221 235 141 203 247 162 165 150 57 71 11 29 69 223 40 86 139 78 247 201 1 15 209 109 216 8 25 221 121 17
105 41 101 213 233 192 114 200 141 133 229 206 136 238 32 143 183 215 115 19 183 156 79 126 141 112 127 251 43 78 211 214 126 30 15 148 165 73 112 185 67 233 207 206 193 27 9 244 68 122 116 128 187 237 228 15 69 122 154 231 197 168 236 2 254 70 108 140 32 217 31 57 130 82 23 132 134 63 126 138 82 240 38 2 170 70 19 243 74 176 171 111 126 254 51 134 253 90 244 168 112 105 59 55 77 61 224 142 47 251 64 150 182 134 17 182 94 22 190 39 60 184 7 140 135 231 203 221 69 160 238 117 117 210 29 240 48 18 229 206 97 243 136 232 47 189 86 221 79 249 159 219 127 154 2 132 134 73 91 151 86 237 107 72 203 235 113 14 58 201 236 218 211 23 149 70 46 180 172 148 135 122 80 41 129 170 81 254 160 87 200 162 61 122 161 1 30 154 23 96 20 21 122 147 90 84 16 198 253 75 21 110 70 113 250 115 71 173 83 60 131 49 69 131 152 93 226 195 248 195 107 97 190 133 198 118 220 102 196 108 246 142 16 94 172 227 145 1 28 81 84 127 200 57 184 10 142 59 31 211 54 39 177 93 234 151 103 149 130 165 49 77 133 28 100 91 249 23 29 107 121 96 233 91 221 33 160 247 69 14 104 158 49 246 98 9 206 114 41 200
205 4 12 127 190 65 158 71 5 248 106 138 232 238 6 141 93 59 192 41 188 68 135 168 131 189 59 205 92 56 177 203 174 183 223 154 252 156 228 218 43 150 224 179 84 131 213 200 10 11 247 101 92 199 29 170 94 124 222 20 227 119 223 212 161 94 10 2 219 151 21 49 217 192 122 199 233 82 206 148 32 149 25 224 250 48 34 242 6 10 170 227 217 52 234 137 238 80 115 221 162 31 250 155 78 61 142 62 158 183 9 118 251 23 135 247 157 27 175 82 229 238 60 202 20 13 117 202 78 16 87 155 189 140 169 37 71 74 204 71 173 196 231 141 152 154 199 205 52 209 234 101 80 193 7 43 105 72 184 208 206 173 94 244 228 25 206 143 203 14 25 116 190 231 208 161 59 131 43 139 83 39 167 33 31 225 178 242 208 165 30 185 24 74 220 183 27 132 103 201 169 177 96 12 34 8 175 117 158 217 16 236 132 231 21 15 209 47 0 90 142 109 81 167 204 161 62 197 10 96 43 206 38 213 149 227 207 242 151 208 239 58 176 182 183 101 182 100 64 110 184 196 94 254 3 20 75 44 210 57 66 60 219 112 95 60 63 251 223 97 6 15 173 98 114 121 58 221 183 202 168 8 70 129 61 180 219 102 90 190 165 215 130 217 45 79 247 180 213 24
154 78 69 79 151 13 158 197 125 214 174 197 176 206 185 90 53 39 65 2 57 45 31 110 247 12 80 72 193 138 208 163 254 227 76 14 144 119 226 31 190 140 238 135 46 178 147 243 104 95 61 58 29 212 36 38 249 203 77 153 12 149 146 241 120 253 6 83 67 69 18 35 182 62 201 75 114 215 228 241 134 177 183 180 152 189 57 211 173 53 2 148 219 119 19 21 155 25 157 90 65 57 89 152 198 225 224 39 69 162 34 104 191 33 224 76 100 253 73 70 138 64 136 76 118 207 59 115 137 251 189 20 164 160 239 111 3 36 238 199 198 124 205 102 124 33 65 8 20 22 174 33 129 237 101 13 172 69 17 128 5 84 181 222 214 172 246 80 6 211 208 209 210 182 223 61 180 68 46 200 33 108 232 105 216 23 39 107 94 26 36 85 179 81 49 146 196 90 124 228 134 85 6 60 152 148 81 209 217 178 218 109 184 239 122 29 165 7 23 185 126 214 145 210 222 25 254 52 76 110 160 11 120 4 27 51 205 105 160 76 109 120 247 6 167 155 22 238 253 213 250 119 200 8 236 163 22 244 2 144 126 214 49 21 134 219 11 152 111 9 113 117 180 194 229 53 22 245 122 161 209 134 215 233 146 109 142 9 15 6 177 162 100 202 180 55 162 61 27 201
133 202 112 231 104 105 50 59 148 205 42 116 55 29 38 103 167 53 211 84 17 192 102 220 155 107 8 226 154 174 160 252 6 203 153 109 177 147 236 149 120 111 227 144 248 147 141 47 14 28 77 68 37 92 176 6 140 26 127 162 63 1 27 220 106 191 164 89 49 167 5 33 142 170 100 231 223 193 155 161 127 242 40 228 86 85 147 111 143 101 75 200 31 107 62 110 56 64 83 181 162 11 73 8 136 164 124 177 12 165 21 237 149 71 167 230 31 203 117 188 100 197 120 47 128 53 124 47 19 194 122 245 226 70 128 15 52 233 114 113 176 12 150 59 108 169 158 15 201 194 122 11 177 174 78 246 100 57 131 243 193 72 42 4 98 10 96 61 141 115 246 208 188 98 93 97 52 103 237 51 161 69 63 120 18 66 93 81 106 166 129 12 75 235 243 206 24 13 200 239 53 97 45 196 250 94 59 221 47 45 113 25 142 229 235 40 176 21 238 84 81 112 33 237 213 188 246 252 185 228 177 219 37 26 39 186 42 4 203 247 168 226 239 174 220 10 97 199 104 169 53 155 113 121 193 136 66 7 14 89 74 213 249 44 27 197 229 47 102 19 95 193 168 25 6 236 126 82 175 199 235 103 156 216 150 163 14 182 230 3 26 233 158 68 138 206 181 167 152 130
78 10 66 102 89 121 29 200 5 222 222 151 125 201 173 86 196 53 212 70 114 179 117 26 35 150 247 73 70 29 166 5 143 156 147 135 239 78 155 190 131 181 201 197 90 111 31 96 45 169 31 107 79 9 125 116 76 69 95 159 68 11 59 185 74 162 169 86 72 247 223 158 230 250 157 233 247 167 200 155 21 109 198 200 118 67 29 64 220 241 31 4 82 46 81 32 222 216 247 144 127 206 87 241 243 246 20 45 97 31 99 113 108 214 245 63 43 84 87 208 41 175 118 158 200 39 201 143 26 27 66 89 45 90 103 38 41 198 14 2 79 87 220 161 100 140 36 162 235 209 79 255 15 140 66 199 63 20 226 104 155 203 116 191 148 143 252 3 121 28 144 20 231 225 35 55 205 53 136 179 138 186 6 108 60 131 60 75 123 65 219 239 201 124 34 178 181 58 56 55 152 66 123 98 227 130 242 225 56 21 60 136 107 131 54 119 243 82 239 168 11 202 102 53 226 224 255 193 213 76 251 226 165 202 171 88 38 253 52 178 35 244 58 92 80 0 113 13 198 239 153 128 154 116 214 189 105 50 37 251 34 86 83 220 144 204 245 56 80 164 197 116 184 246 134 25 71 76 195 110 94 73 172 82 60 50 48 198 246 255 147 234 228 56 213 78 232 165 195 218
231 251 84 43 89 117 200 167 55 247 41 161 243 69 15 228 26 170 36 178 89 32 196 16 49 156 4 75 172 234 46 114 241 204 109 137 193 164 77 76 146 1 7 130 254 249 200 232 27 141 110 153 152 116 15 55 97 137 9 27 80 1 10 132 98 128 29 252 3 113 121 137 16 72 151 25 221 165 63 248 208 12 106 176 122 240 170 162 123 49 172 59 204 51 48 85 107 195 90 115 28 154 152 44 246 99 98 1 88 110 95 142 73 104 56 20 242 175 169 34 79 136 81 168 202 8 182 243 78 229 46 6 16 36 253 31 63 191 168 179 174 88 183 95 65 185 173 127 95 9 175 81 159 159 67 232 85 2 250 236 26 232 108 134 11 140 109 218 177 151 214 17 143 67 3 82 123 252 95 22 57 181 156 174 90 30 102 13 241 113 184 89 133 16 235 4 29 178 193 154 193 250 182 89 160 174 60 172 51 102 124 60 236 252 156 13 34 156 129 224 101 176 127 174 84 118 253 236 217 118 120 171 252 153 11 229 199 193 78 52 119 165 117 231 181 3 36 198 98 150 54 30 213 17 166 249 229 13 184 106 211 170 155 106 110 204 87 57 240 180 181 236 5 89 52 240 47 194 61 165 146 223 85 189 44 60 215 34 168 152 215 72 22 136 147 140 132 53 73 13
43 124 29 237 207 3 186 75 221 194 120 1 218 78 131 35 68 48 49 142 234 104 164 69 0 121 165 127 119 9 224 230 124 24 204 167 60 5 192 41 228 250 103 81 29 132 236 187 131 72 85 252 196 143 214 28 1 58 37 127 19 166 198 53 187 202 162 169 169 171 238 80 148 151 108 161 69 35 181 227 144 254 208 37 129 29 30 11 239 212 155 149 34 201 169 160 253 214 240 120 132 178 87 10 218 201 163 78 251 208 192 143 165 7 204 109 244 54 50 193 69 255 94 34 123 97 194 81 4 99 143 124 23 34 11 195 107 203 138 68 137 234 117 143 174 140 224 63 213 242 133 41 109 6 98 197 136 251 67 205 22 10 129 63 166 150 184 77 112 155 66 228 44 114 167 112 240 73 189 183 221 150 60 47 101 149 229 244 153 224 239 149 168 217 146 196 251 149 125 149 64 161 12 191 210 74 222 104 223 207 198 115 216 11 246 94 187 64 89 221 41 83 4 169 206 225 27 254 32 56 11 226 124 109 72 235 144 255 23 105 32 175 83 194 238 39 52 11 8 233 73 106 47 63 87 201 238 121 75 124 69 104 141 244 236 239 210 209 163 173 206 235 230 144 135 27 239 227 132 166 229 187 243 222 250 71 162 242 47 216 39 236 207 58 228 73 252 165 122 28
95 39 87 37 120 14 247 54 4 70 10 68 122 57 126 100 201 216 155 170 121 53 16 35 157 133 238 205 44 128 201 90 121 13 179 253 46 62 111 114 164 247 240 19 172 197 86 213 87 173 198 40 61 145 29 53 133 80 114 222 5 208 147 163 63 48 99 253 182 196 113 203 162 241 111 126 227 37 134 110 81 236 202 118 198 81 122 30 39 84 88 174 176 132 18 181 50 145 214 133 152 213 151 169 160 19 7 47 193 204 151 99 151 66 101 144 180 35 203 8 168 214 185 203 212 130 142 208 52 184 34 61 216 128 54 115 244 199 21 151 15 180 60 250 230 46 216 76 252 112 167 207 153 179 76 2 48 63 93 19 204 153 128 121 105 92 32 153 240 118 162 190 240 31 46 117 91 49 64 40 214 120 198 150 106 60 99 242 131 136 167 128 63 112 254 68 79 101 132 246 4 216 86 213 242 241 224 60 204 100 42 93 61 163 239 219 15 199 84 43 107 246 69 10 217 42 107 233 124 168 22 214 161 67 230 108 133 192 73 83 108 242 195 190 97 193 245 206 181 31 200 165 117 238 56 19 156 18 37 107 63 14 154 178 219 154 139 8 15 57 130 67 35 201 27 2 216 64 15 214 197 68 72 98 167 245 127 216 111 149 191 29 40 244 251 117 20 196 15 209
8 146 192 146 242 196 51 78 17 1 188 72 74 251 58 125 194 110 180 53 87 158 28 85 218 252 168 189 222 39 92 235 139 188 220 30 40 116 33 37 93 39 187 102 31 250 130 131 182 202 164 38 41 205 128 17 186 203 42 16 251 54 176 162 164 20 13 6 184 38 203 129 202 177 115 213 160 181 76 233 145 8 186 123 164 86 193 6 10 62 211 175 49 224 25 135 168 150 77 5 188 95 178 47 195 144 43 45 212 244 148 32 244 161 50 9 240 21 168 221 205 92 171 75 125 94 96 157 97 73 177 244 179 224 224 107 165 145 115 171 56 167 12 14 87 147 115 193 78 246 192 241 180 145 144 181 168 157 178 142 213 162 193 141 110 151 90 42 66 60 89 241 134 52 213 3 222 30 143 157 65 64 55 25 83 27 70 97 153 194 148 251 73 100 216 0 70 247 108 47 3 24 174 224 14 157 247 8 187 102 179 199 100 17 146 85 148 193 133 147 245 8 125 248 27 21 104 180 166 72 210 10 210 127 173 231 106 158 215 19 30 139 20 86 11 75 119 185 184 41 102 153 134 78 63 160 24 76 98 95 198 207 131 136 190 62 14 47 45 8 207 141 13 214 249 20 168 111 6 183 179 117 54 171 57 154 173 128 52 101 33 154 87 174 175 95 207 95 58 166
208 199 162 46 214 225 31 237 95 39 8 207 122 19 201 36 200 176 92 179 139 205 196 14 132 195 180 27 230 126 249 139 66 70 159 119 194 61 98 120 107 63 77 123 94 30 69 132 50 244 10 158 219 47 78 110 23 162 184 189 193 252 136 213 182 53 134 239 132 90 190 121 198 197 96 183 104 184 239 18 75 211 127 2 200 32 108 63 60 191 122 188 67 49 98 4 180 177 228 106 49 157 196 143 114 70 223 154 56 64 33 225 44 102 248 205 123 119 26 232 221 78 60 169 4 72 199 55 29 196 126 210 43 153 239 105 200 211 26 183 74 132 63 204 107 246 99 252 80 4 23 95 238 136 211 84 52 9 125 213 7 209 119 55 82 87 127 127 199 208 222 134 212 249 57 206 143 160 128 213 192 222 69 135 115 177 183 11 82 211 213 148 17 160 36 191 209 216 116 247 222 62 132 13 4 196 189 100 63 183 31 253 41 149 88 21 13 124 120 186 15 224 137 135 224 226 230 145 153 119 165 38 81 106 139 82 82 124 62 34 88 9 143 14 20 146 243 221 148 88 44 151 80 101 236 24 46 121 113 172 51 166 179 102 248 147 236 147 94 12 40 97 99 177 76 116 92 4 7 197 4 167 225 207 115 190 54 122 222 116 148 146 220 48 106 56 9 77 43 5
194 76 170 11 81 223 5 17 31 52 84 6 33 204 173 33 84 164 156 130 75 30 116 51 74 109 189 196 157 18 36 213 242 55 129 172 23 235 14 134 25 116 42 145 255 75 195 211 184 70 142 51 34 21 173 15 191 238 136 249 87 228 186 165 175 242 247 22 36 191 209 220 180 141 199 181 234 198 132 162 123 84 23 218 192 89 225 210 26 194 233 140 141 42 208 179 17 238 75 26 72 228 55 211 178 148 254 94 192 173 35 246 198 82 254 46 142 36 145 10 133 27 35 200 94 18 225 240 177 182 159 91 102 57 196 88 21 118 69 130 144 22 241 35 17 92 72 24 229 8 111 152 174 185 28 161 135 98 105 180 251 131 99 29 42 57 188 195 118 61 164 5 6 85 172 174 186 207 19 166 238 153 176 26 109 196 175 165 227 109 137 156 201 155 80 9 228 92 25 208 119 225 19 120 144 108 134 102 161 216 158 215 72 50 27 21 166 52 180 38 63 31 148 149 97 185 252 80 227 162 143 53 51 7 175 164 233 69 78 228 116 250 196 183 38 73 116 39 77 115 27 85 143 134 211 194 203 88 26 85 194 21 110 37 240 1 157 63 191 119 224 207 199 33 18 109 195 138 7 173 195 224 138 150 127 23 229 184 101 164 4 8 179 156 63 92 224 208 250 156
164 255 64 15 22 214 183 13 158 208 83 68 8 253 119 4 244 121 105 108 12 71 228 201 54 235 158 135 89 100 232 9 54 59 189 39 246 181 65 253 114 163 156 52 163 191 116 126 41 199 250 252 112 100 246 191 225 6 171 169 82 251 213 147 240 23 101 45 128 173 9 149 135 155 115 33 106 214 7 32 82 76 97 49 219 103 91 61 168 128 20 2 120 242 210 161 105 102 195 70 241 244 147 40 98 27 10 198 217 31 197 20 246 31 198 210 69 102 78 227 27 176 174 169 53 9 110 130 94 215 130 163 70 255 57 241 45 30 18 137 123 127 237 69 164 74 232 48 180 55 131 164 128 205 229 78 143 186 1 105 177 232 242 248 17 105 115 165 44 16 96 159 240 234 118 155 136 216 159 205 18 137 4 31 221 154 187 163 58 251 20 228 238 108 93 18 136 84 223 204 164 107 49 43 241 130 140 186 7 251 179 205 47 11 210 229 253 20 131 152 68 166 92 223 0 59 59 49 204 112 236 17 10 56 75 55 81 89 166 162 240 184 80 127 185 226 108 103 24 121 120 233 17 25 56 8 251 132 14 12 250 192 179 164 167 42 16 189 144 68 227 46 220 143 106 244 41 47 144 231 178 200 60 89 167 201 51 135 32 176 167 145 189 106 177 84 194 108 109 191
96 107 50 226 116 214 199 66 155 181 5 214 45 163 15 101 223 144 20 217 64 223 28 75 70 104 106 53 201 116 134 217 255 33 219 31 91 186 11 214 7 230 184 13 36 65 174 101 46 251 10 222 240 60 140 183 68 240 9 153 143 82 134 171 221 114 164 220 27 123 218 61 85 207 204 178 53 171 125 134 131 99 132 55 155 149 210 179 68 223 246 113 8 245 239 236 215 67 93 90 204 118 90 140 6 170 150 241 205 46 230 148 234 71 58 39 54 151 68 82 48 146 35 60 61 156 63 101 91 131 114 255 92 141 202 154 19 211 104 132 249 136 98 10 15 204 78 28 37 138 196 234 79 237 128 153 76 10 70 148 100 136 157 133 252 181 104 41 33 105 108 197 247 143 113 182 64 134 27 15 82 242 246 88 60 253 62 107 42 165 80 240 41 214 112 158 243 178 196 33 246 154 13 91 206 109 40 220 126 21 152 67 248 150 202 217 40 110 129 255 184 82 151 13 146 95 123 130 49 220 109 8 233 5 214 42 158 39 222 171 232 154 92 222 9 61 88 28 244 119 143 26 71 230 151 143 199 4 217 44 228 10 9 139 105 116 150 227 231 102 52 236 198 94 187 7 207 76 165 238 238 210 106 125 26 53 22 30 80 20 113 232 7 184 141 218 3 113 99 26
61 212 185 123 186 128 254 131 226 165 146 177 82 40 244 214 220 192 8 96 170 153 99 148 116 22 233 236 58 122 113 252 80 184 234 247 187 114 55 244 201 70 59 204 109 183 196 98 196 92 142 239 70 10 0 11 6 22 38 20 188 252 17 41 133 195 121 167 144 84 2 184 6 240 178 12 31 106 210 66 107 173 249 12 247 126 21 213 224 231 179 30 128 156 164 227 159 74 206 138 170 137 25 136 250 229 218 33 24 190 81 218 157 3 143 39 70 255 86 96 92 1 124 236 247 191 111 46 84 172 22 36 230 83 197 195 156 123 66 10 230 76 221 80 143 191 234 161 60 12 250 230 165 214 186 112 230 159 186 44 27 81 245 226 241 152 188 238 53 100 137 23 150 166 87 15 78 201 189 140 136 60 21 187 208 83 119 75 19 13 106 146 249 63 247 210 173 213 68 158 59 156 189 232 113 119 122 77 187 218 148 43 94 228 65 219 218 153 57 137 187 45 76 100 77 68 59 136 235 167 7 152 86 3 180 231 125 94 147 144 129 147 230 44 192 90 67 60 78 68 33 174 32 33 90 58 149 80 119 172 66 18 114 241 58 71 195 189 190 142 251 0 42 107 100 224 201 131 40 139 109 164 222 210 181 156 60 233 62 33 254 191 254 216 193 222 230 1 67 203
8 107 104 232 154 2 113 67 174 8 31 133 108 104 173 163 38 215 89 236 128 250 123 197 17 29 41 173 53 128 59 155 18 16 180 98 44 47 27 66 149 232 23 214 194 80 16 241 224 67 125 90 54 125 111 255 96 39 102 161 27 246 135 247 117 23 129 64 33 241 70 108 226 163 143 147 187 205 228 226 101 97 131 123 13 154 104 15 229 219 182 222 0 165 11 45 107 88 221 37 163 223 174 183 40 27 170 143 104 66 183 206 198 20 224 89 38 122 138 96 189 161 32 88 35 59 190 58 125 215 146 24 161 39 214 25 135 40 5 120 152 117 254 86 146 156 89 28 25 225 116 179 133 107 34 218 187 247 97 41 155 73 105 27 172 136 134 113 148 0 221 90 143 6 218 213 214 90 104 157 242 249 87 76 222 231 205 36 249 69 115 89 188 16 181 202 138 200 66 75 179 73 238 190 81 146 248 192 46 19 90 249 9 178 230 114 59 88 187 92 42 14 133 162 69 172 15 130 241 209 206 53 11 148 10 66 248 6 127 239 210 51 41 224 167 64 44 59 160 122 110 38 134 198 74 163 107 171 34 19 75 8 104 15 125 249 169 61 124 88 197 147 68 127 155 190 169 123 99 82 48 252 6 180 36 27 71 108 46 110 203 156 243 75 32 226 112 236 238 146
241 22 27 229 85 192 131 27 147 173 244 106 139 233 74 246 2 30 220 134 92 195 170 36 140 105 30 50 185 179 252 27 20 116 194 12 172 202 72 124 22 61 100 157 220 130 197 191 74 193 22 9 255 216 197 193 102 188 23 164 228 38 61 168 139 160 31 22 14 48 12 67 162 153 26 156 146 207 83 238 31 81 207 155 213 73 186 156 218 28 240 146 180 151 136 76 102 254 225 24 208 100 194 221 170 26 211 226 128 22 54 83 96 27 5 172 90 91 23 41 23 183 108 2 52 179 225 255 85 209 187 144 161 234 204 58 43 170 201 226 182 46 17 169 140 89 76 76 131 145 50 14 82 138 199 55 82 49 159 225 21 48 11 245 57 63 182 205 240 90 93 57 191 66 168 69 253 24 74 137 31 172 108 86 66 234 117 101 244 148 23 158 127 170 131 200 187 31 60 149 133 68 246 253 29 128 18 189 223 150 194 128 212 89 84 247 61 238 48 128 182 17 92 84 61 108 239 201 88 29 3 110 47 144 32 220 187 116 55 43 78 55 134 151 159 102 200 105 169 87 56 56 179 117 119 147 228 50 83 137 233 54 43 33 249 52 92 177 32 114 203 199 218 176 55 243 216 253 220 227 130 114 67 38 48 94 150 169 110 144 201 149 5 120 204 194 122 131 137 41
178 82 194 136 76 250 150 2 72 250 196 90 166 189 248 255 51 96 170 88 88 144 152 38 219 163 149 158 169 137 197 28 65 93 177 18 43 252 104 69 91 39 81 189 165 68 253 104 97 95 64 101 88 35 199 119 105 184 215 58 123 135 196 33 123 239 123 62 239 94 11 148 9 121 200 178 108 35 88 140 27 152 140 242 31 114 83 150 1 97 255 4 112 162 139 197 23 180 129 62 44 221 140 49 7 228 205 37 192 244 40 153 190 186 195 96 36 127 210 180 252 146 124 9 191 152 96 234 155 79 21 144 45 236 122 28 206 158 110 124 38 249 177 171 130 59 216 101 250 73 238 243 94 242 222 16 234 3 3 183 73 198 185 124 41 250 117 82 84 216 235 162 165 212 171 219 208 76 203 111 25 118 88 209 212 182 191 229 134 33 30 185 89 78 23 74 138 193 11 168 16 206 165 155 5 138 226 184 177 118 70 180 245 43 205 214 29 80 34 235 67 48 241 58 42 104 50 222 222 125 106 91 23 165 40 3 16 187 231 43 125 20 181 65 180 249 216 191 236 152 247 255 120 205 157 147 136 71 161 211 96 190 146 128 206 145 150 175 241 129 7 41 109 140 113 255 86 128 70 126 104 236 247 77 205 137 63 111 142 189 73 109 41 106 174 68 114 250 24 160
115 3 140 205 84 155 122 98 241 74 67 42 43 125 188 171 28 210 62 50 110 142 109 171 186 218 111 119 59 222 175 99 100 198 70 239 154 38 24 43 78 86 58 132 41 7 219 252 4 43 131 38 114 22 139 245 223 238 133 2 213 114 124 96 89 235 188 234 12 109 78 152 128 208 192 31 142 156 107 168 171 191 94 234 149 42 89 177 177 185 244 85 15 26 112 184 191 89 237 142 162 41 29 54 119 45 154 54 31 202 121 229 197 3 242 99 192 104 235 105 83 214 136 163 53 225 132 177 123 132 1 59 64 211 5 222 242 115 97 72 70 243 236 245 223 61 171 150 28 126 163 206 208 222 143 176 114 117 119 36 9 86 124 33 174 202 182 155 244 42 185 159 238 54 94 246 212 139 172 83 97 55 113 234 57 152 253 152 93 5 189 15 32 163 111 52 110 24 129 5 246 100 22 133 190 106 209 75 61 41 213 159 178 225 103 13 6 59 27 95 119 16 107 17 237 163 131 192 65 132 206 247 225 223 20 226 147 180 84 222 215 21 180 67 231 108 77 247 10 169 233 193 133 74 148 166 141 117 72 174 177 87 142 252 214 54 186 190 101 119 173 194 180 133 33 220 111 199 182 126 156 36 47 128 193 240 120 65 75 90 125 178 5 53 29 103 102 136 208 22
111 171 229 217 24 85 129 124 97 155 123 86 170 24 3 3 113 35 70 32 206 104 5 169 144 89 217 210 165 191 176 93 187 8 91 219 189 36 243 179 67 131 177 112 51 52 207 105 66 144 89 253 59 22 227 163 160 13 75 63 225 199 128 224 78 5 225 36 127 208 145 97 15 13 19 82 179 54 90 17 192 137 62 144 144 154 146 125 82 134 170 55 132 65 184 212 200 182 18 83 186 32 17 103 250 224 76 249 232 62 28 53 241 96 246 192 132 211 30 190 51 197 43 208 82 33 11 165 140 101 103 98 65 25 164 164 154 86 58 147 225 19 64 106 58 176 180 240 197 219 51 74 0 134 49 13 226 28 28 216 199 207 121 231 107 72 242 49 194 236 124 21 4 168 225 97 203 251 199 142 126 70 227 94 12 144 12 234 34 25 41 94 144 107 55 247 176 11 19 157 23 191 155 17 34 159 106 43 48 11 90 97 115 128 208 167 193 159 15 49 1 214 108 8 97 158 58 253 75 1 81 197 226 215 89 209 225 37 65 213 52 49 46 69 56 196 49 64 112 32 202 217 127 27 237 187 171 3 244 149 198 253 85 36 133 56 213 139 127 112 119 13 125 185 216 86 140 171 45 109 191 225 22 202 162 108 136 99 161 229 193 65 22 38 29 74 178 167 126 223
176 5 226 53 82 95 36 79 16 137 190 132 58 6 192 80 249 75 110 116 4 83 193 216 114 44 10 92 249 187 66 111 1 111 20 242 60 208 5 254 173 81 7 192 21 27 161 241 45 246 162 139 193 76 221 184 11 225 235 132 179 77 174 144 250 112 183 224 192 63 199 253 129 244 213 86 14 188 115 74 181 10 163 76 6 34 237 184 205 218 226 100 23 77 224 169 73 101 83 14 78 175 33 60 12 127 234 49 24 63 172 64 27 75 72 34 174 147 236 47 60 220 142 53 175 139 140 216 2 176 220 94 44 71 59 68 249 204 46 0 180 64 191 201 7 161 148 23 54 125 162 64 143 145 34 56 159 233 158 2 28 238 74 0 88 75 90 191 177 46 107 241 82 210 64 53 114 37 3 46 114 27 6 37 36 209 250 222 24 221 246 63 129 221 176 124 144 161 147 230 126 181 9 31 226 135 125 208 67 168 50 193 27 33 155 42 182 253 191 231 76 164 153 51 161 66 11 134 120 36 171 4 158 246 92 200 121 168 225 80 138 35 194 2 25 248 94 29 15 132 178 138 132 9 17 255 3 7 112 81 201 59 62 174 69 14 24 208 42 218 150 127 185 247 95 51 98 1 112 165 128 111 4 182 40 193 22 221 86 98 250 11 77 136 100 231 193 164 199 209
157 249 192 94 116 71 68 215 129 239 54 82 194 165 161 231 137 50 157 213 158 173 249 202 74 102 104 21 247 100 202 64 223 167 67 146 97 82 82 216 47 80 237 239 174 246 1 162 167 203 249 34 153 225 46 13 62 228 67 232 226 131 154 82 159 41 129 81 216 249 61 252 45 96 206 173 136 249 171 252 191 179 80 15 134 231 35 221 157 7 49 111 219 187 227 185 87 109 79 53 253 131 100 171 24 57 85 122 171 116 131 189 75 48 239 147 89 208 59 203 73 41 235 203 72 149 59 26 209 249 236 22 129 39 140 61 136 60 241 177 191 77 157 244 172 239 212 93 169 180 228 2 53 236 240 40 28 232 162 248 169 94 131 201 71 185 120 84 193 173 157 157 68 92 68 190 179 76 45 196 27 147 143 167 233 38 15 129 116 123 39 126 59 62 62 241 14 253 6 188 101 53 208 0 189 215 228 136 114 140 239 5 22 24 124 41 108 235 54 217 255 43 57 163 46 220 102 177 56 30 127 2 249 161 168 158 99 16 85 78 193 108 14 52 103 210 204 168 230 138 218 68 60 111 138 83 188 149 172 202 155 64 223 209 34 70 87 181 162 179 231 241 154 158 31 96 106 160 22 46 166 140 48 175 44 59 86 46 102 173 89 242 22 252 95 207 185 185 159 173
4 63 9 131 4 146 241 116 32 184 149 148 169 25 56 234 38 58 145 209 182 73 110 99 85 73 59 126 56 120 173 129 55 234 254 40 40 100 49 201 193 233 62 153 110 250 175 6 107 26 233 224 126 185 243 152 86 183 247 86 0 35 39 40 130 63 66 66 192 114 54 8 63 149 216 229 220 148 198 54 90 103 194 92 191 103 39 118 123 79 182 235 244 52 4 2 209 132 220 51 108 229 217 81 67 115 156 16 245 180 57 85 63 121 149 188 1 23 78 17 166 131 249 152 80 219 119 51 1 4 246 26 91 69 16 55 5 0 34 154 238 90 242 157 189 39 204 178 164 36 195 101 235 7 179 120 200 168 108 130 29 224 153 170 161 183 234 254 93 110 181 71 226 119 44 229 95 197 23 9 58 35 169 107 98 43 107 47 95 101 56 136 179 102 175 155 225 178 54 116 153 4 54 12 9 182 181 56 130 15 163 7 44 114 193 112 159 151 195 146 83 234 200 177 205 41 13 224 144 234 44 29 114 255 19 10 11 82 153 251 120 84 183 130 92 226 164 83 127 191 21 16 249 149 227 171 190 10 132 31 69 246 239 97 106 86 198 174 205 166 155 220 234 148 157 85 50 185 129 110 127 147 195 230 147 198 160 5 73 148 174 127 137 92 249 53 119 120 39 85
29 147 103 184 58 104 79 3 206 53 172 76 160 125 67 119 162 125 235 196 239 32 138 90 36 107 228 194 131 215 230 240 236 129 3 143 248 238 184 52 238 11 31 79 94 138 68 102 168 147 248 55 243 3 138 63 94 204 213 63 160 127 209 35 60 137 200 169 239 179 79 182 228 253 159 239 41 109 238 192 227 4 12 212 15 252 163 192 225 112 97 21 216 112 249 40 60 164 89 82 191 59 37 75 92 176 126 231 64 2 38 176 76 161 35 54 19 70 171 209 104 104 126 174 37 7 136 75 177 109 231 120 84 173 103 222 92 150 176 220 236 220 94 15 209 45 111 192 42 175 91 176 215 77 46 76 117 209 200 9 172 32 23 205 239 220 73 81 209 79 234 83 93 34 71 144 73 95 58 109 189 227 164 177 26 26 200 52 73 142 184 59 53 84 230 50 213 196 190 133 239 31 8 150 168 61 94 112 158 107 116 232 153 253 57 140 179 115 217 162 51 23 10 220 252 181 240 134 156 225 65 125 11 33 128 224 218 251 1 212 200 169 145 50 150 21 56 85 184 77 111 94 31 24 51 151 213 53 219 98 103 132 74 206 67 134 226 184 244 204 18 153 205 34 139 225 139 47 112 188 69 141 112 74 243 112 194 72 7 137 169 249 254 220 205 174 137 104 37 176
207 98 162 160 174 216 10 48 111 12 108 237 185 132 33 200 182 34 59 74 51 97 43 245 13 221 66 140 50 32 239 195 30 78 96 67 247 49 209 39 112 254 29 25 23 40 34 219 207 238 47 147 254 96 244 186 172 91 169 244 89 250 100 11 36 42 31 135 76 207 173 119 178 82 163 238 125 186 5 206 223 225 105 182 174 184 188 126 100 242 245 58 174 237 50 161 125 88 195 52 24 165 54 12 249 16 74 127 89 4 105 147 34 247 210 195 185 154 3 127 105 160 40 95 166 228 184 196 226 194 195 80 212 134 85 71 103 119 43 32 42 155 24 215 71 167 187 28 101 159 75 34 93 203 160 195 59 50 122 83 58 154 105 5 112 89 237 95 62 220 84 49 134 125 236 10 26 61 54 152 254 238 87 76 169 86 135 138 99 65 233 197 111 63 128 146 201 219 125 64 50 78 88 149 174 20 103 183 204 186 222 184 28 225 77 82 25 198 86 155 114 136 22 206 162 237 228 232 176 76 182 26 130 156 114 184 214 18 75 63 179 123 144 2 0 200 167 204 106 91 23 15 30 206 239 13 116 103 146 9 155 204 248 137 84 10 6 30 184 93 63 37 202 5 13 100 106 173 155 236 200 165 118 99 145 190 153 200 196 214 150 254 254 211 128 181 0 150 5 48
103 249 191 68 234 120 197 34 89 16 237 124 143 114 191 224 0 15 115 240 100 12 104 2 100 11 129 41 238 0 238 71 161 157 74 225 209 199 218 148 114 99 44 138 51 217 92 174 248 80 20 189 123 83 246 15 203 223 81 219 19 59 98 124 247 103 180 156 240 166 109 211 0 55 173 185 33 43 80 126 221 178 192 145 108 183 38 187 209 140 137 95 15 13 225 54 154 63 23 219 194 81 234 244 240 57 234 89 136 21 221 120 16 22 248 232 235 227 5 111 153 226 246 105 114 25 106 216 126 63 17 75 88 158 48 41 32 140 124 201 159 208 248 204 87 38 235 26 21 206 21 99 78 248 50 22 223 90 83 42 168 199 220 174 194 251 52 43 97 253 122 217 184 61 192 180 12 9 135 40 3 12 139 181 112 111 223 25 135 86 171 18 8 32 57 186 17 200 199 244 177 66 93 0 161 118 227 91 122 219 83 80 147 14 100 211 126 131 172 44 145 251 235 202 131 239 20 21 3 45 3 13 184 199 250 102 223 249 233 173 36 180 102 210 30 87 2 143 186 224 113 74 76 45 150 177 96 254 235 180 120 17 209 194 107 184 240 112 59 172 150 175 69 78 210 243 132 176 69 225 54 20 202 83 42 183 107 124 217 108 123 98 240 120 190 13 241 152 44 116
